aschuessler/rrl_ml_kinematic_modeling_origami_joint/ml_kinematics/experiments/trajectory_tracking/231024_trajectory_tracking_roll_40_degrees_1_vicon_raw.csv
datetime,timestamp,Spherical_Joint_Base_Trans_0,Spherical_Joint_Base_Trans_1,Spherical_Joint_Base_Trans_2,Spherical_Joint_Base_Ori_0,Spherical_Joint_Base_Ori_1,Spherical_Joint_Base_Ori_2,Spherical_Joint_Base_Ori_3,Spherical_Joint_Top_Trans_0,Spherical_Joint_Top_Trans_1,Spherical_Joint_Top_Trans_2,Spherical_Joint_Top_Ori_0,Spherical_Joint_Top_Ori_1,Spherical_Joint_Top_Ori_2,Spherical_Joint_Top_Ori_3
2023-10-24 10:36:36.741753,1698136596.741753,152.77816752714978,329.5149184951634,41.502456022093746,0.028897622479911386,-0.031648552614287465,0.941697425814035,-0.3337203241453075,149.7934469228298,342.717745502744,120.11397568302392,0.04439602681608648,-0.024372458172578163,0.9393195212210547,0.3392842659756269
2023-10-24 10:36:36.841777,1698136596.841777,152.8017112366893,329.57735785262304,41.470000573818794,0.02855499128580016,-0.03174125338212049,0.9419116098177308,-0.33313604517819856,149.8003124190744,342.7280245203164,120.10366178964308,0.044508158725609266,-0.024351637836503726,0.9392624260392187,0.3394291038972011
2023-10-24 10:36:36.941800,1698136596.9418,152.77927301177854,329.51868228942254,41.50312778061145,0.028813110079082344,-0.03174195245724984,0.9416867893355103,-0.3337487736797705,149.79863781226922,342.72359889332694,120.12529428065048,0.04450932903002748,-0.024798413301740218,0.9392886398115543,0.33932404784803155
2023-10-24 10:36:37.041824,1698136597.041824,152.79459965109575,329.58688303180566,41.50689816753841,0.028595738648796304,-0.0317668128562737,0.9419143715813081,-0.33312230477810034,149.7926021684741,342.73364495618733,120.13669714678751,0.04460490846201226,-0.024370902692703363,0.9392656555391423,0.3394060835749168
2023-10-24 10:36:37.498362,1698136597.498362,152.8088346137224,329.5888577445714,41.476621713618705,0.02861429726787467,-0.031909790547387386,0.9419243414161561,-0.3330788529865386,149.91790713132949,342.7680602881097,120.11231720440787,0.04482831749417824,-0.02372647168565385,0.9392085944541004,0.3395801710871002
2023-10-24 10:36:37.598386,1698136597.598386,152.7951636157899,329.5855724414804,41.49083144364906,0.028553149196584283,-0.031793593472812305,0.9419348816202455,-0.3330654047962613,149.89824160264212,342.756766622408,120.12335619484769,0.04474279149154567,-0.0239547707484093,0.9391680480311122,0.3396875463206824
2023-10-24 10:36:37.698410,1698136597.69841,152.80614941354386,329.58747661973723,41.50424841128227,0.028595957929842163,-0.03181358908970653,0.9419459050358174,-0.33302864550299716,150.09425151031164,342.8257742615418,120.14082446025915,0.04474900635444831,-0.02358531555131994,0.9391401994531885,0.3397895600098088
2023-10-24 10:36:37.798434,1698136597.798434,152.80677966393108,329.5891328167333,41.49072971326468,0.028591040163853127,-0.03192942437314139,0.9419304333503932,-0.33306174053753074,150.10349384502373,342.8244876716922,120.12261492628153,0.04552560545889014,-0.022995869056463263,0.9390340425020133,0.34002011157616346
2023-10-24 10:36:37.898457,1698136597.898457,152.8056410169259,329.59126653697143,41.49217857275613,0.02866680129134609,-0.03196505502878612,0.9419305497683741,-0.333051481266452,150.07472738898767,342.81596780681645,120.13403379626479,0.04467136751652774,-0.02362941525198519,0.9391979997889915,0.3396369191525123
2023-10-24 10:36:37.998481,1698136597.998481,152.80272419789162,329.59353697636254,41.49458183388683,0.02866156384936459,-0.032059414865625566,0.9419352974553931,-0.333029434260401,150.11007072611176,342.826329087697,120.12121147787849,0.045462382061724683,-0.023105286315260917,0.9390244494568927,0.34004764502014034
2023-10-24 10:36:38.098504,1698136598.098504,152.8007469537198,329.5973138360221,41.49000302757476,0.028726815505148967,-0.0322060017274128,0.9419416835054218,-0.33299160409631795,150.1952944624008,342.85057326489266,120.12400061828524,0.046186376413386826,-0.022768215242897544,0.9389387688241843,0.34020936995823486
2023-10-24 10:36:38.198528,1698136598.198528,152.79926185280308,329.6001500973083,41.48199237469311,0.028671637634391806,-0.032128308724995905,0.9419354170398901,-0.33302158953996047,150.1945509089019,342.84394780607323,120.10489978564041,0.04563475767943933,-0.02296673380845602,0.9387858509876893,0.3406921249677345
2023-10-24 10:36:38.298551,1698136598.298551,152.8035340888774,329.5978207856116,41.48969893537686,0.028677842310514328,-0.03215784955277012,0.9419345525401969,-0.3330206492148105,150.20633227373662,342.85983808324244,120.11924378510355,0.045890480177720606,-0.02219732195365595,0.9388638417385796,0.34049380229751514
2023-10-24 10:36:38.398575,1698136598.398575,152.80582001594703,329.5933982858691,41.49078037413668,0.028617963798715854,-0.03199051810516536,0.9419320055927238,-0.33304911910924984,150.21044928140412,342.8545417358116,120.11909721828171,0.04560477610978346,-0.022912027650460704,0.9388112198423233,0.34062991190306513
2023-10-24 10:36:38.498598,1698136598.498598,152.8052763923265,329.59090958889664,41.48742889851835,0.028637759377283183,-0.03207234476580207,0.941933321592009,-0.33303582557093964,150.20222226044686,342.850828412624,120.12410685688434,0.04618813531244445,-0.02272735069289759,0.9388648022735177,0.3404159319696276
2023-10-24 10:36:38.598622,1698136598.598622,152.80872323744134,329.5958048069186,41.49426650481502,0.028688696351505456,-0.032096651682068725,0.9419466921744941,-0.33299128029721736,150.26982298072156,342.8660442876922,120.11491056395424,0.046003649253913086,-0.022463918721316995,0.9387279240271763,0.34083562205648793
2023-10-24 10:36:38.698646,1698136598.698646,152.81431377427904,329.5920117033335,41.49307463731441,0.0285589158536317,-0.032078379284168776,0.9419382057611787,-0.33302820066051114,150.35682146348506,342.90781182070003,120.14902972400482,0.045180725983810927,-0.023000278663651716,0.938572288433958,0.34133817331909044
2023-10-24 10:36:38.798669,1698136598.798669,152.80362208512256,329.5980601617699,41.48138783833431,0.02868119093166572,-0.032232888995045055,0.9419513076553868,-0.33296571018662174,150.33540980134592,342.893456592836,120.12739183764229,0.04505664446795267,-0.022971547916127766,0.9385506081698631,0.34141611367890323
2023-10-24 10:36:38.898693,1698136598.898693,152.8011931554377,329.59463906404625,41.47858495090879,0.028666100592137807,-0.03216887212629195,0.9419441398020795,-0.33299347716657207,150.34318423227202,342.90015315442776,120.12427109514871,0.045037053264428584,-0.023048269573249864,0.9386300197397109,0.3411951452561507
2023-10-24 10:36:38.998716,1698136598.998716,152.8011277009769,329.6004247901213,41.478465965456685,0.028639234621734858,-0.03216232362031589,0.9419539118495832,-0.3329687780121299,150.35904129521666,342.89563422795356,120.10557929195015,0.04600890653840882,-0.022311849294754767,0.9385397524508342,0.34136270295642296
2023-10-24 10:36:39.098740,1698136599.09874,152.80663372412567,329.598362210515,41.491178849599876,0.028707022569553153,-0.03218734310278482,0.9419403209288366,-0.3329989693792689,150.3426043839494,342.8939464625083,120.13562094663413,0.04500662414737104,-0.023046915797511416,0.9385830603766022,0.3413284081777715
2023-10-24 10:36:39.198763,1698136599.198763,152.81009479491388,329.59070271780445,41.49565764637118,0.028576673359260236,-0.031979113041743015,0.9419535448210798,-0.3329928369616735,150.35027990858475,342.89553754537644,120.13811829963596,0.044998968133562155,-0.023001368502044664,0.938530026653843,0.34147828478994785
2023-10-24 10:36:39.298787,1698136599.298787,152.80783244270128,329.59744330858047,41.486593212306644,0.028692330143179092,-0.032268661804910566,0.9419400168500767,-0.33299322562591654,150.35339186569837,342.89762290358266,120.13234967454343,0.0451445679722296,-0.022995438809008388,0.9385537648562928,0.3413942123860048
2023-10-24 10:36:39.398811,1698136599.398811,152.8095625193414,329.5955548127841,41.475413258130594,0.0286746279139728,-0.032166704384337164,0.9419436341736834,-0.33299438265940745,150.34104714037133,342.89076265955697,120.12299212940181,0.04508387951332918,-0.023066154667358712,0.9385972704416251,0.3412778343760696
2023-10-24 10:36:39.498834,1698136599.498834,152.82199729478424,329.5875879143233,41.481457956635055,0.028595087164558195,-0.03206723965335942,0.9419311037347982,-0.3330462564689933,150.35208892990735,342.8951070251658,120.12421450238931,0.0450943271650742,-0.022893377672663865,0.9386300723243641,0.3411978637750023
2023-10-24 10:36:39.598858,1698136599.598858,152.82027363291292,329.59902001971875,41.47618599935101,0.028631259875164055,-0.032244791493576216,0.9419334016338285,-0.3330195058341499,150.3525048388107,342.89850261875716,120.13417919891005,0.045247052033176076,-0.022927714576551638,0.938612740141869,0.34122301831789664
2023-10-24 10:36:39.698881,1698136599.698881,152.81864474962185,329.60148583530173,41.47917939315061,0.028559722945733286,-0.03218548847230708,0.9419394163305735,-0.33301437284279567,150.34881579957676,342.9029847933618,120.14073544075151,0.045072297038344075,-0.023166299067841553,0.9385885499328919,0.341296563947043
2023-10-24 10:36:39.798905,1698136599.798905,152.7962981370345,329.60442934297936,41.509196603089116,0.0286996095837067,-0.03216942043212995,0.9419524360425237,-0.3329670689908528,150.33067952224616,342.90553693541517,120.15069967956366,0.04481486332536037,-0.022867099294719997,0.9386167216006185,0.34127316584619094
2023-10-24 10:36:39.898928,1698136599.898928,152.79559653285366,329.5966637981708,41.479899062522215,0.028589268417320377,-0.032078944516444496,0.9419497614580511,-0.33299285568791726,150.35863487143223,342.904734109129,120.1019429918394,0.04588744693857391,-0.021381024243119252,0.9384755796696396,0.3416149592443353
2023-10-24 10:36:39.998952,1698136599.998952,152.8137302021713,329.6002483693733,41.48876261589852,0.028657515854083968,-0.03217123691663664,0.941949509708177,-0.33297879731426056,150.34622768563432,342.90969521475057,120.1359084089255,0.0451072494287976,-0.022999426933483464,0.9385879311119367,0.3413049340116751
2023-10-24 10:36:40.098976,1698136600.098976,152.81693308267361,329.59348353631515,41.49659019702108,0.028671762259924637,-0.03213508347344968,0.9419400734535317,-0.3330077543863208,150.35544310727414,342.90756306534354,120.14083043872616,0.04491837619381563,-0.022973473409283976,0.9385853165483339,0.34133877974746407
2023-10-24 10:36:40.198999,1698136600.198999,152.81381234621466,329.58603836254173,41.47744221298017,0.02859461149553224,-0.03202464558327235,0.9419417680259615,-0.3330202334946198,150.34404992013478,342.9040952694999,120.13233154328461,0.04506443507973996,-0.022862455455793705,0.9386607098927916,0.3411195927017917
2023-10-24 10:36:40.299023,1698136600.299023,152.81041525968752,329.5853138628429,41.47717958975444,0.02854206066130616,-0.03208517063548985,0.9419307743968236,-0.3330500095221409,150.33534559646736,342.89964336258447,120.13367777852004,0.045218840496738855,-0.023012962938342714,0.9386229798803644,0.34119285109954167
2023-10-24 10:36:40.399046,1698136600.399046,152.8145083278121,329.5975363197697,41.47823595664714,0.028632801268516587,-0.03223010887726418,0.9419367553713944,-0.33301130859730177,150.34555871126628,342.9084103124637,120.1259169191125,0.04503605125896244,-0.023092475903084143,0.9385862607147312,0.34131264676423057
2023-10-24 10:36:40.499070,1698136600.49907,152.80890248200404,329.5952355845412,41.463593462422146,0.02864597943000778,-0.0321909276242402,0.9419304815604582,-0.33303171012453114,150.3401017857379,342.90385305522966,120.11031533808294,0.044852358820752114,-0.022842894837358154,0.9385537825801477,0.3414429165587726
2023-10-24 10:36:40.599093,1698136600.599093,152.81061961896856,329.59788465610706,41.48132819309571,0.028678903270940824,-0.032109228792552486,0.9419556942809115,-0.33296544557249425,150.3501999991316,342.91236681895003,120.11451340270762,0.045100982293107564,-0.02297194266995194,0.9385912004267168,0.34129862251069787
2023-10-24 10:36:40.699117,1698136600.699117,152.8299317539389,329.59350085222286,41.4805861113609,0.028592617846334236,-0.03218895502899709,0.9419249957732407,-0.33305200151990594,150.3583095558055,342.90669935880993,120.133285760718,0.04494179432444932,-0.023177438432243284,0.938550893684485,0.34141655120200753
2023-10-24 10:36:40.799140,1698136600.79914,152.82954769331715,329.5955285906587,41.48609350258872,0.028648722093071448,-0.03209154734975501,0.9419465276974613,-0.3329956790557921,150.37919236280322,342.91760903698406,120.11101709695149,0.045934893172083345,-0.022370559536844203,0.9385057304322366,0.34146235165993316
2023-10-24 10:36:40.899164,1698136600.899164,152.8084984982056,329.6016328653376,41.48826550721298,0.028660926972090408,-0.0321463918038406,0.9419445710949841,-0.3329948734496988,150.3456872737319,342.91957296899346,120.12879140634726,0.0453178616734339,-0.022864539788735684,0.9385739360203249,0.34132458284880673
2023-10-24 10:36:40.999187,1698136600.999187,152.81486539702075,329.6026020826773,41.48924957200952,0.02865748538619597,-0.032123083230262695,0.9419535397721805,-0.3329720483250519,150.35021972452833,342.9212482769844,120.12690788550239,0.04519634622503502,-0.02275737746186831,0.9385689592646055,0.34136153966713995
2023-10-24 10:36:41.099211,1698136601.099211,152.81631574957805,329.5965653768583,41.48722833715599,0.028592646451969152,-0.03211651161748741,0.941943529291055,-0.3330065733241733,150.35435040790804,342.9265634162895,120.13473994168324,0.04502393898164307,-0.022863805500183777,0.9385611018318918,0.34139881289297486
2023-10-24 10:36:41.199235,1698136601.199235,152.827046379737,329.595672342509,41.479679975481226,0.02863683742708954,-0.03215923482660401,0.9419408299620291,-0.33300628824090633,150.358606638059,342.91968186426476,120.12621844815651,0.045180283812369514,-0.023108836514193334,0.9385375036788269,0.3414265335586998
2023-10-24 10:36:41.299258,1698136601.299258,152.8165893817678,329.59619348523074,41.47870893665336,0.028652891513349155,-0.03215537434615361,0.9419512386307839,-0.3329758365865535,150.3529221262499,342.9198475887163,120.12190169422371,0.04504550832026258,-0.022966167532844823,0.93856555113624,0.34137686440259646
2023-10-24 10:36:41.399282,1698136601.399282,152.81010558499634,329.59168619096346,41.47502290613866,0.02856416294690385,-0.03219408726128591,0.9419424605419159,-0.33300455007221247,150.34032886553612,342.92096427221327,120.12467730027527,0.04509087655014428,-0.022887044670083245,0.9385013385767763,0.34155268045765413
2023-10-24 10:36:41.499305,1698136601.499305,152.81453760789063,329.58969640415984,41.48662344939183,0.028609571809040828,-0.03204284460966092,0.9419418029082074,-0.33301709932713713,150.3401999391502,342.92680063049943,120.13467175382706,0.04488525977453758,-0.02279655018978148,0.9385275396316987,0.3415138183255364
2023-10-24 10:36:41.599328,1698136601.599328,152.80688042931249,329.595107217321,41.482355723827624,0.028613478582328298,-0.032096278103339475,0.9419500816431431,-0.3329882001930518,150.3390458617083,342.9251928836557,120.12460687144309,0.0450247101861011,-0.022843493324963157,0.9385534279475787,0.3414211668500056
2023-10-24 10:36:41.699352,1698136601.699352,152.80375007592687,329.59529595367184,41.48260630349202,0.028664708323827483,-0.03220484684663014,0.9419417909828022,-0.33299676385275284,150.338477579094,342.9293234757074,120.13387819380047,0.045358923803526,-0.023084546346229567,0.9385042285706854,0.34149595122975823
2023-10-24 10:36:41.799376,1698136601.799376,152.80975028044838,329.59019316527593,41.475166522103535,0.02848604016686167,-0.03201057676246916,0.9419459018534412,-0.3330191983541694,150.34011316669782,342.9292371371413,120.12392325945567,0.045218424111259196,-0.022860861542824948,0.9386058475955797,0.3412502571278117
2023-10-24 10:36:41.899400,1698136601.8994,152.80808648040082,329.5929954152005,41.475392329521554,0.02860864115439465,-0.032056799620577475,0.9419471238043272,-0.3330007855938792,150.3513638841713,342.93217127015384,120.10296099033911,0.04488001997288005,-0.022088487200876063,0.9384249604543474,0.34184276522498924
2023-10-24 10:36:41.999423,1698136601.999423,152.80008769448312,329.58849034931404,41.47884285016295,0.02859563127762629,-0.032122470953521845,0.9419447696354724,-0.3330022337583507,150.3324528940105,342.93248459006224,120.12470991117277,0.0449922186232162,-0.02279167658449625,0.9385225547677205,0.3415137682936068
2023-10-24 10:36:42.099447,1698136602.099447,152.80975651455375,329.59808948981464,41.49285961014162,0.028647696553025483,-0.03217194086230127,0.9419471031691787,-0.3329863819055532,150.33785161658855,342.93292549666376,120.13276122166535,0.04498816622891838,-0.022770885557487498,0.9385659875213151,0.34139630744696936
2023-10-24 10:36:42.199470,1698136602.19947,152.80498069224748,329.59339420802473,41.4735938789925,0.028561234247704532,-0.03212933418305951,0.941946835542818,-0.3329986798683629,150.41657807999678,342.95851189643065,120.12146612557518,0.04515129267865376,-0.0227092278597716,0.9384269966449982,0.3417607697020068
2023-10-24 10:36:42.299493,1698136602.299493,152.81518078528183,329.5988062895671,41.468126146762756,0.02861034400850824,-0.03221370001768039,0.9419397377782992,-0.3330063905408346,150.4670409620875,342.9654162884126,120.10198833573249,0.04499106289277581,-0.022623701132201943,0.9384639610944977,0.3416860637100734
2023-10-24 10:36:42.399517,1698136602.399517,152.8073146443796,329.60466054322336,41.4845032894005,0.028715515597505764,-0.03224467772829474,0.9419560858636691,-0.33294809239063683,150.45824519505794,342.9705123055352,120.11978851530164,0.04542858108886516,-0.02272084377432218,0.9384696307651527,0.3416061466220323
2023-10-24 10:36:42.499541,1698136602.499541,152.8169597955524,329.587084708102,41.463429622804995,0.028500088894541756,-0.032002652172858574,0.9419458851057442,-0.3330188053537854,150.4562529092892,342.96098394218393,120.10505592270854,0.04491857517089355,-0.022904901772370267,0.938485158609365,0.3416186384689365
2023-10-24 10:36:42.599565,1698136602.599565,152.81581216519925,329.58591415737044,41.48110416686336,0.028496890139772704,-0.03204507062763328,0.9419437404368813,-0.3330210662294636,150.45977127170772,342.9674016585692,120.12510149176589,0.04488323069004069,-0.02296402743888765,0.9384676650520701,0.3416673685008948
2023-10-24 10:36:42.699588,1698136602.699588,152.8056405443445,329.59082286191335,41.490359316507714,0.028593154014563613,-0.03199359250775019,0.9419560895340546,-0.33298283284827096,150.45753284653193,342.96659029236724,120.1291278746267,0.04557593845949001,-0.022755496827043743,0.938316858822042,0.3420036456648196
2023-10-24 10:36:42.799611,1698136602.799611,152.7832073504248,329.5180130638199,41.47804178792909,0.028861811102116275,-0.032182527372975916,0.9417561592346138,-0.33350654766505317,151.0340202813208,342.664483782663,120.15459786541257,0.04809470747059314,-0.022749607797942828,0.9380608637142566,0.34236116956515517
2023-10-24 10:36:42.899635,1698136602.899635,152.77719902259085,329.5097988158518,41.464314015371436,0.02903792070390101,-0.03215649544485425,0.9417751145952661,-0.3334402382601303,151.1014426231503,342.4127323106163,120.16505235687026,0.049057640798363694,-0.02236956963833491,0.9380500234485054,0.3422792774062621
2023-10-24 10:36:42.999659,1698136602.999659,152.8079398699931,329.57098769632665,41.44266904878753,0.02877216133168617,-0.03225107550805243,0.9419839993010702,-0.3328635995744185,151.07240894683477,342.3745820603449,120.15764320697325,0.048957189749307815,-0.02249555902984237,0.9380861460949126,0.3421863905835231
2023-10-24 10:36:43.099682,1698136603.099682,152.83891424971992,329.57328687731604,41.45101440548815,0.028772634162120045,-0.032374741219934375,0.9419834235409099,-0.3328531829928353,151.13711373918855,342.3945534897271,120.16857631679136,0.0490246854804809,-0.022488131822393106,0.9380659404781505,0.3422326043139688
2023-10-24 10:36:43.199706,1698136603.199706,152.813223569777,329.5072989812185,41.470914991657985,0.028986610835128754,-0.0322546653003512,0.9417803031328181,-0.33342056563702294,151.12862580102225,342.3836498556274,120.17655676009431,0.04911607118460158,-0.022577881409774785,0.9380821694643142,0.3421691016961659
2023-10-24 10:36:43.299729,1698136603.299729,152.81266868406396,329.5704290524849,41.455899220080255,0.02869623174900819,-0.03222222129965226,0.9419874025752916,-0.3328633174853892,151.10922035425583,342.3864690083043,120.17167929261558,0.049246577637799,-0.022596357290743146,0.9380358666470334,0.34227604665226347
2023-10-24 10:36:43.399753,1698136603.399753,152.79539555491237,329.56399481966235,41.44981731414132,0.02880651780917805,-0.032233109180668774,0.9419904157535516,-0.3328442095526188,151.08739820807847,342.37431973646846,120.15767160831611,0.04922323451692241,-0.022496271582449826,0.9380765863671053,0.34217438398924543
2023-10-24 10:36:43.499777,1698136603.499777,152.81588865823602,329.5723073818432,41.44886736770604,0.028774921770821214,-0.032311187051520605,0.9419860073525623,-0.3328518484557104,151.11154124535622,342.38498366014187,120.1628743661673,0.04926512482944477,-0.022568708159693012,0.93803335825826,0.3422820761919514
2023-10-24 10:36:43.599800,1698136603.5998,152.83399419487728,329.5688014586864,41.45780181536174,0.028762849550162117,-0.03226490919182484,0.9419850431360117,-0.33286010969872065,151.13151349841067,342.3896703883548,120.16964252575318,0.04925268862229127,-0.022345398344907782,0.9380711736205857,0.3421948700059369
2023-10-24 10:36:43.699824,1698136603.699824,152.8294921721759,329.57322662431085,41.45620694541914,0.028808885268603052,-0.0323600515494747,0.9419919188582925,-0.33282743276203647,151.1345917734363,342.39962421226795,120.16830560989423,0.049193727353354755,-0.022499765750177054,0.9380437557274367,0.34226838894504424
2023-10-24 10:36:43.799847,1698136603.799847,152.82182770620958,329.5663068005167,41.455127255819285,0.0287945304454004,-0.03232776227684663,0.9419857856861098,-0.3328491705982201,151.12087330391932,342.40263661551404,120.1653299510354,0.04920377484660164,-0.022310905044150925,0.938016946392248,0.3423527717690021
2023-10-24 10:36:43.899871,1698136603.899871,152.78501425600209,329.50021169904807,41.471682700955334,0.028984969612166844,-0.0322812356201669,0.9417639276531878,-0.33346438780574206,151.11220600534392,342.4052040176946,120.1712807926125,0.04912230575571175,-0.02244837851624141,0.9380022741192884,0.3423956821081093
2023-10-24 10:36:43.999894,1698136603.999894,152.81790115060548,329.57725584330825,41.44301913376646,0.02885471230518653,-0.03246204479090558,0.9419841993671795,-0.33283537878109054,151.11723806532143,342.40394658399543,120.15675620412183,0.04898373710238016,-0.022630733381635917,0.9380396966394725,0.34230099464450964
2023-10-24 10:36:44.099918,1698136604.099918,152.79757388303486,329.497212242452,41.432537225225104,0.029014265666026304,-0.032312897533432604,0.941753271725217,-0.33348886673426587,151.11800723860435,342.4010370039443,120.13610318579563,0.04909208388596376,-0.02230734017154692,0.9380943599514994,0.3421568670966451
2023-10-24 10:36:44.199941,1698136604.199941,152.79834535401397,329.504787247394,41.43659482409139,0.028914248678619407,-0.03243235770456503,0.9417551155826456,-0.33348075007561073,151.11709267554315,342.406283055999,120.15727406803029,0.049186220568633844,-0.0225402906176956,0.938050751777573,0.3422476268647801
2023-10-24 10:36:44.299965,1698136604.299965,152.82098014750758,329.5060974003535,41.46928064120478,0.02899105512289036,-0.03231636249151497,0.9417608178033229,-0.3334692391939547,151.1403465047965,342.40659320507035,120.18079883262973,0.04909304145187372,-0.022288174083711164,0.9381157620612562,0.3420992948680944
2023-10-24 10:36:44.399989,1698136604.399989,152.82595182000563,329.50526356573096,41.45214824304525,0.028958977080640786,-0.03230112082354158,0.9417617607759721,-0.3334708400747011,151.13424369705143,342.41289012455746,120.16255307051979,0.04885255801113112,-0.02240232435891253,0.9380395766585852,0.34233509323653866
2023-10-24 10:36:44.500012,1698136604.500012,152.80958123054975,329.5031143956389,41.420981762956934,0.02894737823495272,-0.032390162712987426,0.9417463228143834,-0.33350680670465505,151.10345509916047,342.41704028328405,120.14583072742519,0.04894719910809406,-0.023074851322130455,0.9380928906881502,0.3421307518716853
2023-10-24 10:36:44.600035,1698136604.600035,152.82715026502132,329.57502203551746,41.44713928513088,0.028799592704236206,-0.032414761422398505,0.9419762844374444,-0.3328671600795519,151.10676730312426,342.4213219379114,120.15795336272164,0.04890369223860236,-0.022583017718707403,0.9380888608471228,0.34218083720555736
2023-10-24 10:36:44.700059,1698136604.700059,152.80877947783054,329.5827278857091,41.44607019517149,0.028879562510660026,-0.03250121646839853,0.9419804940511385,-0.33283988736994913,150.94699461444077,342.39003837153285,120.16161236827678,0.0488471980174426,-0.023398464309129955,0.9382202659522407,0.3417736029454671
2023-10-24 10:36:44.800083,1698136604.800083,152.79338586311295,329.59178655672326,41.45355593164533,0.02884585842169796,-0.03244334174402979,0.9419819615108217,-0.3328443032659869,150.54498409871823,342.53599162974587,120.1365269068487,0.04625299740182925,-0.02467865771648438,0.9383172638181038,0.3417781978207009
2023-10-24 10:36:44.900106,1698136604.900106,152.8085260944948,329.59016606058253,41.478666904963724,0.028733289391938078,-0.032263032923919924,0.9419710182596748,-0.33290253160061845,150.6936200029738,342.7850316691861,120.11318123348448,0.04549463922971731,-0.023600383649306143,0.9378720290603203,0.343175344101585
2023-10-24 10:36:45.000129,1698136605.000129,152.79185667256684,329.5712227522848,41.542071270619175,0.028478018470617105,-0.031383183302489154,0.9419039670345456,-0.3331981619912922,150.38167921907603,341.2558122219511,120.15923555771646,0.05121309440012384,-0.02947909694450148,0.9404334160282268,0.3348032135789335
2023-10-24 10:36:45.100153,1698136605.100153,152.8048129329591,329.5798117158473,41.557359970956945,0.0282876104590882,-0.03108414368001757,0.9419269874123712,-0.33317733639977615,150.65412672300164,341.28307859965,120.16113161010844,0.052710451813158934,-0.02846302795838719,0.9414400740579255,0.3318162914428713
2023-10-24 10:36:45.200177,1698136605.200177,152.79855738289476,329.5394762820359,41.51594220669238,0.028652904088954136,-0.03190175589817438,0.9417653781810028,-0.33352550354879185,151.5591017021027,343.12843274301395,120.09838380007785,0.049141812648207016,-0.01842361827578495,0.9400995810130172,0.3368359100785221
2023-10-24 10:36:45.300200,1698136605.3002,152.81088780444088,329.60160158112814,41.48888046700661,0.028631444345412278,-0.032159366176261785,0.9419537571165879,-0.3329701713604104,150.4008096798161,342.74016542241816,120.14879703285068,0.04612274932551952,-0.023823341406643612,0.9391612837101097,0.33953088751814153
2023-10-24 10:36:45.400224,1698136605.400224,152.8108346580418,329.54720949521317,41.47825806430621,0.028836190859116782,-0.03205386909648198,0.9419396432003708,-0.33300260080101535,146.08445370393125,345.1709558551926,119.74505483189841,0.013561768563719965,-0.017121926287371334,0.9434203856289824,0.33087897191162813
2023-10-24 10:36:45.500248,1698136605.500248,152.80277759304747,329.52687004538666,41.434761053521655,0.028980332123515095,-0.03228258084726042,0.9419142418378789,-0.3330398419811432,143.8958320354869,346.4559529810244,119.4240646410649,-0.0005198915417723232,-0.015598759225875438,0.9458367372224292,0.32426728935220617
2023-10-24 10:36:45.600271,1698136605.600271,152.80160432102568,329.52156385761,41.463235971973575,0.02897006488882584,-0.03207076774218336,0.9419236692739418,-0.333034536434704,140.2734846544031,349.80482832243047,118.68406924130707,-0.027427113427824376,-0.0012352684783178824,0.9458336281676876,0.3234887562002001
2023-10-24 10:36:45.700295,1698136605.700295,152.79823287755008,329.5298379797854,41.44903269481133,0.0289483705797399,-0.03216893278453181,0.9419392008070858,-0.3329830229714284,137.2988623065709,353.0242608955698,117.77257908575002,-0.04893073277800162,0.009877081216987148,0.9448375827753297,0.3237130964785219
2023-10-24 10:36:45.800318,1698136605.800318,152.80006454985167,329.53372677736104,41.4676641581997,0.028882714656684856,-0.0320195596520952,0.9419501292626637,-0.33297220691192486,133.70785178435003,356.7453050213299,116.32422259254083,-0.0724971213120113,0.023971600276702767,0.9438710389644122,0.32136737791177056
2023-10-24 10:36:45.900342,1698136605.900342,152.74515250855634,329.4320501031659,41.47066165458142,0.029425415465107196,-0.029897644257013405,0.9418404369480139,-0.33343195276122123,130.4072830140264,359.20557510873107,114.93153724013617,-0.10005450390388222,0.033598776638573746,0.9426615606091794,0.3166218574369208
2023-10-24 10:36:46.000365,1698136606.000365,152.7366780298835,329.53701378974085,41.371161123120785,0.028420385654201814,-0.032934214423774706,0.9419891856053632,-0.3328122494772392,126.4514616280496,360.1091799020721,113.51373791787013,-0.12748636127348315,0.029881756180803427,0.94196779802624,0.3091132087413844
2023-10-24 10:36:46.100389,1698136606.100389,152.80193111464823,329.4074791488284,41.46282560414095,0.02926980732076745,-0.03188501992737605,0.9420789960347874,-0.3325865137279668,122.52558779792754,360.7799047122676,111.87916217505814,-0.15294280401308694,0.027385052287480116,0.9391749881733306,0.30628238473906855
2023-10-24 10:36:46.200412,1698136606.200412,152.75522389730892,329.44852858721964,41.46230027080864,0.029265222492949838,-0.03214390061959132,0.9418849141246075,-0.3331112801300442,118.71767329460377,361.3205561229499,110.0592945383732,-0.18013786309996924,0.02911426345068422,0.9357386166189948,0.3018210584261322
2023-10-24 10:36:46.300436,1698136606.300436,152.89246444409616,329.51013395634175,41.241008810612925,0.027995141712634366,-0.03382933980153499,0.9415818434727734,-0.3339093886842592,115.2194706358872,362.01970935934077,108.13036424564007,-0.19730752316869946,0.028523467360185493,0.9324000390023904,0.3014735815608499
2023-10-24 10:36:46.400459,1698136606.400459,152.68769952213225,329.5693495842032,41.03430285001451,0.02669721335671148,-0.03522086005284249,0.9420099311315043,-0.3326620499331762,112.85455619561885,362.3226017219663,106.76553487877564,-0.21128384797100205,0.021906481148828087,0.9303122666937326,0.2989955319221542
2023-10-24 10:36:46.500483,1698136606.500483,152.74555696815818,329.4484371214798,41.460224410911046,0.028822266349071684,-0.03204349034896665,0.9418626463148966,-0.33322251899512895,112.45945645809145,362.6762039856694,106.26762641967059,-0.21534331896826703,0.03177400785927762,0.9300680748438458,0.29595784084317184
2023-10-24 10:36:46.600507,1698136606.600507,152.7350355293682,329.46125434793,41.479187438437684,0.028820475153410522,-0.031843902072722384,0.9418747159054105,-0.3332076914640729,112.74522023893194,362.725097318338,106.50146689739276,-0.21746311884291927,0.029525138904148242,0.9336846035393351,0.2829684067690168
2023-10-24 10:36:46.700530,1698136606.70053,152.8566644784849,329.53480720507036,41.24798180592214,0.027430477045389163,-0.033584209096968326,0.9416356715180939,-0.333829195776915,115.30424710621983,362.05764273301395,108.07339130908794,-0.20398908144875724,0.032113351815715695,0.9380060914926783,0.2783913784718944
2023-10-24 10:36:46.800554,1698136606.800554,152.74282170870956,329.46045673535315,41.465619874919526,0.02895614267349563,-0.03199947124334681,0.9418858476040709,-0.3331495545918969,116.88097450574595,361.93476329237853,108.9998056166989,-0.18549571387279834,0.03348860057634513,0.9384517190492132,0.2894446834540855
2023-10-24 10:36:46.900577,1698136606.900577,152.77214735353058,329.46257344645085,41.47218290206503,0.028783677342878865,-0.03188734183311304,0.9419786766952539,-0.3329127062773327,121.5723542710971,362.68820446406795,110.89408059105067,-0.15856690466357443,0.04228341712097354,0.9415802050445634,0.29410094670066084
2023-10-24 10:36:47.000601,1698136607.000601,152.67462239908514,329.6297911946445,41.14144072886215,0.026748576069988952,-0.03466431107275086,0.9421755895285164,-0.33224698300010524,125.26062756506435,363.1231336721404,112.21186802911289,-0.137014485081592,0.05177977595582422,0.9449200696990414,0.29269770678935925
2023-10-24 10:36:47.100624,1698136607.100624,152.7445567714779,329.5864087677673,41.38258021130058,0.027881404533749987,-0.03272392795825526,0.9421063515289096,-0.33254683012937425,128.52663831746898,362.6525813211641,113.36782408731383,-0.11974946292195637,0.05128046563012505,0.9425078245985825,0.3077488920290507
2023-10-24 10:36:47.200648,1698136607.200648,152.73874482414521,329.5923886896414,41.518504290780356,0.028155416470400062,-0.03227088680715511,0.9416922600285391,-0.3337387448145639,131.67315250362873,363.20152148184616,114.1586836675679,-0.10057364636226279,0.05767622790908423,0.9405746285387754,0.31918296091853465
2023-10-24 10:36:47.300671,1698136607.300671,152.77961674141574,329.51387703640984,41.53715628080712,0.028359677465269625,-0.03119244505433749,0.9418009774118421,-0.3335171345099032,135.00323366991543,359.6365256179622,115.87654620498867,-0.07263176839504576,0.042409726032593055,0.941662741125294,0.3258793079255667
2023-10-24 10:36:47.400695,1698136607.400695,152.78237186402714,329.5160295364611,41.53142757027877,0.028437678108602985,-0.03128716053467024,0.941801161316808,-0.3335011013351848,138.8002385837589,356.577534737196,117.3344888205899,-0.04578775240703927,0.030960081284781442,0.9440681119962319,0.3250851503963568
2023-10-24 10:36:47.500718,1698136607.500718,152.78744750879972,329.50991694227827,41.51194183613074,0.02852309333060645,-0.03134694845642786,0.9418064925783592,-0.3334731361093012,142.46286781303672,353.12958699808803,118.44529815876564,-0.021869829689727477,0.020941657754932775,0.9450947297593827,0.32539070254212427
2023-10-24 10:36:47.600742,1698136607.600742,152.79382841497033,329.51498461403526,41.52799524642856,0.028571672803639165,-0.031477716150289534,0.9417833792557865,-0.3335219324972722,146.0329368176794,349.41627769082106,119.32040189928138,0.00508526777500943,0.0070256506944308995,0.9447898435770574,0.3275621036652678
2023-10-24 10:36:47.700766,1698136607.700766,152.7715578106235,329.58727611841914,41.50493184849969,0.02854045158206952,-0.0325194247806045,0.9416671970683584,-0.33375263235044533,149.82181311422386,345.97965105701775,119.86935997862948,0.03518157740387058,-0.004553006472764506,0.944019959307354,0.32797536976543856
2023-10-24 10:36:47.800789,1698136607.800789,152.81350841770976,329.504164546277,41.49602130264982,0.028632808113660906,-0.031856529090163246,0.9418611827581654,-0.3332609132005186,153.37147918584628,342.2791911500838,120.07723827841706,0.05993282527347497,-0.019228829257736304,0.941918326767591,0.3298911552004047
2023-10-24 10:36:47.900813,1698136607.900813,152.80156195684776,329.5064166134769,41.50071544558487,0.028727067448993143,-0.03152069193191239,0.9418037872092424,-0.333446889285599,157.11473122473373,338.68506471059726,120.00639935419946,0.08701624055186413,-0.03139427225045689,0.9394839721400268,0.32986730611274884
2023-10-24 10:36:48.000836,1698136608.000836,152.798604929465,329.5070039595845,41.50020497333883,0.028759904126850006,-0.0316050313921527,0.9417939011182375,-0.3334639976396357,160.5500065521241,335.1669720253967,119.67790170877163,0.11098940804178686,-0.04360127542200871,0.9361429014379283,0.3307820251638306
2023-10-24 10:36:48.100860,1698136608.10086,152.8745373043536,329.409839359665,41.68222343462257,0.029828955003807174,-0.0302603205399316,0.9415711626703198,-0.33412316901385875,164.1080361792053,331.50070621766196,119.003597298625,0.1372373560427988,-0.056521333214545645,0.931438739771377,0.33225460275388424
2023-10-24 10:36:48.200883,1698136608.200883,152.68762983471888,329.5094616381825,41.74019170538362,0.030139296637800777,-0.02998310813191232,0.9420760664951789,-0.33269403505608564,167.6386358552967,328.05436744995615,118.11118377354207,0.16272431717619262,-0.06881666420901751,0.927331304528082,0.3299116775273817
2023-10-24 10:36:48.300907,1698136608.300907,152.76609482261676,329.47320142554037,41.74359269014834,0.03014254923169457,-0.029904859495060204,0.941871669276405,-0.3332789893150692,170.78223722657543,324.5821155331154,116.95302237383758,0.18633668066407771,-0.08115048959945831,0.921819456525483,0.3300638257184887
2023-10-24 10:36:48.400931,1698136608.400931,152.78928485002388,329.46173467243926,41.71422597101491,0.030087617710268362,-0.03006261293899747,0.9417905618031319,-0.3334988939447054,174.04297831755343,321.49445661066954,115.53483773957161,0.20971461112014764,-0.09161582949556661,0.915936483257154,0.32967662990737123
2023-10-24 10:36:48.500954,1698136608.500954,152.77129297710596,329.4486268834342,41.69780053446374,0.030399343177573025,-0.030247833231162646,0.941815750131411,-0.33338272499276234,177.8561816720994,320.06933365835806,114.19158840022347,0.2341336009709423,-0.09301450465501723,0.9111563544131162,0.3260733914822876
2023-10-24 10:36:48.600978,1698136608.600978,152.79992311752042,329.515316548947,41.49001999398644,0.02888754890350599,-0.03177109382778381,0.9417777148791864,-0.33348289742094994,181.3732474406239,318.7198581249398,112.66770625739969,0.25958557378234476,-0.09149625430822082,0.905676191714921,0.32248162907740036
2023-10-24 10:36:48.701001,1698136608.701001,152.7964387445032,329.5063403355821,41.47585440118902,0.028921936953532637,-0.032052594709240885,0.9417829848135062,-0.3334380935811389,184.9293566489262,318.37632508758924,111.26998596866994,0.2780504538550889,-0.08809496788887464,0.9001288037830696,0.3235666211828677
2023-10-24 10:36:48.801025,1698136608.801025,152.8100569556777,329.4796755469342,41.419203341587384,0.029230289446872813,-0.03233986363403345,0.9417894184028901,-0.3333652873100771,188.16768404221094,322.80577902543257,110.97458045311909,0.2871829672568987,-0.052516019251168354,0.8934306165987407,0.34139382590130163
2023-10-24 10:36:48.901049,1698136608.901049,152.8001399092403,329.4559877734991,41.40461613342657,0.029817149385120603,-0.03303134796059516,0.9417136744227935,-0.33345947738754184,191.16138008954982,328.35021684001515,110.56953894257182,0.29187081442483265,-0.013804019558851379,0.8865388635563001,0.35870561765228554
2023-10-24 10:36:49.001072,1698136609.001072,152.78841666491502,329.4458001055899,41.364203946064436,0.02995644558579753,-0.033054155195786486,0.9417511727683374,-0.3333388107940916,188.26638205168842,332.4239366277093,112.36179098042875,0.26701798150875455,-0.00028836379096149105,0.8963182774933657,0.3539983895848122
2023-10-24 10:36:49.101096,1698136609.101096,152.74037242477277,329.4048439495062,41.411212566246405,0.030593054506914137,-0.03368977776910738,0.9414961835424244,-0.3339371202260313,184.44808269583226,331.77608700600297,114.02968162183201,0.24673186343640152,-0.012258508027566728,0.9063302054537037,0.34283913899726554
2023-10-24 10:36:49.201119,1698136609.201119,152.77135001522737,329.4048436776478,41.661614492764976,0.031326479400709484,-0.030798833113327137,0.9418948192590719,-0.3330228716171527,182.39980487620159,337.2360502194054,115.13146391012869,0.22577022992613371,0.012853571406759938,0.9123178042546625,0.3413778156546549
2023-10-24 10:36:49.301143,1698136609.301143,152.67489301914821,329.44647359380843,41.69030067872981,0.031540103230995556,-0.030688471391869886,0.9421207633985399,-0.33237314389878286,179.28834618059128,340.31707605153844,116.2247197348929,0.201706998917972,0.023078531043640597,0.9192084994690324,0.337397988281292
2023-10-24 10:36:49.401166,1698136609.401166,152.81497458915837,329.4561352512326,41.3851767609881,0.02980307516270859,-0.03266420100209555,0.9418173103529481,-0.33320411252455934,173.9064392331601,339.8166247629837,117.7440747977189,0.17359207113998948,0.009185028448182782,0.9248383159251465,0.3383127509959887
2023-10-24 10:36:49.501190,1698136609.50119,152.81169955074432,329.4513821170297,41.371007822637374,0.029778474309351863,-0.03276784861271754,0.9418205695775774,-0.33318692244094605,168.18674968874774,339.83975500481296,118.95345653797726,0.14209219320174726,-0.002051161445861047,0.9298356005823871,0.3394279853775054
2023-10-24 10:36:49.601213,1698136609.601213,152.80755297754402,329.39579514044186,41.37868760569135,0.029591204634004754,-0.032279552544463394,0.9417093927768765,-0.33356530192998857,162.62567371988112,339.89764543336673,119.7078416545333,0.11197508169294584,-0.01403104387003239,0.9321030751159882,0.34416357774624234
2023-10-24 10:36:49.701237,1698136609.701237,152.7547134593971,329.37668094097927,41.40559424637695,0.03044760188471818,-0.03333876577847539,0.9415308167163359,-0.33388799231075567,158.23560525017683,340.32653164637725,120.03320954313332,0.08808405519358603,-0.02021523129587543,0.9337628248401152,0.34629399444823766
2023-10-24 10:36:49.801261,1698136609.801261,152.7906822066969,329.4488521359571,41.37695842329756,0.029710542020038522,-0.03269345959145871,0.9417602168731681,-0.3333708375185516,155.38263352161766,341.7276301951119,120.09029797933374,0.0683932108649535,-0.020067307986838853,0.9359798870449513,0.3447627052119525
2023-10-24 10:36:49.901284,1698136609.901284,152.82952941365687,329.4663585744354,41.36702412658217,0.029485604799112237,-0.03323737720513958,0.9418227921066268,-0.33316017789440516,152.94916723554954,342.936397082791,119.98473343174005,0.05412669807816059,-0.016258196675888948,0.9364716983888983,0.346159977051964
2023-10-24 10:36:50.001308,1698136610.001308,152.80134320256988,329.47410009420986,41.3829401101894,0.029387513628009385,-0.03302386227986202,0.9417511646047562,-0.3333924752127287,150.8355875207065,342.77917309712285,119.97297556664027,0.046297570795828816,-0.02347800588525222,0.9376510439581497,0.3436798480304734
2023-10-24 10:36:50.101331,1698136610.101331,152.82805878613806,329.5467051507498,41.374184362997646,0.02918528534036507,-0.03288119629110961,0.9419724213321532,-0.3327987432363702,150.7141207400514,342.77795483440525,119.96686766935692,0.045759616691435495,-0.023731228542491246,0.9377712493351078,0.3434064213036619
2023-10-24 10:36:50.201355,1698136610.201355,152.83110583541185,329.55408059807104,41.39883852472227,0.029104854372621756,-0.032894914226894785,0.9419645737475868,-0.332826642374797,150.7048025479817,342.81042807972636,119.9949244677881,0.04535721017452443,-0.023479604218214593,0.9377641738161886,0.3434964133404908
2023-10-24 10:36:50.301378,1698136610.301378,152.80452287890498,329.4862239559163,41.410836323246365,0.029258767408335322,-0.032800071650569286,0.9417349716354807,-0.33347162252309126,150.68034111632207,342.8134545592132,119.99783034214165,0.04505537222318663,-0.023674246380783148,0.9378262352962753,0.3433533105740316
2023-10-24 10:36:50.401402,1698136610.401402,152.79628886574764,329.4914138531528,41.40030143775177,0.029341809119400968,-0.032686774303100644,0.9417516855250953,-0.3334282469046392,150.65850515269983,342.8171209474412,119.97606960364055,0.04507939479268118,-0.023628303193957815,0.9377694034569132,0.34350851138416527
2023-10-24 10:36:50.501425,1698136610.501425,152.82189609715607,329.5567251224698,41.40698367470701,0.029026911795312384,-0.032652039986113025,0.9419659185903663,-0.3328535577255859,150.64879837425795,342.82889728278576,119.99488342583884,0.044998821336124324,-0.023414403534954907,0.9377962497619197,0.3434604281688665
2023-10-24 10:36:50.601449,1698136610.601449,152.83057631266294,329.5622617069553,41.40692247769764,0.029058420785925767,-0.03272136913983885,0.9419574957697554,-0.33286783615455223,150.64284132684176,342.832760982217,120.00093122341484,0.04518393982899966,-0.02377214497604893,0.9377758132288099,0.34346735045388455
2023-10-24 10:36:50.701473,1698136610.701473,152.81953986898756,329.56311766580603,41.407797588691814,0.029016882509965595,-0.03268751791012959,0.941964051770079,-0.332856233042396,150.63195092946833,342.840608439657,120.00489624052108,0.045088177802705846,-0.02345507226115101,0.9377233231631373,0.34364499851378305
2023-10-24 10:36:50.801496,1698136610.801496,152.8191813018221,329.5601258789668,41.39192734961812,0.028994578858361614,-0.032699595424680705,0.941972464772068,-0.33283318113902594,150.6250033169549,342.8424300908275,119.99470523852608,0.045045660198976906,-0.0235772302385989,0.9377687224650186,0.343518305011307
2023-10-24 10:36:50.901519,1698136610.901519,152.81414377669597,329.5648509528121,41.41063892733598,0.028957143756449567,-0.0327876368538963,0.9419662305750058,-0.33284542230789416,150.6121038679338,342.8485552143583,120.01869231832664,0.04492732240378199,-0.023806880119961592,0.937730240282902,0.3436229978036272
2023-10-24 10:36:51.001543,1698136611.001543,152.82112287289254,329.56468910030935,41.40057136773527,0.02892139962342215,-0.03262596462242914,0.9419596764616508,-0.3328829629112019,150.60653522217402,342.84896382493446,120.00042470407097,0.04475097930525175,-0.02354692955866393,0.9378014112822092,0.34346965652976835
2023-10-24 10:36:51.101567,1698136611.101567,152.82154192921234,329.56707957801,41.424435968652986,0.02891824421543466,-0.03256024384300043,0.941966191982504,-0.3328712346153709,150.60148597555852,342.8535070361705,120.01791464947496,0.04458965897028319,-0.02373026846076608,0.9378237585555884,0.34341699806556364
2023-10-24 10:36:51.201590,1698136611.20159,152.81659401957847,329.5730528082723,41.43350130648941,0.028941274234482815,-0.03261296901829939,0.9419614264528593,-0.3328775570271905,150.5939473185091,342.83470749599735,120.05654673322368,0.045804041488769445,-0.023237089677202137,0.9380448637142076,0.34268624294830174
2023-10-24 10:36:51.301614,1698136611.301614,152.81866751296474,329.56891525791457,41.41015797261432,0.028863288512757105,-0.03264124750068633,0.9419540225062079,-0.3329025067826957,150.58627739409258,342.84765165592387,120.04639827963683,0.04558563658722736,-0.023370325549252818,0.9380027850904782,0.34282145904707506
2023-10-24 10:36:51.401637,1698136611.401637,152.81035619015495,329.57716476089115,41.43689902352613,0.02888074921456762,-0.03249918801385749,0.9419802846126827,-0.3328405752071923,150.5750721857321,342.8608132538787,120.06396267389096,0.045640315120622436,-0.0230569100676729,0.9379536496976978,0.3429698114303795
2023-10-24 10:36:51.501661,1698136611.501661,152.81473503801135,329.57401008812514,41.42278360152745,0.028793997285171947,-0.03249743701543287,0.9419715891714062,-0.33287286987927567,150.57110054450052,342.86848861199957,120.05758809329167,0.045859157646816764,-0.023220968495543934,0.9379985358388996,0.3428067546681863
2023-10-24 10:36:51.601685,1698136611.601685,152.80986448437318,329.5789223328181,41.442957963107986,0.028734415381666104,-0.0324275285396505,0.9419680589415674,-0.3328948252817093,150.63303285682687,342.904364608405,120.07627032457779,0.046023082286885224,-0.022877512515591707,0.9381510423534662,0.3423902992916395
2023-10-24 10:36:51.701708,1698136611.701708,152.8033964636695,329.5093841037965,41.428963301325425,0.02891889798951271,-0.03234552615840973,0.9417346327138848,-0.33354661716745454,150.65043980238184,342.92159877093354,120.0554719296816,0.0458672971678311,-0.022659373802358166,0.938112111199981,0.34253234978512237
2023-10-24 10:36:51.801732,1698136611.801732,152.81498698199223,329.576551767268,41.44329445386287,0.028682729286223577,-0.03232765385552396,0.9419491661186555,-0.33296244876150877,150.62884018556767,342.9227181283423,120.07214816016472,0.04608279768342031,-0.022394582459727207,0.9381570346661634,0.3423977756068439
2023-10-24 10:36:51.901755,1698136611.901755,152.79543673729907,329.5168033762553,41.43970210848033,0.02892644266838517,-0.03228347803986885,0.9417417730086369,-0.333531813970948,150.62636355853633,342.9255913840866,120.06251296106285,0.045588373160464775,-0.02301181593166205,0.9381334322539315,0.3424876929870147
2023-10-24 10:36:52.001779,1698136612.001779,152.78948430456387,329.5181454822079,41.46748001261326,0.02893251277217337,-0.03227506271609387,0.9417454423600834,-0.3335217411584604,150.62926959707644,342.9384496192278,120.0789312803301,0.045557077109618656,-0.022508410067401872,0.9381792531661488,0.34239978552866135
2023-10-24 10:36:52.101802,1698136612.101802,152.8221875752525,329.58397195987317,41.44275163228305,0.028640550732203635,-0.03221774434825106,0.9419595345544142,-0.33294739984703037,150.61694387393345,342.93571895819986,120.07399495931891,0.0455043938688932,-0.02278110033370441,0.9381471648251739,0.34247666889395284
2023-10-24 10:36:52.201826,1698136612.201826,152.81181747056237,329.5824444467348,41.434153733109774,0.02865440479646296,-0.032293718828770954,0.9419699022598466,-0.3329095133013534,150.61191315454494,342.9353394356297,120.07304033549345,0.0457234029452602,-0.022550324807461563,0.9381818786625842,0.34236766176630556
2023-10-24 10:36:52.301850,1698136612.30185,152.81969300989186,329.58675178763656,41.459188692503645,0.028625233239448773,-0.032254906238593437,0.9419590832972844,-0.3329463957445198,150.61593962183161,342.9405335761402,120.09077366665899,0.04594293725611935,-0.02243385687899758,0.9381772746684257,0.34235853995123067
2023-10-24 10:36:52.401873,1698136612.401873,152.7936061831211,329.5255837020131,41.448688915182586,0.028908899249023953,-0.0322403246073027,0.9417455679440596,-0.3335267939328808,150.61011927049105,342.93544109637895,120.07332118252778,0.04571964053016558,-0.022778744988054597,0.9381882128727483,0.34233568390280367
2023-10-24 10:36:52.501897,1698136612.501897,152.80380146539974,329.5908387524931,41.462409380710604,0.028706189612759284,-0.03233704867475463,0.941960795152235,-0.3329266140714682,150.5997953129148,342.9405404856485,120.09199275641214,0.04585835283386834,-0.022528731272612474,0.9381256311319227,0.34250513566360213
2023-10-24 10:36:52.601920,1698136612.60192,152.82393271957844,329.58158208353603,41.439139064135034,0.028683071982975594,-0.03216928212623991,0.941970969126436,-0.33291607349616653,150.612694436255,342.9416727734597,120.06980174006043,0.045700887636483355,-0.02281431407506604,0.9381171142913859,0.34253060566338395
2023-10-24 10:36:52.701944,1698136612.701944,152.7785159213035,329.52197468908935,41.4753954701748,0.02887089720689816,-0.0322422939274033,0.9417469090562224,-0.3335261085129904,150.60156238420564,342.94491202078854,120.09905153081537,0.045829959788792826,-0.02263745071460508,0.9381721995141227,0.3423741880891938
2023-10-24 10:36:52.801967,1698136612.801967,152.78862053769512,329.5227841753758,41.44143326273623,0.028891309806196905,-0.032164267977488926,0.9417395550435748,-0.33355263834885895,150.60150494418625,342.9452007658329,120.06386162940711,0.04560763887987799,-0.02284361415794227,0.9381437073540574,0.3424682422064717
2023-10-24 10:36:52.901991,1698136612.901991,152.80743205920115,329.5907211588643,41.44922196111087,0.028694473407516727,-0.032336350843407545,0.941975230791349,-0.33288684591852236,150.59587698356265,342.93950853179695,120.08098057450859,0.04558228515792171,-0.02257710308276196,0.938144217883509,0.3424878919727111
2023-10-24 10:36:53.002015,1698136613.002015,152.81848483242896,329.59209420521705,41.45312276472412,0.028675533056579616,-0.03229087744415842,0.9419582827573061,-0.33294084547065494,150.59518364451984,342.9365941314837,120.08300737991755,0.0454641138746871,-0.022740050877588562,0.9380890507499003,0.34264389283748375
2023-10-24 10:36:53.102038,1698136613.102038,152.81613641240133,329.5860271681256,41.446190007192946,0.028639420684698744,-0.032271135861658806,0.9419565273274684,-0.33295083420562194,150.5903960231499,342.9286098413306,120.07836111308083,0.04567801580442332,-0.022743738944736424,0.9381143249485694,0.342545988937653
2023-10-24 10:36:53.202061,1698136613.202061,152.7891858202081,329.5206036893039,41.48010496168433,0.02887925662190276,-0.03212120189929017,0.9417426049359242,-0.33354922121631647,150.5936387512461,342.93567603966886,120.0901331189258,0.04562446555361913,-0.02249885440203831,0.938177693783095,0.34239571343896197
2023-10-24 10:36:53.302085,1698136613.302085,152.78675491088515,329.520534201938,41.46474410851277,0.02886638091377043,-0.032177821813820465,0.9417483157855607,-0.3335287537099596,150.58954062713386,342.93243072694685,120.07911543963026,0.04547591549667223,-0.022657341733690096,0.9381240739434974,0.3425519053559005
2023-10-24 10:36:53.402109,1698136613.402109,152.78174340830532,329.5264960963627,41.47362447419383,0.028902721967245245,-0.03211514375824983,0.941751895597196,-0.33352153954933605,150.5815963971773,342.9328190455115,120.08461196209464,0.04572810018356163,-0.02253314950769646,0.9381125575143222,0.34255806436398994
2023-10-24 10:36:53.502132,1698136613.502132,152.82331041864128,329.5848327014765,41.45393143562262,0.028660799326362365,-0.03209589909140592,0.9419522570773097,-0.33297801313367575,150.5859402267171,342.9324114398799,120.08156374757885,0.045483072841965344,-0.022668026038418394,0.9381040719765339,0.34260502159399286
2023-10-24 10:36:53.602156,1698136613.602156,152.81304841561428,329.5840361122098,41.47421296301277,0.028626672381473647,-0.0321629510141148,0.9419557965229258,-0.3329644659829154,150.5865832095961,342.9351461320718,120.10489190851466,0.045230769637284625,-0.02239713971867477,0.9381243900950332,0.34260060466856024
2023-10-24 10:36:53.702179,1698136613.702179,152.78991663397673,329.52315436785483,41.45433493684403,0.028853281215623305,-0.03207948744590648,0.9417583251671096,-0.3335110967070524,150.5817343668171,342.93705002380625,120.07551048905803,0.04538066140905077,-0.022850521263404748,0.9380963667784121,0.34262757607234534
2023-10-24 10:36:53.802203,1698136613.802203,152.80930595066505,329.5900512824771,41.46154492607691,0.02865936897204247,-0.0322400617344825,0.9419655500021151,-0.3329266009178208,150.57662303945816,342.92915068718446,120.08605078524332,0.0452943555093853,-0.022735263808426002,0.9382429778302354,0.3422450053555248
2023-10-24 10:36:53.902660,1698136613.90266,152.81253771707742,329.58658110731807,41.444960332491334,0.02862312338077097,-0.03216147633812606,0.9419668955989611,-0.33293351264680077,150.58098956187868,342.93722934248365,120.07829369469509,0.04537907016321331,-0.022636333439093447,0.9381875401826867,0.3423922835659649
2023-10-24 10:36:54.002684,1698136614.002684,152.81107305982331,329.58891709957265,41.448256667929854,0.028712496585779453,-0.03228793087667123,0.9419611598279061,-0.3329298055674512,150.5758455640609,342.9375775636314,120.07771826440865,0.0454947077264237,-0.02248084064305627,0.9381001512094783,0.34262654548884997
2023-10-24 10:36:54.102707,1698136614.102707,152.8191499697004,329.5856119422098,41.46819820198229,0.028645125497177855,-0.032075014319021884,0.9419589228572572,-0.3329625172467334,150.5800869574862,342.9380119039374,120.09501592345428,0.04557369645206734,-0.022741126165739166,0.9380870131743079,0.3426348421951782
2023-10-24 10:36:54.202731,1698136614.202731,152.8161056797638,329.5846770738664,41.45228132501305,0.028629371937741625,-0.03212594650933652,0.9419638065220675,-0.33294514537050507,150.57652926270163,342.93166142050825,120.08088598628524,0.04551218556553825,-0.022724515396266597,0.9381746857872904,0.34240399576081454
2023-10-24 10:36:54.302754,1698136614.302754,152.81153505286102,329.5893280767826,41.46287632891482,0.028672870936278218,-0.03223789988980095,0.9419596975909689,-0.33294220579148154,150.57632999148078,342.93216284972357,120.08469944586403,0.04537365882478856,-0.022791989786087295,0.9381508395989927,0.34248322359810257
2023-10-24 10:36:54.402778,1698136614.402778,152.81812226163797,329.59255484733933,41.455192537168855,0.028667980547062644,-0.03223863283547063,0.9419578992992642,-0.3329476436197894,150.5800528945738,342.94316285461696,120.0851824189827,0.04543750991672942,-0.02280518316744671,0.938131373458449,0.3425271995714072
2023-10-24 10:36:54.502801,1698136614.502801,152.7891484783387,329.52270320767934,41.458554185447866,0.028833508201278335,-0.0321586804681332,0.9417323083262783,-0.33357863770004076,150.57116586747406,342.9353654402296,120.08340930992048,0.04546000944739539,-0.02248085334306993,0.9381470865874554,0.3425026170724536
2023-10-24 10:36:54.602825,1698136614.602825,152.79213805465253,329.52221400249266,41.46804289393533,0.028789396648286406,-0.032116056159821944,0.9417449281339743,-0.33355092551408494,150.57053155956658,342.93529863636775,120.09431575628635,0.045586315960294686,-0.02292313027118893,0.9381593017296841,0.3424230460611695
2023-10-24 10:36:54.702848,1698136614.702848,152.81391883735282,329.59358365491516,41.482849745943604,0.028657781644775684,-0.032136474561240386,0.9419653260414452,-0.33293738613981,150.57859155165093,342.9362338530548,120.09936636036421,0.04556623467086022,-0.022779813452694694,0.9381450595112614,0.3424742992862274
2023-10-24 10:36:54.802872,1698136614.802872,152.7890624516334,329.52194750495653,41.44396604229342,0.028845133232166895,-0.032190390793055496,0.941729723278993,-0.33358187199288936,150.56707829098139,342.93619008511706,120.06898500725141,0.04563778455144249,-0.022753521094101708,0.9381177923266124,0.3425412057246533
2023-10-24 10:36:54.902895,1698136614.902895,152.81078969339436,329.59074904987364,41.463247489284825,0.028654513878310663,-0.032179092047285654,0.9419678826207847,-0.3329263176444986,150.5623539497998,342.93593244298336,120.08734927381936,0.04546264201374912,-0.022797083633747273,0.9381127171952057,0.34257549678217464
2023-10-24 10:36:55.002919,1698136615.002919,152.82054734617296,329.5838448897227,41.45582273898493,0.028590411457456822,-0.03203676285332169,0.9419657019087814,-0.3329517241674387,150.5649161343469,342.93474589218675,120.08456258471797,0.045236674750053746,-0.022944875214235192,0.9381902573473566,0.34238314353580834
2023-10-24 10:36:55.102943,1698136615.102943,152.81826188439342,329.5879325857093,41.447454626195515,0.028537588086756095,-0.032155626797460105,0.9419525237823794,-0.33298207860402823,150.54948392181274,342.93250055336154,120.0820976252162,0.0455305566213355,-0.02294265195553241,0.9381847948687178,0.3423593051344462
2023-10-24 10:36:55.202966,1698136615.202966,152.81434752012495,329.5897567221262,41.456467236312726,0.02865185597577258,-0.03222168701041805,0.94195982285765,-0.3329452299663279,150.54949845400265,342.93054315706837,120.08338121666935,0.04526199383313113,-0.02293240556639684,0.9381986587878615,0.3423576103109818
2023-10-24 10:36:55.302990,1698136615.30299,152.78989229143508,329.52110327311715,41.48437583234101,0.02885583998030013,-0.032068961066554096,0.9417537914728434,-0.3335246894634152,150.55055959698348,342.93273135075003,120.09619314211913,0.04539790698408159,-0.02287075525711795,0.9381626241695501,0.3424424757630647
2023-10-24 10:36:55.403013,1698136615.403013,152.80996405801247,329.58847554259665,41.444756539131774,0.028530592514063327,-0.032137024863748524,0.9419501766367986,-0.33299111348143706,150.52776127840494,342.93407160837467,120.0888775322744,0.045351902271481816,-0.022972662675205667,0.9382178785371493,0.3422903360061748
2023-10-24 10:36:55.503037,1698136615.503037,152.81608665536112,329.5907241102597,41.4454963643146,0.028630197080803485,-0.032231671372793744,0.9419563325234066,-0.3329560012894857,150.54410984619935,342.93274495435753,120.07800227901983,0.0454929128194588,-0.022862226697861247,0.9381876373657417,0.3423618999942958
2023-10-24 10:36:55.603060,1698136615.60306,152.81393810999543,329.5882273927561,41.46453972306759,0.028563501667861774,-0.03210814383725654,0.9419457760008489,-0.3330035263266061,150.51294992572056,342.9339759144032,120.10117800590002,0.04537521106811201,-0.023059323630707316,0.9382728189554924,0.3421307864304706
2023-10-24 10:36:55.703084,1698136615.703084,152.77502871738403,329.5187509595466,41.46757166894845,0.028881058749854093,-0.03165270952385433,0.941690957910395,-0.33373961439285066,149.69596992252534,342.70005505953725,120.0738415544734,0.04375136394067701,-0.024911999454369324,0.9393153262051049,0.33934043141469783
2023-10-24 10:36:55.803107,1698136615.803107,152.77148050558245,329.5165110857091,41.481416534571515,0.028853432116189983,-0.0318120502658151,0.9416727926775303,-0.3337781065976357,149.70025084239873,342.72267492305286,120.09596464334267,0.04383037272187833,-0.0248184361924594,0.9392831537191598,0.3394261345144348
2023-10-24 10:36:55.903131,1698136615.903131,152.77979604634507,329.5180938204741,41.46264908189935,0.028800185869977214,-0.03170772627006712,0.9416929943908944,-0.3337356344530028,149.74764498231409,342.7131850350782,120.08395286338951,0.04389643707616581,-0.02500409604094286,0.9393848995243814,0.3391222619333055
2023-10-24 10:36:56.003155,1698136616.003155,152.80009382137385,329.58548283886086,41.462278606071806,0.02853716321787982,-0.031793591939024306,0.9418951312850974,-0.33317917025006233,149.75834771333086,342.73653106749725,120.0857460284245,0.04412403833946111,-0.024648893707067448,0.9393787856885528,0.3391356635300032
2023-10-24 10:36:56.103178,1698136616.103178,152.8150785340854,329.58205325160117,41.45281624605451,0.02851324136100641,-0.03176837351424868,0.9418984086389725,-0.3331743587293589,149.76911744128017,342.74416229296986,120.08792137038934,0.04420161783925851,-0.024690202518579913,0.9393375876639117,0.3392366538004506
2023-10-24 10:36:56.203202,1698136616.203202,152.80057363245302,329.58649803170687,41.46754802817159,0.028549300927703827,-0.031693542298286255,0.9419099836249795,-0.33314567315322763,149.7576952792098,342.73965881418127,120.09393141474631,0.04410542519298281,-0.024548853229103062,0.939335114660478,0.3392662783706462
2023-10-24 10:36:56.303225,1698136616.303225,152.77328605550287,329.52249304779247,41.46756427770943,0.028726425949635856,-0.03176011717924534,0.9416928773012155,-0.33373734020795254,149.76924957022933,342.74591486524287,120.09396218262721,0.04427877924585129,-0.02441437563742676,0.9393146336849766,0.33931010435292086
2023-10-24 10:36:56.403249,1698136616.403249,152.77088884948176,329.524808639101,41.484242363345764,0.028793843571329976,-0.031750241701457384,0.9417008139722899,-0.33371007429835786,149.77137891315394,342.74356477770687,120.10235829374392,0.044279034688785086,-0.024538265643289394,0.9393310675925914,0.339255635268762
2023-10-24 10:36:56.503272,1698136616.503272,152.80353514736865,329.58573692640255,41.459606159378524,0.028554470960760515,-0.03173161081699601,0.9419221872240813,-0.33310710031176566,149.88705493013637,342.77632590130344,120.09506604220051,0.045118539810470225,-0.023889260778789716,0.9391004120845295,0.33982942281015194
2023-10-24 10:36:56.603296,1698136616.603296,152.80267601841976,329.58930022174184,41.461274352067036,0.028577687410930492,-0.03181734655564356,0.9419281851831903,-0.33307996967380493,149.90356809523936,342.76939672847425,120.10193995715338,0.04487262664963359,-0.024080024462191454,0.9391533202621947,0.33970228265344143
2023-10-24 10:36:56.703319,1698136616.703319,152.81160168599698,329.596116919639,41.47360409154064,0.02855862110664999,-0.03198222282033032,0.94192896273569,-0.3330636151602642,150.03792966764803,342.81916140729817,120.12520580469787,0.04447712835817632,-0.023568740375580512,0.9391162828282299,0.3398924930871627
