aschuessler/rrl_ml_kinematic_modeling_origami_joint/ml_kinematics/experiments/trajectory_tracking/231024_trajectory_tracking_pitch_40_degrees_1_vicon_raw.csv
datetime,timestamp,Spherical_Joint_Base_Trans_0,Spherical_Joint_Base_Trans_1,Spherical_Joint_Base_Trans_2,Spherical_Joint_Base_Ori_0,Spherical_Joint_Base_Ori_1,Spherical_Joint_Base_Ori_2,Spherical_Joint_Base_Ori_3,Spherical_Joint_Top_Trans_0,Spherical_Joint_Top_Trans_1,Spherical_Joint_Top_Trans_2,Spherical_Joint_Top_Ori_0,Spherical_Joint_Top_Ori_1,Spherical_Joint_Top_Ori_2,Spherical_Joint_Top_Ori_3
2023-10-24 10:38:10.635586,1698136690.635586,152.80161866467398,329.53179231133845,41.37846310038251,0.028614317704501555,-0.03230871192144021,0.941729793955439,-0.3335901124627793,150.4435532139148,343.09083976496186,120.11330839574214,0.04430230272780473,-0.02234981738278988,0.9382794180296162,0.3423003437596504
2023-10-24 10:38:10.735616,1698136690.735616,152.80545199734703,329.53242027000107,41.37689887808687,0.028666511942412386,-0.03219982479338443,0.9417305358541065,-0.33359406501955097,150.43674842212087,343.0789673397897,120.09985538796326,0.044627589675968186,-0.022366307497233087,0.9381912235176852,0.3424986929070557
2023-10-24 10:38:10.835639,1698136690.835639,152.82012004649224,329.6053526413066,41.383795843572095,0.028608868884019034,-0.03218142048729414,0.9419734644741966,-0.33291422472324084,150.396729226191,342.89385997625374,120.12483981733727,0.044757427648171574,-0.02335744341548543,0.9383911402168751,0.3418673287547147
2023-10-24 10:38:10.935663,1698136690.935663,152.82783790595155,329.60163975484994,41.38771779877002,0.028511704880024497,-0.03216328304770371,0.9419611289896194,-0.3329592127889383,150.41034273615688,342.9048722354094,120.13035350561624,0.04418951847085354,-0.023431956721697914,0.9383781128069719,0.3419718515701734
2023-10-24 10:38:11.035686,1698136691.035686,152.81978088053893,329.60667448961544,41.37755032274101,0.028562885898779942,-0.03234341188088821,0.9419604321665528,-0.332939348064535,150.41065653911102,342.91045265605675,120.13160284659348,0.04478370299419398,-0.023476186925291565,0.9383657827039152,0.3419253521516722
2023-10-24 10:38:11.135710,1698136691.13571,152.8259138689557,329.6055828179565,41.3947758296481,0.028470986426335502,-0.0322605752399839,0.9419599512356932,-0.33295661652105274,150.40487243754717,342.9123966324327,120.14999836402583,0.0446663209116418,-0.023220375868804634,0.9383295830885684,0.34205749139810293
2023-10-24 10:38:11.235733,1698136691.235733,152.83221211060044,329.5992094922515,41.38353252070792,0.0285808668624687,-0.032269430003994744,0.9419589375099084,-0.33294921231595,150.4186980885555,342.91343719642146,120.12157998510675,0.04416777303650325,-0.023495316895334694,0.9384138119898048,0.34187233783350646
2023-10-24 10:38:11.335757,1698136691.335757,152.821778985571,329.6075912390876,41.371293312553114,0.02851539999668755,-0.03240680020865698,0.9419483278916937,-0.33297149854801,150.40378112227307,342.9097348388758,120.12480151433508,0.04447249942586523,-0.023541923418075626,0.9384131637083034,0.34183140408038415
2023-10-24 10:38:11.435780,1698136691.43578,152.82426852902614,329.60222929344025,41.364760328746,0.028523902394408846,-0.03223024011785812,0.941952826335325,-0.3329751816172382,150.40391803412632,342.92036704494126,120.11770244250488,0.04461114469454846,-0.02325257626534049,0.9383312807538854,0.3420578474831995
2023-10-24 10:38:11.535804,1698136691.535804,152.8238749601454,329.60039824256444,41.3813678750326,0.028423858284705124,-0.03211621984585197,0.9419648178795181,-0.3329608303993581,150.42173686214835,342.92076316472696,120.10982714013632,0.04406546012234771,-0.02283240789977945,0.9383367452656356,0.34214188410365337
2023-10-24 10:38:11.635827,1698136691.635827,152.82193980769222,329.6035307729644,41.381770502144825,0.028507321931838924,-0.032177259698619454,0.9419665567373039,-0.33294288180261455,150.42609112178764,342.9199689988671,120.10652100395828,0.045608918760305414,-0.022655052962759905,0.9383243847035677,0.34198526894508413
2023-10-24 10:38:11.735851,1698136691.735851,152.82514481387375,329.59929538422483,41.371640937770565,0.028554298934573435,-0.03222917974222133,0.9419574773484513,-0.3329595213428212,150.40348669424017,342.9085126108342,120.11879864277478,0.04438265279940565,-0.02348249402038025,0.9384162399757142,0.34183872389609826
2023-10-24 10:38:11.835874,1698136691.835874,152.8310715985449,329.5969961936703,41.3824278335459,0.028397561545376464,-0.03208615698209033,0.9419544044634437,-0.3329954308099684,150.41120569228866,342.9137571987773,120.1319445453855,0.044365284715917504,-0.023457239063313446,0.9384237114331507,0.34182220125034685
2023-10-24 10:38:11.935898,1698136691.935898,152.8168735951529,329.6054091691457,41.371823045939834,0.02856829707452575,-0.032262230877980705,0.9419654707033738,-0.33293250496701154,150.38391718322168,342.81486380181866,120.13346863839595,0.045091616390711756,-0.024146413407792756,0.9384319653066662,0.34165646977846204
2023-10-24 10:38:12.035921,1698136692.035921,152.81754659731803,329.6035453322919,41.382677612301656,0.02853683277643829,-0.03231346122472255,0.9419463202615355,-0.3329844127651039,150.40198609650665,342.8198789135004,120.1273852078395,0.04616199230342628,-0.023175614888621444,0.9383518894831724,0.3418006624400735
2023-10-24 10:38:12.135945,1698136692.135945,152.8296973999727,329.608273762071,41.36219383669593,0.028457597371558008,-0.03230867408664966,0.9419470919638968,-0.33298947531620154,150.39098120065538,342.8252179965663,120.14144989266681,0.045099733741648954,-0.024042973587587658,0.9385174472037221,0.3414278118895818
2023-10-24 10:38:12.235968,1698136692.235968,152.82098451515805,329.6071165363388,41.3977319073597,0.028521493639191643,-0.03219915376459057,0.9419616231935319,-0.33295350925923617,150.40584119332172,342.82494821598976,120.14842244381651,0.046589757634422295,-0.02320859690597923,0.9383644325629772,0.34170593675554345
2023-10-24 10:38:12.335992,1698136692.335992,152.8348954737844,329.60424712542573,41.38297669243468,0.02843153388618188,-0.03211378988849872,0.9419511633959797,-0.332999036270132,150.39206919702232,342.8236034805781,120.15405831892075,0.045105760247750704,-0.024156186486768257,0.9385093526347646,0.34144127469297536
2023-10-24 10:38:12.436016,1698136692.436016,152.82774585249638,329.60016036360196,41.37304919668841,0.028445935858611292,-0.03208159865138514,0.9419537468720736,-0.3329936013120384,150.40443113826163,342.818326473793,120.1272927072812,0.046390451700907206,-0.023189969941283792,0.9383755890675904,0.34170368029501946
2023-10-24 10:38:12.536039,1698136692.536039,152.8213610413051,329.61182362463865,41.39094582262604,0.0285631744472909,-0.03233971249695747,0.9419656073436787,-0.3329250405763472,150.38942510148667,342.82536221223455,120.15910283497085,0.04500796549755083,-0.023829329122425615,0.9384940652560237,0.3415191584590369
2023-10-24 10:38:12.636063,1698136692.636063,152.8226073482696,329.60685621195194,41.37537860105011,0.02849908807672579,-0.03221781033233915,0.9419522233361095,-0.332980215070422,150.39393177180514,342.8246004782409,120.13997483392964,0.04495336606966449,-0.024079866313051073,0.9384868971784911,0.34152847427650984
2023-10-24 10:38:12.736086,1698136692.736086,152.82431378748583,329.6011748403593,41.38675795201398,0.028468736423621216,-0.03216811256121427,0.9419515676749897,-0.3329894709075962,150.39179461115532,342.82586308282373,120.15872521742148,0.04511020329245196,-0.024126909988122596,0.9384485064690217,0.34160995664558913
2023-10-24 10:38:12.836110,1698136692.83611,152.83211927135176,329.59892039494855,41.379121188562394,0.028404230379499493,-0.03201618167845937,0.9419543653147326,-0.3330017079112349,150.4647022347039,342.93181426398667,120.11503812564833,0.04415620586849702,-0.02240484809789066,0.9385561170064262,0.34155624353073827
2023-10-24 10:38:12.936133,1698136692.936133,152.82644910171916,329.5993024095365,41.381978262805596,0.028418378799370553,-0.03211328587524502,0.9419685585727697,-0.33295099831213737,150.49143069233222,342.988581890966,120.14092883671246,0.044997432679094354,-0.022466917214233835,0.9385363236396486,0.3414967611737365
2023-10-24 10:38:13.036157,1698136693.036157,152.8345792720028,329.6035934427946,41.36798215162185,0.028382101357264024,-0.03212656082453259,0.9419496227272649,-0.3330063793024047,150.53773298185934,343.00125038774354,120.13444848254609,0.045281259753006536,-0.02270808742651422,0.9385976572541114,0.34127465197067347
2023-10-24 10:38:13.136180,1698136693.13618,152.8251563378975,329.6030570910405,41.37174982326532,0.02850743990706342,-0.032180203603394186,0.9419561209553977,-0.3329721107850466,150.50188662398784,342.8619234574755,120.14954812754567,0.04558113736948344,-0.023865411379292586,0.9386576354936109,0.34099068225590123
2023-10-24 10:38:13.236204,1698136693.236204,152.83041525837055,329.60033966709204,41.38902582746955,0.028474541953056785,-0.03203755428349499,0.9419585567059939,-0.33298179083015433,150.5177029731923,342.87043635304786,120.16044869502439,0.045525007555336366,-0.023512273842190762,0.9387392862219264,0.3407978860987912
2023-10-24 10:38:13.336227,1698136693.336227,152.8275774581103,329.6006200882228,41.38789718200709,0.028418788544604123,-0.032197867194309275,0.9419662397393231,-0.33294935500336215,150.51248108384502,342.86511588857417,120.16060807452716,0.04497546919282449,-0.023651398294326654,0.938733333700953,0.3408776125360887
2023-10-24 10:38:13.436251,1698136693.436251,152.8296820085285,329.6039810107625,41.37508363418997,0.028398482411112484,-0.03214169840120818,0.94196052215299,-0.3329726897598332,150.50844691818833,342.8693034122675,120.15513995946955,0.04546561621068864,-0.023714983778609894,0.9387520428601578,0.34075662768733206
2023-10-24 10:38:13.536274,1698136693.536274,152.82746466948737,329.61026027058875,41.35636430209965,0.028514002285321537,-0.03239531671304485,0.9419538660205685,-0.33295706843020917,150.51260954214862,342.87034811282604,120.13675185377916,0.04564840361265309,-0.02354120999308548,0.9386858662192586,0.34092650122845847
2023-10-24 10:38:13.636298,1698136693.636298,152.82660639738836,329.59690189793537,41.388575567647734,0.028380051311765995,-0.03202148353980528,0.9419725415303783,-0.33295184078519713,150.51310107766417,342.8688362494551,120.16818741784422,0.045799874208601245,-0.02330007768833237,0.9387587922627924,0.3407218922398408
2023-10-24 10:38:13.736321,1698136693.736321,152.820434190164,329.61025313928803,41.381390433272344,0.028566214956594244,-0.03228325166240792,0.9419777183970008,-0.33289599136777853,150.51359727952297,342.8690851785339,120.15728384979242,0.04564785568621736,-0.023500648621914835,0.9386952433608847,0.3409035536295407
2023-10-24 10:38:13.836345,1698136693.836345,152.82657541718203,329.6019213952565,41.386499792229934,0.028503981763485387,-0.03220408114362361,0.9419605386593044,-0.3329576005890166,150.5122701860542,342.86702618445946,120.15621829697771,0.04552666035702844,-0.02359877502488462,0.9386667578970918,0.3409914055119618
2023-10-24 10:38:13.936368,1698136693.936368,152.8304325512336,329.59787107669615,41.39209789032965,0.028484353406182855,-0.03204466088019786,0.9419694069088805,-0.33294957240975204,150.51415473086536,342.8700679078544,120.16404633425225,0.04542671012312294,-0.02358624439223246,0.9386826901496627,0.34096174315640176
2023-10-24 10:38:14.036392,1698136694.036392,152.82731797666128,329.5991588642908,41.37126634305234,0.028429344062754266,-0.03214954514874744,0.9419570913095251,-0.3329790042549068,150.50791561665898,342.8640591098115,120.15042589917414,0.04553423680274196,-0.023780675916032314,0.9386933780834879,0.34090446561167076
2023-10-24 10:38:14.136416,1698136694.136416,152.83071441497765,329.59581340335313,41.37516595435436,0.028440291552706047,-0.03203717507804759,0.9419568093600381,-0.332989697332624,150.5076694210848,342.86749701344667,120.15477836334057,0.04561083625122535,-0.02365039059537753,0.9387032630444997,0.3408760692550283
2023-10-24 10:38:14.236439,1698136694.236439,152.8313322015892,329.60044053903647,41.374652773085046,0.028424342625571853,-0.03218977594457883,0.9419573286168286,-0.33297487313007573,150.50745034686335,342.86776264801654,120.1608438890396,0.04551378382915329,-0.023438763725889496,0.9386897157105933,0.34094095890010157
2023-10-24 10:38:14.336463,1698136694.336463,152.8003557515419,329.53221900023567,41.388106752182004,0.028570797134460448,-0.032050737228941105,0.941734354331094,-0.33360585376575824,150.50168390990376,342.86855279611825,120.16081062999669,0.04559814171054996,-0.023491671607270167,0.9386476413865029,0.3410418686278794
2023-10-24 10:38:14.436486,1698136694.436486,152.82456282207477,329.6061523047443,41.37067976217681,0.028440042323097405,-0.03217939960008383,0.9419669471293773,-0.3329473242868901,150.50504737484277,342.8721699597153,120.14710121294848,0.04547517313831377,-0.023563034216553373,0.9387164202677251,0.34086401154463025
2023-10-24 10:38:14.536510,1698136694.53651,152.82296209086678,329.60451026707653,41.38793487381142,0.028520105897249425,-0.032233923764766956,0.9419671177536039,-0.3329347185099583,150.5054163331995,342.86891481628663,120.16324166613472,0.045454425957255705,-0.02339762097872781,0.9386879129156059,0.34095666680617365
2023-10-24 10:38:14.636533,1698136694.636533,152.8305420344749,329.60605659100275,41.377584133248305,0.028496537379091996,-0.032235265303203024,0.9419562784298161,-0.3329672724981913,150.51178306000259,342.8729562633551,120.1549374855148,0.04546468010545089,-0.023501521149507425,0.9386368496552476,0.341088706696426
2023-10-24 10:38:14.736557,1698136694.736557,152.83240560946348,329.60219787081945,41.37758027891542,0.02843683914296905,-0.0321774789833283,0.9419552663409004,-0.33298082863503964,150.50597114499396,342.8700543634889,120.157127067271,0.04547474917842024,-0.02370765811043158,0.9386824487857437,0.34094758317911333
2023-10-24 10:38:14.836580,1698136694.83658,152.83676106774175,329.59990578884083,41.37755890456813,0.028376733642675386,-0.03202860402189454,0.9419558002830302,-0.33299879853437553,150.50144208454836,342.87068461835077,120.1604807730916,0.04570481580911411,-0.023566672350014566,0.9386944968429612,0.34089341935998385
2023-10-24 10:38:14.936604,1698136694.936604,152.82347415110678,329.6078997688968,41.377335175600685,0.028485493448899286,-0.032190670059816934,0.9419585734849573,-0.33296603920258455,150.5009665869065,342.8697323667316,120.153244210798,0.0455120249831763,-0.023694305134632818,0.9387096269812397,0.3408687015536325
2023-10-24 10:38:15.036627,1698136695.036627,152.82132660543172,329.6110053530665,41.37389604357681,0.028500306808492443,-0.032292119612225105,0.9419619187823423,-0.33294548365559745,150.5056455312849,342.8689259474696,120.13975895985651,0.044903882705629006,-0.02368630594142013,0.9387793467159821,0.34075788825546305
2023-10-24 10:38:15.136651,1698136695.136651,152.82820218417933,329.6065193444273,41.376710559483385,0.028478753989258254,-0.032131409449204555,0.9419627571224471,-0.33296050410267075,150.50376154546413,342.8700113904389,120.15165800699845,0.04558396869317382,-0.02350506255196573,0.938686952049083,0.34093462699674626
2023-10-24 10:38:15.236674,1698136695.236674,152.82384800304274,329.6108744578497,41.39430087193218,0.02850930302340114,-0.032205814037127765,0.9419612848307104,-0.3329548664059486,150.50345561377398,342.87200216246276,120.16304502486308,0.04547611066412288,-0.02334901282048102,0.9386492695840697,0.34106347747665117
2023-10-24 10:38:15.336698,1698136695.336698,152.82260120395665,329.610041913801,41.38599194875216,0.028527263076325377,-0.03220483762616937,0.9419804079051459,-0.3328993163370888,150.5022454913281,342.8687013454145,120.16382785861452,0.04559253144246634,-0.023687102838332013,0.9386877601582041,0.34091865769559776
2023-10-24 10:38:15.436721,1698136695.436721,152.82376998876717,329.6107222738342,41.39614786334298,0.028520953990291704,-0.03221166041332517,0.9419639072930859,-0.33294588370190603,150.50205654778125,342.873190978996,120.16080110621982,0.04569499552702469,-0.023574715425941573,0.9387063412164554,0.34086156300819087
2023-10-24 10:38:15.536745,1698136695.536745,152.8282927276659,329.60514069203606,41.376223902320916,0.02848253374291969,-0.03204972370445015,0.9419658894331109,-0.3329591921340212,150.50006335602555,342.86848783038863,120.14775349000361,0.045630536902142145,-0.023866139990275127,0.9387432317943221,0.3407483033330301
2023-10-24 10:38:15.636768,1698136695.636768,152.85325284782084,329.6066983491292,41.338767581258125,0.028217302751293888,-0.032387894731452635,0.9419007711298182,-0.333133224769551,150.49085207428666,342.86841605538774,120.1559783309379,0.04546283483309872,-0.023461152148106828,0.938767359994838,0.34073237121991257
2023-10-24 10:38:15.736792,1698136695.736792,152.86242586449154,329.6044337721387,41.3357665238717,0.028165532313144125,-0.03231940055178579,0.9419085005030282,-0.33312240365611495,150.5061386337991,342.86836170134006,120.1534629347768,0.04556391292108244,-0.023541281266263234,0.9387367710791784,0.3407976122855044
2023-10-24 10:38:15.836815,1698136695.836815,152.85575369928478,329.6061688916987,41.34289610132412,0.028115572551692218,-0.03231245836560572,0.941909173312943,-0.33312539507427213,150.5108523225283,342.87545764664526,120.14596235858393,0.04523953745808241,-0.022678764680702287,0.9386073792341899,0.3412553963386686
2023-10-24 10:38:15.936839,1698136695.936839,152.84676091692856,329.61267281237133,41.33443084308406,0.0282436934758286,-0.03248846039054448,0.9419121454783072,-0.3330890330238267,150.4865655946894,342.86812422294906,120.15742163336526,0.04546143684220709,-0.023844105488700584,0.9386812435764756,0.34094316146743153
2023-10-24 10:38:16.036862,1698136696.036862,152.85261204075942,329.606652814593,41.33064788982562,0.028194396801750496,-0.03248990385449197,0.9418926179739452,-0.333148282815174,150.49819247943418,342.87083662719283,120.15980341063921,0.045520681808562724,-0.023716177520160444,0.938705624557404,0.34087704656636825
2023-10-24 10:38:16.136886,1698136696.136886,152.85290190651378,329.60384402202294,41.33412225183031,0.028193255948470518,-0.032363720899966274,0.941900917886414,-0.33313719512126566,150.49591004985194,342.86844778432334,120.15005219395094,0.04552916246170788,-0.02366373690107554,0.9386732688319981,0.34096864562839724
2023-10-24 10:38:16.236910,1698136696.23691,152.85513789808778,329.6024079706715,41.336931470547704,0.028181924067281913,-0.032327458314590815,0.9419177609986806,-0.3330940499468832,150.49899676668574,342.8623517568192,120.1505838891958,0.04551691906036897,-0.02368286899048004,0.9387607386742802,0.34072805478761403
2023-10-24 10:38:16.336933,1698136696.336933,152.845708267269,329.6131249522175,41.345191446056674,0.028238475584055837,-0.03254391234686652,0.9419138358766662,-0.3330792819284216,150.49680644477945,342.86761037116173,120.15984316992129,0.045505515841968276,-0.023748519919842292,0.9386341713190038,0.34107352324954837
2023-10-24 10:38:16.436957,1698136696.436957,152.85250728377562,329.61488936636533,41.3336811382706,0.028233340851011927,-0.03258942613934537,0.941901858203546,-0.33310913719231117,150.4888751149407,342.8598971314161,120.16002845027806,0.04548255090698059,-0.023934691200033595,0.9387045347501148,0.3408698645520362
2023-10-24 10:38:16.536980,1698136696.53698,152.8538337802776,329.61283824825165,41.34180377458865,0.02826247699620853,-0.03246696884650284,0.941906216207489,-0.33310630164806265,150.50134816835697,342.87178158184696,120.1578413551698,0.04535112527662411,-0.023635154069801455,0.9386252590348865,0.3411264839175245
2023-10-24 10:38:16.637004,1698136696.637004,152.85122469693306,329.61219549393337,41.33015548576797,0.02823174436125571,-0.03255303984640389,0.9419136030873676,-0.3330796188992238,150.50879314831036,342.86491035914236,120.13608421371991,0.045293448312823475,-0.022693829856940347,0.938596327221406,0.3412776408627517
2023-10-24 10:38:16.737027,1698136696.737027,152.84517266914054,329.62172031530855,41.34220858993412,0.028359865518357834,-0.03263840219811048,0.9419237749196361,-0.3330316125698548,150.49645251311915,342.8692280458404,120.15817734628052,0.04526221781454004,-0.023738027325668556,0.9386768755385908,0.340989092239479
2023-10-24 10:38:16.837051,1698136696.837051,152.86646359009444,329.61027121582407,41.318706408602736,0.0281662359955345,-0.032493017163610326,0.9418969818261662,-0.3331380233660036,150.50711939657856,342.86681377386725,120.14761973235693,0.045488897827070544,-0.023945994585117248,0.9386793360229543,0.3409376096022754
2023-10-24 10:38:16.937074,1698136696.937074,152.86153161142803,329.6165624436223,41.33581519552957,0.028214540746199817,-0.032527828089812534,0.9419176267097032,-0.3330721612260636,150.49860881249316,342.86005953607093,120.16166578448068,0.04544560320334835,-0.02377865409422379,0.938729237377905,0.34081768095397846
2023-10-24 10:38:17.037098,1698136697.037098,152.8629728360775,329.60601019248514,41.3438596478895,0.028256727958528658,-0.03242875059276596,0.9418994624444609,-0.3331296085713573,150.49215997619257,342.8627181116041,120.16111996194793,0.04556889457212162,-0.023651355293135865,0.9387003698380839,0.3408895787584556
2023-10-24 10:38:17.137121,1698136697.137121,152.84592937721933,329.525135131841,41.32201249535129,0.028397058155057116,-0.032546867888205065,0.9417192099306915,-0.33361540450992405,151.1132567374074,342.5317182510608,120.21783713726683,0.048559290882241916,-0.023083815414239452,0.938201061857344,0.3418887249744973
2023-10-24 10:38:17.237145,1698136697.237145,152.84629065735606,329.5143079863617,41.30181449962375,0.028437300518743134,-0.03258873504573944,0.9417118287234183,-0.33362872467717863,151.07642630033726,342.4119862802383,120.19120629398404,0.048477105316956225,-0.022872962640167437,0.9381047261172137,0.34217878466774876
2023-10-24 10:38:17.337168,1698136697.337168,152.8406638888577,329.51114763849836,41.30457584969944,0.028526115596330094,-0.03260969468760823,0.9417124645584733,-0.3336172996662072,151.05677612934403,342.3767496474006,120.18493435569484,0.04863358577113143,-0.022876132760544177,0.9381131425747422,0.342133290712122
2023-10-24 10:38:17.437192,1698136697.437192,152.85831502842947,329.58468728300613,41.31471688316854,0.028445930765160846,-0.03273525409180112,0.9419398608209241,-0.3329692639855925,151.0608918475376,342.3839129875905,120.20252313131196,0.04886961901130297,-0.023642346860819723,0.938212540430071,0.34177482170627393
2023-10-24 10:38:17.537216,1698136697.537216,152.8675499993857,329.5817601836227,41.31298641773945,0.02838889653503976,-0.03263257160379072,0.9419372034501684,-0.33299172749562794,151.0542648584323,342.37750802225133,120.2069603844615,0.04869575765435473,-0.023534805368665167,0.9381475184939005,0.3419854816603537
2023-10-24 10:38:17.637239,1698136697.637239,152.86225771367825,329.5833806968516,41.313962694133934,0.02843823268970373,-0.032662089083123104,0.9419361637473553,-0.33298756475749647,151.07180435342656,342.38386412408715,120.2003444843738,0.0483397687853246,-0.022563819301070997,0.9381801783423661,0.34201183280380243
2023-10-24 10:38:17.737262,1698136697.737262,152.87187881350732,329.57609596584854,41.29882723101396,0.028375145172165543,-0.03259827957025325,0.9419162056891907,-0.33305564815147115,151.0637311064465,342.38302370391585,120.19152069204614,0.04886192515365546,-0.02359889399380127,0.9381791040043417,0.3418706967292732
2023-10-24 10:38:17.837286,1698136697.837286,152.86346239911458,329.58349577264255,41.305502922953515,0.028362244768391796,-0.0326574377657577,0.9419302622843532,-0.3330111947415632,151.0595553126232,342.39554561963223,120.20333263285015,0.048788391272728875,-0.023669403622599155,0.9381864262560154,0.3418562297196524
2023-10-24 10:38:17.937310,1698136697.93731,152.84174829856394,329.51599709358703,41.30309940873818,0.02853484816611187,-0.03259300049373053,0.9417081771361431,-0.3336302862059667,151.07711641313958,342.4484744302331,120.19045540630178,0.04860573304697578,-0.02334054652287037,0.9381933866514985,0.3418857570101036
2023-10-24 10:38:18.037333,1698136698.037333,152.86162411257774,329.58016642396416,41.326196176065956,0.028412004027192482,-0.032589407420560705,0.941932314530607,-0.33300781281247616,151.07274555463465,342.450610581895,120.2025207075491,0.04856777691598159,-0.023630464366290585,0.9381407111468151,0.34201575736831347
2023-10-24 10:38:18.137357,1698136698.137357,152.84346291917916,329.51254842827706,41.310185290229455,0.028479800632130462,-0.032635871585174475,0.9417078930007262,-0.33363160087432203,151.07813115628625,342.46736836373907,120.20234676209392,0.048820334655549406,-0.02349291615131613,0.9381147409150277,0.3420605073561667
2023-10-24 10:38:18.237860,1698136698.23786,152.88238362479473,329.59127801884716,41.315574802745886,0.0284553526181079,-0.03277382657526464,0.9419225533687794,-0.3330136223253229,151.1022363509739,342.473134696642,120.20222746613703,0.048685112854108405,-0.023433816934959908,0.9381656546185518,0.3419441774681735
2023-10-24 10:38:18.337883,1698136698.337883,152.85694748622154,329.4658547989778,41.488828474199444,0.029723973103319156,-0.030216082574913473,0.9421189229075797,-0.33258894881856965,151.17372638016246,342.38199812075857,120.12854929925204,0.04435099664779272,-0.02387913213789311,0.9392471677651258,0.33952545411187973
2023-10-24 10:38:18.437907,1698136698.437907,152.85067868658683,329.51554292161154,41.306187645270946,0.028519681411440193,-0.03259878394348215,0.9417023247313078,-0.3336475365610346,151.10306055651097,342.4787540052443,120.19330926192066,0.04865432202367532,-0.02345090155301777,0.9381442270379269,0.34200617164048064
2023-10-24 10:38:18.537930,1698136698.53793,152.76966355385645,329.6096574801571,41.554691529679864,0.029675681696370547,-0.030888768903323652,0.9421897088859889,-0.33233084470272756,150.75520409938983,342.33889245367266,120.20134105298048,0.04736610745138459,-0.02454364244631277,0.9384457169137944,0.34128243125969115
2023-10-24 10:38:18.637956,1698136698.637956,152.85691779871186,329.59439757678956,41.303791424018286,0.028452282528160736,-0.032732406647001895,0.941917942170793,-0.3330310006452426,150.76490425992375,342.38687296361206,120.17696472580691,0.04765100269033429,-0.024281442488785776,0.9384312968896267,0.341301178596446
2023-10-24 10:38:18.737979,1698136698.737979,152.84411108580107,329.5975811206339,41.35979127222263,0.028725961737079253,-0.03237501273261521,0.9419600884603255,-0.332923218506398,150.7101360365092,342.3441402393795,120.19709125805969,0.047160592142318575,-0.02478750115612458,0.9386871634449769,0.34062863578807384
2023-10-24 10:38:18.838003,1698136698.838003,152.8362193898541,329.5920560736119,41.35605232596247,0.028723856128647397,-0.03238951752394661,0.9419891962386165,-0.33283962115918836,150.7526904620446,342.3816496312444,120.18321005830694,0.04748111421876842,-0.02463841588511277,0.9385828965817623,0.34088214752228596
2023-10-24 10:38:18.938026,1698136698.938026,152.83174588085043,329.58881680666724,41.36522597885497,0.028676254837472125,-0.03228726836131958,0.9419814155088769,-0.3328756788144083,150.7227449161658,342.36240406457983,120.19330480122582,0.04735640735287287,-0.02460615482707494,0.9386424507620181,0.3407378133620149
2023-10-24 10:38:19.038050,1698136699.03805,152.84229395349624,329.58641923519707,41.35523073466725,0.028685871140284522,-0.03235339696832426,0.9419596093584446,-0.33293013206800526,150.73756396650717,342.3739151992496,120.18585102286306,0.04734045758088407,-0.024527414740684088,0.9385507597670008,0.34099817938363913
2023-10-24 10:38:19.138074,1698136699.138074,152.8391580790988,329.58771249283586,41.35542021116498,0.028633454878093656,-0.0323325613992358,0.9419760435869109,-0.33289016813877076,150.72369224987057,342.3977986041969,120.17049815665018,0.046107727359479496,-0.025138732424762986,0.9382864015685597,0.3418490167330364
2023-10-24 10:38:19.300861,1698136699.300861,152.8244697227717,329.574998723515,41.41838221576979,0.028376552085047524,-0.031472826044491836,0.9419482370337235,-0.3330731920488316,150.61847046481458,341.4706096688058,120.13963040772022,0.050752455802484366,-0.027563404013128526,0.9404667650159506,0.33494284719882994
2023-10-24 10:38:19.400884,1698136699.400884,152.81712675465485,329.5375627321587,41.43978501650002,0.028233456598741536,-0.031125347347410025,0.9417735713323293,-0.3336114881429298,151.03552483210024,341.3871744122576,120.00837527692639,0.04952875531738045,-0.02657103424701102,0.9430451661519194,0.32788213908850544
2023-10-24 10:38:19.500908,1698136699.500908,152.82312504657637,329.54356589986764,41.40205085355953,0.028363322571052382,-0.03176834408451168,0.9417877534549564,-0.33349980762981685,151.62106723691133,342.5445369996388,120.11535595871868,0.05138893350172818,-0.020723522281806964,0.940269402346674,0.3358915958288018
2023-10-24 10:38:19.600932,1698136699.600932,152.82828166945941,329.60508013303627,41.36531139235859,0.02850755808262956,-0.032184482536934206,0.9419594158071053,-0.3329623660240485,150.57058374573646,342.81931090218586,120.10557602293272,0.04590821398625559,-0.023714915423469908,0.9395411659498693,0.3385150456931127
2023-10-24 10:38:19.700955,1698136699.700955,152.824941480712,329.5218216031914,41.34286518622957,0.0290401255716485,-0.032936325842190896,0.9417818989081936,-0.3333447531245646,151.4040139895177,343.60693307370127,120.12565063589423,0.04702823857122968,-0.01495385181861424,0.9392526291070281,0.33966045664488226
2023-10-24 10:38:19.800979,1698136699.800979,152.78194389975894,329.54355189743023,41.289403947078,0.029521955039606747,-0.03353192696544496,0.9416692072939244,-0.3335613408041398,148.00778150826162,339.1446746795905,120.09595847482879,0.033143742117603105,-0.04758509672492215,0.9396138087269237,0.3372877723514532
2023-10-24 10:38:19.901002,1698136699.901002,152.81823757732994,329.4457730796471,41.284570359643325,0.02999389634058806,-0.03305865604985966,0.9417726334367839,-0.33327435897775337,145.98254662936844,336.71837935767206,120.16364790115128,0.028443239717183474,-0.0634273674663462,0.9396587690219496,0.3349766394404755
2023-10-24 10:38:20.001026,1698136700.001026,152.7711527977674,329.4657305873243,41.49136200931068,0.031103725296297437,-0.03194739124843074,0.9416445364171833,-0.33364275730304743,140.30590756033695,330.662064252247,119.29750922890045,0.010483863300736071,-0.10751193770364105,0.9362498473179925,0.33431645974814905
2023-10-24 10:38:20.101049,1698136700.101049,152.8282741177163,329.4467264171839,41.381914690593035,0.030870490778615024,-0.03239901775474316,0.9417431145008252,-0.33334250064745896,129.03049327639502,321.0814194265463,115.65531133952922,-0.03581647540375572,-0.18749988006329188,0.925597063041448,0.32685019803412857
2023-10-24 10:38:20.201073,1698136700.201073,152.84350250966145,329.47637008218885,41.3160149715476,0.030701186746891842,-0.03281770009717339,0.9417157717777815,-0.33339442238532113,122.01600781831873,316.9600714566174,112.56577474682723,-0.06815942112139503,-0.23228007456769098,0.9155293650075945,0.3212572833104567
2023-10-24 10:38:20.301096,1698136700.301096,152.85339871926004,329.483613442575,41.32348866365238,0.030813922655732753,-0.032915402245294496,0.9417060987870927,-0.33340171261226537,117.96703909229934,315.4700186136566,110.57021970123574,-0.08697661608108978,-0.2460834797009611,0.9095372886683004,0.3234500112772704
2023-10-24 10:38:20.401120,1698136700.40112,152.85779671773102,329.4817293600261,41.30879497536831,0.030742706452159763,-0.032910515773324926,0.9416919026583199,-0.3334488632748409,113.97321988052697,312.6933004973489,107.72741244597319,-0.10334758936366395,-0.2691033125632812,0.9034093660771445,0.31741802126577595
2023-10-24 10:38:20.501143,1698136700.501143,152.83742340004375,329.46621386059803,41.30874184092097,0.030286935166228653,-0.03291378663180748,0.9417112272291467,-0.3334356740337889,112.70944139841026,311.40188129425024,106.11987825827816,-0.11043653464286257,-0.27313847581163664,0.9027957312416532,0.3133033873088841
2023-10-24 10:38:20.601167,1698136700.601167,152.8336389681729,329.4444330257816,41.31510622136708,0.03002146436776615,-0.03284960045362897,0.9417031146449832,-0.3334889192989619,111.90538911372255,310.0009789798023,104.7049741518136,-0.1131190762626246,-0.2859332688021584,0.8975027735408896,0.31612499405142563
2023-10-24 10:38:20.701191,1698136700.701191,152.83402326794194,329.45199237153105,41.31589151565788,0.03007617335553032,-0.032806419790746916,0.9416946941605943,-0.3335120171846681,110.85382590287594,310.5690934657255,104.44685095045753,-0.11372452425269032,-0.28660861042492414,0.8929859289937206,0.32786943686933545
2023-10-24 10:38:20.801214,1698136700.801214,152.83980511266924,329.467726466751,41.312402790868994,0.03052730494331388,-0.032868578658592246,0.9417087824167709,-0.33342511799350794,111.60250209495764,310.8523907627703,105.5159953992837,-0.11535596806079576,-0.28092250939743085,0.8953378040471097,0.3258001856824308
2023-10-24 10:38:20.901237,1698136700.901237,152.84749159557134,329.48505366353,41.31249639703906,0.030802535814504674,-0.032892713840978687,0.9417147726659222,-0.33338050348864456,110.73439622900413,312.84469363697235,105.94236863912236,-0.12084662001386885,-0.277447278698353,0.8926755493835009,0.33399021768154663
2023-10-24 10:38:21.001261,1698136701.001261,152.8684416135564,329.4964038122022,41.31097001476281,0.030871893740208985,-0.03282679150518266,0.9416881380510511,-0.3334558120505821,113.85337305187618,313.7363683673798,108.02989150829671,-0.10211354893951183,-0.2698161166047549,0.8978552604354489,0.33260790377214344
2023-10-24 10:38:21.101284,1698136701.101284,152.8624755504865,329.4993288345619,41.32022113511897,0.03102862323598808,-0.032846378180414734,0.9416957169967554,-0.3334179307872858,116.61896289827999,315.2795496803816,110.12192777242474,-0.08526312135903488,-0.25286177042897984,0.9006321656064454,0.34300557935211606
2023-10-24 10:38:21.201308,1698136701.201308,152.8457005694167,329.48279387804365,41.36768244687383,0.031035672565013547,-0.03255096994594074,0.9417181432477912,-0.3333829030738506,122.31735510891231,320.3247558529756,113.70202190825688,-0.0725575454390086,-0.21718952143362572,0.9118827543360387,0.3406375738579329
2023-10-24 10:38:21.301331,1698136701.301331,152.83066589282504,329.46403306296327,41.40397424023226,0.030846460467702626,-0.032534351607682824,0.9417506265786324,-0.33331031964347513,127.99892229762844,323.9010917718733,116.01474728041646,-0.043624542203712875,-0.17513726626583379,0.9254610726746977,0.3330850345576109
2023-10-24 10:38:21.401355,1698136701.401355,152.80423300536125,329.4102089494733,41.475362189201064,0.03100176602099924,-0.03168520948191021,0.9417733111602836,-0.3333136186684583,134.94259146986977,331.0614263012475,118.414799074918,-0.02040054243266576,-0.11860109398858548,0.9343802927781222,0.335337243444617
2023-10-24 10:38:21.501379,1698136701.501379,152.8023831695797,329.39399863455816,41.47932803300104,0.030932116233972354,-0.03152224854799184,0.9417929901678133,-0.3332799359435488,138.61629659784631,334.00287558769253,118.93066192221274,-0.004472369649262372,-0.0902852909980459,0.9387841768942207,0.3324347053966526
2023-10-24 10:38:21.601402,1698136701.601402,152.84073514897364,329.4761405721983,41.28352621144263,0.02963280079301686,-0.03294559258955312,0.9418719194315051,-0.33303719376744856,146.69928094992707,341.6558787467807,120.21027962936788,0.023403782337388834,-0.03786363292909804,0.9413688337284576,0.3344298538683983
2023-10-24 10:38:21.701426,1698136701.701426,152.8358676940209,329.4500155246259,41.283891842905184,0.02952039904738298,-0.03271696978620421,0.9418300976428501,-0.3331879546174372,154.44570730810187,349.4735892858557,119.75239847379603,0.049951428262260504,0.021815205208321677,0.9388931225025274,0.33986564426804455
2023-10-24 10:38:21.801449,1698136701.801449,152.80509348668434,329.43070572017467,41.301108819754454,0.0296916153627569,-0.03295822995422286,0.9418191704887563,-0.33317985106441483,161.06990904797217,352.5336880445136,118.94881355522155,0.08089184654052356,0.052539293091874543,0.9394296677105588,0.3288890865776782
2023-10-24 10:38:21.901473,1698136701.901473,152.74099600589219,329.32551551762776,41.34332214900105,0.029074503300522227,-0.032622048914192577,0.9421998210909633,-0.3321896631724482,167.4710544897308,356.88134978931544,117.21539425654694,0.10654025094261402,0.08921420632532155,0.9353791750548521,0.3252011672680963
2023-10-24 10:38:22.001496,1698136702.001496,152.81479729139596,329.3591096214049,41.52325809943055,0.030810052937688653,-0.0314441951799671,0.941771258034967,-0.3333600167487047,172.8124748988928,360.69351453751506,115.23525756956042,0.13315630269548534,0.12197500078171954,0.9306171704351446,0.3183444366218027
2023-10-24 10:38:22.101520,1698136702.10152,152.8480621085169,329.3379358117419,41.50380894843751,0.030613983463945744,-0.0314708778541719,0.9416774478568078,-0.3336404532748481,177.29934544758083,363.8990850139016,113.13761826690292,0.1526583480402529,0.14949230805638775,0.9255650769328073,0.31253282542472505
2023-10-24 10:38:22.201543,1698136702.201543,152.95077390106712,329.4898063064478,41.329802254265374,0.03182876144797437,-0.03237174458112547,0.9409966316866999,-0.3353570325067714,181.54013591552464,367.3523363344538,110.6759172658434,0.17154530332965084,0.17750524604875395,0.9183620672639302,0.30931409593070586
2023-10-24 10:38:22.301567,1698136702.301567,152.90252795427182,329.3210313340817,41.41065014763079,0.030390252480268002,-0.03166385538535495,0.9415696159463364,-0.3339468387977188,184.96548041238105,371.05901757550765,108.02395003467198,0.18484341569331292,0.20583839511412708,0.9100492621715512,0.3086645544805635
2023-10-24 10:38:22.401590,1698136702.40159,152.8544202793701,329.2523498132494,41.36742038866859,0.029497763572671722,-0.03189572859703242,0.9419377476421235,-0.3329651993953098,187.8400994288462,374.7245162453619,105.19409774317268,0.19594328187461502,0.23666273496300028,0.9007908560781729,0.30687589311314506
2023-10-24 10:38:22.501614,1698136702.501614,152.8226220304385,329.4222781583966,41.3161638065548,0.029872153298505663,-0.031781458369885655,0.9420034565297312,-0.33275678993407876,189.97746006773423,377.6856985116057,102.6063738462145,0.20347298647256784,0.25884976873221593,0.8933159380859105,0.3059120392611289
2023-10-24 10:38:22.601637,1698136702.601637,152.8830062351692,329.3989258325536,41.37066545559032,0.030578652945292994,-0.030603049503501945,0.9419697242553996,-0.3328985399958132,191.6066963034956,379.3364846830545,100.51089628127454,0.21095443290414398,0.2729005778318591,0.8881140398543124,0.3037712199514323
2023-10-24 10:38:22.701661,1698136702.701661,152.817579302692,329.4302199124419,41.3634990736489,0.030006230717355507,-0.03177332768952176,0.941866939183239,-0.3331317316607167,193.34381248771015,379.0792896143843,99.38394245472517,0.2207543821508128,0.27788299695015495,0.8823122227703133,0.30914993824570336
2023-10-24 10:38:22.801684,1698136702.801684,152.8271410995664,329.4384637458742,41.379788428724105,0.029960619839030377,-0.03150887263311812,0.9419183132640772,-0.3330156803245262,194.80539976212012,378.3007718213301,98.80056507014866,0.2240885399059819,0.2766933207476437,0.8771107341910456,0.3223381648258424
2023-10-24 10:38:22.901708,1698136702.901708,152.80466374569255,329.3403708708044,41.48242340176648,0.030692779001978657,-0.03174493837365608,0.9418028778833962,-0.33325298410568066,193.7564722429206,377.07856633188254,100.70106030996203,0.22185996767670155,0.2639666024755511,0.8836466052191707,0.31665196131500994
2023-10-24 10:38:23.001731,1698136703.001731,152.7974987126689,329.3730683050841,41.19787481162985,0.02940974527832695,-0.03316983018901125,0.9421068129105368,-0.33236964710311184,192.80180487520173,375.88345029534844,102.31394224895743,0.2214032762998002,0.2547542677789082,0.887538210416842,0.31361884085975494
2023-10-24 10:38:23.101755,1698136703.101755,152.77211462596932,329.2451148964644,41.571036436243446,0.02958170887463352,-0.029223506987425315,0.9426410110276825,-0.3312081422129006,191.24479781653886,373.0089038113262,104.64041096058533,0.2170742470592598,0.23284803743102447,0.8962168126901685,0.30895952385328934
2023-10-24 10:38:23.201779,1698136703.201779,152.80983571855194,329.3592107214824,41.290982330205516,0.03039544515599692,-0.031055601726477946,0.9419788902350197,-0.33284746786895664,189.1428121972572,369.0232218264796,107.41758345205515,0.211467623633475,0.20321070650892314,0.9049873871369062,0.3081958501311641
2023-10-24 10:38:23.301802,1698136703.301802,152.81443849774095,329.3582495472652,41.29202430081314,0.030289852253158146,-0.03106378652291511,0.941977276856338,-0.33286089572621563,185.95023365938385,364.7459587182027,110.29405942087214,0.20303051572756198,0.17141549915703921,0.9142525302802366,0.3058392506012408
2023-10-24 10:38:23.401826,1698136703.401826,152.9341254892358,329.4414719565266,41.087420556649114,0.028458915535341554,-0.03427107591147409,0.941532853375939,-0.3339632756699229,181.87611619877669,359.84306506300135,113.04863989563194,0.18834322907260467,0.13449122010414868,0.9243145208014885,0.3034495121316172
2023-10-24 10:38:23.501849,1698136703.501849,152.7687860528384,329.3970159180808,41.3345873757838,0.03092914030359302,-0.0341828665955209,0.9415526633004168,-0.33369672180482324,176.6620823568771,356.96535523936814,115.46279182120841,0.16196513959893555,0.10812429676140843,0.9306974825297628,0.3096427393260017
2023-10-24 10:38:23.601872,1698136703.601872,152.81107188603525,329.4391083376164,41.30154255941858,0.029807081199760572,-0.0328972760438241,0.9418179682883442,-0.3331789635443133,170.13698139945055,353.41963507911265,117.74194201359497,0.1307398711992864,0.0769828091545788,0.9359087487864051,0.31789235146277006
2023-10-24 10:38:23.701896,1698136703.701896,152.8095587533332,329.43488731892836,41.29154912781285,0.029747934637627448,-0.03305283735830386,0.941800124387986,-0.3332192912034581,163.0866764703628,348.89880878762983,119.32433157585275,0.09824078629274136,0.03663228242269366,0.9398188625052613,0.32518814472917806
2023-10-24 10:38:23.801920,1698136703.80192,152.82760640860212,329.45261145170446,41.266019773334776,0.029479175038224684,-0.03276118625557705,0.9417840435708645,-0.33331741357076633,157.346632049699,345.6999858582854,119.97228008973136,0.07283056807757897,0.00842695815195156,0.9407686696056576,0.3310271967953744
2023-10-24 10:38:23.901943,1698136703.901943,152.79552694742773,329.4891048123316,41.27759808338293,0.02948711466472036,-0.03279395506056613,0.9416560753936295,-0.33367484510298717,153.28601083393605,343.4335979522783,120.10607423271156,0.055902056148796474,-0.014053195409201824,0.9399225431707472,0.33648637514253454
2023-10-24 10:38:24.001967,1698136704.001967,152.83719664698972,329.4732569443698,41.26978841958133,0.02929715787139203,-0.03317569313928757,0.9417645850063967,-0.3333474408978057,151.01819028903196,342.8293820167013,120.02528996766682,0.04766167614059927,-0.022422864571817937,0.9385492335217035,0.34110250076433835
2023-10-24 10:38:24.101990,1698136704.10199,152.84355496826836,329.47496995652875,41.26303732922902,0.029332057188033937,-0.03320713213301072,0.9417564692181825,-0.33336416946384834,150.97306969870152,342.84257600462274,120.02810216441821,0.04740299718645172,-0.02218587934736055,0.938522899127623,0.34122647967062486
2023-10-24 10:38:24.202014,1698136704.202014,152.83135204604835,329.48068602087056,41.27790891819229,0.029366914860406965,-0.03303454650194722,0.9417758771138705,-0.33332341702225526,150.90595840013518,342.803269537503,120.0303711437338,0.04713361803752231,-0.02290026844922054,0.9384976416509918,0.34128606237462034
2023-10-24 10:38:24.302037,1698136704.302037,152.8295500906544,329.4789740323903,41.28148709392394,0.02938448562458756,-0.033079707003646805,0.9417545520114916,-0.3333776368546127,150.88115112923322,342.80060210327895,120.03558322132429,0.04699751205182923,-0.02291356621116321,0.938428505408623,0.34149398615636406
2023-10-24 10:38:24.402061,1698136704.402061,152.82697257832862,329.48013208302535,41.28805081961917,0.02931849004439005,-0.03296971764056858,0.941772646149577,-0.33334322675680966,150.88198259633313,342.78696526165197,120.04275664830897,0.046777983971615776,-0.023343632090877944,0.9385153822723626,0.341256168141351
2023-10-24 10:38:24.502084,1698136704.502084,152.82434119300416,329.47808652072456,41.2895457330216,0.029398261568561727,-0.03292698941160159,0.9417766405379695,-0.33332913902335465,150.87156382833464,342.7901458824821,120.04377796432074,0.04706536284400413,-0.02332517966324281,0.938437700008898,0.34143150237792846
2023-10-24 10:38:24.602108,1698136704.602108,152.82596905419948,329.47833995055515,41.2949588024885,0.029413625842092127,-0.03291759050082714,0.9417704699024974,-0.33334614572553667,150.8410373346485,342.7739021800624,120.04320408875988,0.0466358466128856,-0.023270902524538808,0.9384675634298638,0.3414120608537541
2023-10-24 10:38:24.702131,1698136704.702131,152.829135961922,329.4780391992178,41.29255612271519,0.02931261309719047,-0.033008888721307125,0.9417691081224224,-0.33334986270448075,150.8311593012532,342.76294159535524,120.05773036974932,0.046874627793576526,-0.02295556632934367,0.9384587243339214,0.341425004891648
2023-10-24 10:38:24.802155,1698136704.802155,152.85612540112643,329.54031679155406,41.28811791633571,0.02915401077052299,-0.032978108755061,0.9419803158694074,-0.3327695486571798,150.81805141757886,342.7530658357348,120.04898621161784,0.04691198968282117,-0.023183359133379062,0.9384056950072417,0.34155021396753255
2023-10-24 10:38:24.902179,1698136704.902179,152.82974719940813,329.47665833324925,41.29579822902942,0.02930660937488065,-0.03283599121604752,0.9417758205786096,-0.33334850247345404,150.80504876689895,342.74586627106476,120.04031591815112,0.04667698463354196,-0.023454342025548098,0.9383646486102104,0.3416766588227899
2023-10-24 10:38:25.002202,1698136705.002202,152.85335590042908,329.54679144439547,41.29052474640289,0.02919714652701257,-0.03297245028329665,0.9419741235730127,-0.33278385579208974,150.76984545461883,342.7016296575223,120.05119768090397,0.0466854026825466,-0.023936015658182968,0.9383587199309485,0.3416583864920214
2023-10-24 10:38:25.102225,1698136705.102225,152.85100466950925,329.54083776734075,41.28925730322046,0.029183374913385723,-0.0329074345461581,0.941986393673392,-0.33275676629401924,150.76746438772562,342.69609017589687,120.05736635936859,0.04694519320988699,-0.023915302574589202,0.9383318283529628,0.34169809340562374
2023-10-24 10:38:25.202249,1698136705.202249,152.84997588718284,329.54750514214555,41.30222441326012,0.029152887288926718,-0.032831650011048555,0.9419894627789215,-0.3327582364626758,150.76129863378017,342.68279388273953,120.0602209569719,0.04662377721432273,-0.023934443317353216,0.9383452990452483,0.3417037687545179
2023-10-24 10:38:25.302273,1698136705.302273,152.8535857858142,329.543821682552,41.28713893946287,0.029120158947650472,-0.0329021982571116,0.9419842494284224,-0.33276889205796434,150.87414564689976,342.70318703947294,120.0567789361046,0.04743823681697377,-0.023387311393493235,0.9385678203926155,0.34101773249632567
2023-10-24 10:38:25.402296,1698136705.402296,152.82772037877734,329.4790403358881,41.29475926560928,0.029262809731151473,-0.032870715138792396,0.9417807070029338,-0.33333512261679976,151.1954484986451,342.76501910263465,120.0497887084058,0.0489640547703206,-0.021676955328050095,0.9389913843160257,0.3397466867070651
2023-10-24 10:38:25.502320,1698136705.50232,152.83130671878965,329.48541397231577,41.29604643291116,0.02931033434104019,-0.032859059353245866,0.9417856091270546,-0.3333182457658437,151.16710032575463,342.7348933694299,120.05162605138064,0.04865266574233342,-0.02195588662927907,0.9389723711858708,0.33982604860144283
2023-10-24 10:38:25.602343,1698136705.602343,152.83083251382791,329.4802378587745,41.30207567753426,0.029304446406524475,-0.03290166006563455,0.9417793462762154,-0.33333225633484215,151.16756258867213,342.74094118939297,120.05251676228067,0.04844667028814869,-0.021936568941736723,0.9390241767975954,0.3397135594447978
2023-10-24 10:38:25.702367,1698136705.702367,152.8263684401525,329.48280900346117,41.29627249271373,0.02930691396541854,-0.03289254924058528,0.9417829847142808,-0.33332265854715026,151.15657168367747,342.7399437684663,120.05158724579397,0.04854155125665582,-0.02198221193331985,0.9389626010905985,0.3398672298314353
2023-10-24 10:38:25.802390,1698136705.80239,152.83617879863004,329.48374965938444,41.305293693687666,0.02931838569863431,-0.03282962301379352,0.9417809838099522,-0.3333335066367571,151.1492645060817,342.73666358453727,120.05938103203313,0.04858303117269143,-0.021920865305627292,0.9390197762902727,0.3397072629221994
2023-10-24 10:38:25.902414,1698136705.902414,152.83187810634976,329.48703704361776,41.30815766339813,0.029291655819274218,-0.03278938347543931,0.9417830131516245,-0.3333340837203913,151.14727928396184,342.73597310617254,120.05353501407166,0.04863789687492048,-0.022209446157287784,0.9389516751375998,0.33986886771998753
2023-10-24 10:38:26.002437,1698136706.002437,152.83255293934008,329.4873101661376,41.295040251149224,0.029262823670316733,-0.03287973136813961,0.9417856091961679,-0.3333203815055447,151.1365613836108,342.73510334464555,120.05773431969054,0.048706976810272404,-0.02202110925793037,0.9389548165811706,0.339862551005659
2023-10-24 10:38:26.102461,1698136706.102461,152.83061299906575,329.4855457057414,41.30775998395144,0.02920816741906822,-0.03282235116926749,0.9417859369423754,-0.33332990444500055,151.134725526862,342.7332629231044,120.06565048886196,0.048517379954910095,-0.022235809323093193,0.9390153811328986,0.3397083258059702
2023-10-24 10:38:26.202484,1698136706.202484,152.8283975885374,329.48438949720077,41.289009324876794,0.029181819527906067,-0.03287102513329864,0.9417803358041018,-0.33334324083208894,151.12507976654584,342.7311744226868,120.052954115645,0.04867187325512429,-0.022148773013918422,0.9389865644724458,0.3397715590629217
2023-10-24 10:38:26.302508,1698136706.302508,152.8276436268927,329.4884898645827,41.301039997294396,0.029230989448574878,-0.03292381525131519,0.9417762053495727,-0.3333453924723035,151.1210972435264,342.7334054474011,120.06955140029099,0.048551706050264626,-0.021986367541522032,0.9389381787046496,0.339932975824255
2023-10-24 10:38:26.402532,1698136706.402532,152.8290813768719,329.48643971260844,41.29657402711139,0.02918467634194657,-0.032835322355258434,0.941778783337972,-0.3333508954946592,151.11834174649212,342.73352719719486,120.06435872048108,0.04859398047362207,-0.02223919596777184,0.9389372005613921,0.3399131898387773
2023-10-24 10:38:26.502555,1698136706.502555,152.82507713267964,329.4851283857986,41.30741206975579,0.029212368048188726,-0.03287254835057865,0.9417781400191373,-0.3333466185519965,151.111839163154,342.73717462187204,120.0697425522439,0.04856739958793834,-0.022176177950442386,0.9388836859061035,0.3400688888565741
2023-10-24 10:38:26.602578,1698136706.602578,152.8276228916849,329.48474563396275,41.301582656826675,0.029219317217839533,-0.0328168534506433,0.9417926487954247,-0.3333105043436527,151.10978919295445,342.7332791509567,120.05706588911139,0.048654279077633256,-0.02230268355709867,0.9389190759703323,0.33995046729281797
2023-10-24 10:38:26.702602,1698136706.702602,152.8280479904989,329.48529577691477,41.30867779744938,0.02920992951371041,-0.0328588584756572,0.9417777429065609,-0.33334930388903544,151.10612505282714,342.73272110324666,120.06915068870154,0.04856619141097952,-0.022059618909584897,0.9389174079564392,0.33998352798592696
2023-10-24 10:38:26.802626,1698136706.802626,152.8378176033505,329.5547759347869,41.29486420613849,0.02913100419774607,-0.03283524416255158,0.9419940157095378,-0.3327469093810424,150.59913776105276,342.5686046333987,120.0555960676849,0.046828752477003445,-0.024463561814318687,0.9395306201394314,0.3383649152988828
2023-10-24 10:38:26.902649,1698136706.902649,152.84053601676897,329.55908106280464,41.312488062348336,0.029199013183313666,-0.03285535531334452,0.9419664130739261,-0.33281709676186444,150.44230534449835,342.5527297066741,120.0647475891661,0.04591789339377364,-0.024512907908154233,0.9395430232897277,0.3384517274291306
2023-10-24 10:38:27.002673,1698136707.002673,152.84982213893184,329.5527599872976,41.31026187592003,0.02906647640288207,-0.032785769239243735,0.9419691626933185,-0.33282777801704017,150.44723188524443,342.56084932038533,120.07725103327279,0.04640955479845684,-0.024464094036711098,0.9395219647277492,0.338446656240658
2023-10-24 10:38:27.102696,1698136707.102696,152.8365293841835,329.5599591783509,41.31354999255329,0.02915034218438154,-0.032849436694452054,0.9419807424878743,-0.3327813889648631,150.42700344491757,342.55515242222026,120.08485148010506,0.046747566403093355,-0.024156369618003132,0.9395803810373359,0.3382600218944025
2023-10-24 10:38:27.202720,1698136707.20272,152.83343280994401,329.56541843979625,41.30577191960072,0.029203401268511064,-0.03299359654978852,0.9419856263070557,-0.332748649541909,150.4327881439445,342.54949940782996,120.06705880909708,0.046165283145233826,-0.024510492191394055,0.9396827204535676,0.3380301573612011
2023-10-24 10:38:27.302743,1698136707.302743,152.84355645446928,329.5461085306478,41.27734750235439,0.028937263197429758,-0.03273562140335394,0.9419678987721174,-0.3328475500477973,150.43086154079487,342.5342677479386,120.0554069527467,0.04605988973876366,-0.02452619529750777,0.9396806785370656,0.33804907141656443
2023-10-24 10:38:27.402767,1698136707.402767,152.8315739334932,329.5672959657547,41.29380168903483,0.02913976762310723,-0.03304805095840418,0.9419722703418566,-0.3327866316090991,150.4415166319481,342.5457461424746,120.03929398595926,0.047183404165523954,-0.023752104875631373,0.9395647414929115,0.3382715779202983
2023-10-24 10:38:27.502790,1698136707.50279,152.83668898419998,329.55911393828865,41.29514995245085,0.029143988457918282,-0.03284985366091686,0.94197290235791,-0.33280409594029436,150.42140930138441,342.52750280708204,120.06062656758192,0.046203909733388164,-0.024597083062442102,0.9395190198452633,0.33847332772194055
2023-10-24 10:38:27.602814,1698136707.602814,152.82869940423907,329.55973811453396,41.31296157812874,0.029185128444057788,-0.03284687582161015,0.9419807553600089,-0.3327785563371694,150.42551858044575,342.55228186133917,120.08389388032236,0.0461933286808385,-0.02435509454137457,0.9396813339201635,0.3380414123111057
2023-10-24 10:38:27.702837,1698136707.702837,152.84068194860444,329.56154217863923,41.28620208810299,0.02911979771990756,-0.03292688706476074,0.9419624405539353,-0.3328282110558691,150.4259859586188,342.68438221463174,120.04533311943405,0.04572506668723806,-0.024484301076964036,0.9395559583990075,0.3384439958311314
2023-10-24 10:38:27.802861,1698136707.802861,152.84767360674155,329.55572639112887,41.29362507307765,0.028962873257824595,-0.032825811714884245,0.9419722593601237,-0.33282409866759033,150.50497995170906,343.06661635950286,120.00461270800146,0.0444333084090368,-0.02215489222433108,0.9389345604619126,0.34049483553286175
2023-10-24 10:38:27.902884,1698136707.902884,152.8455767274083,329.55500114700715,41.29686674979285,0.02896829025036146,-0.03283170912212373,0.9419758528133954,-0.3328128749801722,150.50080998871408,343.0649996441717,119.99831846883473,0.043914679562134906,-0.02234894382746472,0.9390121480767335,0.34033543951970496
2023-10-24 10:38:28.002908,1698136708.002908,152.81984958644676,329.4908268648383,41.297457907384356,0.029214887938238884,-0.03276194009829551,0.9417587213705939,-0.33341214183975953,150.4825143370549,343.0563286704221,120.00474947654926,0.044490680017064035,-0.022545870643874123,0.9389433675709659,0.3404373886679062
2023-10-24 10:38:28.102931,1698136708.102931,152.8107546702161,329.49274699557526,41.30883287657823,0.02918433971719303,-0.03275106269605484,0.9417641625516745,-0.333400516407659,150.4800785471822,343.0640389514205,120.01267674867589,0.044723027482729626,-0.022258469612895057,0.9389189259483942,0.3404932625459494
2023-10-24 10:38:28.202955,1698136708.202955,152.8249008612513,329.4924012054996,41.309294561263485,0.029228777962874708,-0.032718330592047984,0.9417595800831704,-0.333412781254164,150.4908339548451,343.0616573249795,120.00686569847541,0.0445169683522223,-0.022589875147998352,0.9389756800824932,0.3403419005693314
2023-10-24 10:38:28.302979,1698136708.302979,152.8169675001665,329.4943587097002,41.292461343246096,0.029146763260838537,-0.03282639441997322,0.9417471782888215,-0.3334443674825588,150.47584206760126,343.0598924727534,120.00676645301887,0.044537106412256236,-0.022123208853745337,0.9389480157100765,0.3404462271439455
2023-10-24 10:38:28.403002,1698136708.403002,152.81994512062784,329.4919650957826,41.298187011575166,0.029225043968003666,-0.03272930578528102,0.9417508561538638,-0.33343667207034466,150.47421366697372,343.05721293610986,119.99706080382488,0.0445064086160854,-0.022400060842163175,0.938996478198259,0.34029844371908596
2023-10-24 10:38:28.503026,1698136708.503026,152.84087322254925,329.55685732420545,41.304105470362195,0.02889617376733718,-0.03281639167875254,0.9419718550142344,-0.3328319695279236,150.47174733534362,343.0578153645862,120.0210795091176,0.04430574796553641,-0.022364882455854905,0.9390221031677898,0.3402562306443351
2023-10-24 10:38:28.603049,1698136708.603049,152.8401494062539,329.5663572701642,41.28488900997565,0.028983549435590065,-0.032927815452347416,0.9419690722524566,-0.33282124293905435,150.47442694581957,343.0616533109121,120.00716799389426,0.0447237531513075,-0.022196565449878438,0.9389455215670912,0.34042386214158576
2023-10-24 10:38:28.703073,1698136708.703073,152.83774799394848,329.5601956812303,41.28464502913471,0.02897925879696408,-0.0329887773177012,0.9419697540296149,-0.3328136499965839,150.47368091027008,343.05261610348435,120.00616403119605,0.04394738067337044,-0.02246140253979376,0.9390320105329405,0.34026900582092223
2023-10-24 10:38:28.803096,1698136708.803096,152.8387292661842,329.46539491683114,41.32064809586936,0.02921788565996859,-0.03232690200270525,0.9418194307861832,-0.3332828323782344,150.43023959585216,341.9645868859185,120.01550142309767,0.042868656507216635,-0.026743471272924296,0.9383548756124794,0.3419608054263369
2023-10-24 10:38:28.903120,1698136708.90312,152.85940450501042,329.5227894165686,41.2856184196787,0.028999663725799672,-0.032455109695159044,0.9420397291155368,-0.3326662503567081,150.4300376162899,341.9834473239553,119.99308648065454,0.042561941462469166,-0.026148389369156824,0.9384276276372531,0.3418454776056888
2023-10-24 10:38:29.003143,1698136709.003143,152.82788634825584,329.4613903588098,41.31098750760933,0.029217353133405254,-0.03233212147492168,0.9418245138150337,-0.33326800832645836,150.4249146867688,341.9965699247963,120.00253609685622,0.04287302119274846,-0.026369754043781436,0.9383621341366775,0.3419693631656741
2023-10-24 10:38:29.103167,1698136709.103167,152.8424149057138,329.46570316124587,41.311654842961545,0.029129847642676454,-0.03234494837139755,0.9418105746797405,-0.33331381266395677,150.44001643294183,342.00671916517985,120.01060127644061,0.04281409407727097,-0.02628155191059365,0.93838129487592,0.34193095619511393
2023-10-24 10:38:29.203190,1698136709.20319,152.86585398372415,329.5334739167085,41.30930976604469,0.028977093093200762,-0.03255755889398677,0.9420317419287653,-0.3326808239640345,150.42756708442585,342.0074947366479,120.01726064424027,0.0427645675553524,-0.02636741838078001,0.938376590098363,0.34194345463117914
2023-10-24 10:38:29.303214,1698136709.303214,152.85957184488154,329.5364406471465,41.29185791993598,0.029046717269738804,-0.03264023779919017,0.9420280623594078,-0.3326770698735397,150.54962601352193,342.0226385832673,119.99668114867222,0.04311466161128822,-0.02635799470659116,0.9382032078874607,0.3423757041305202
2023-10-24 10:38:29.403238,1698136709.403238,152.86534542798506,329.53053307092955,41.28249489224122,0.028869194013821545,-0.03256502748135258,0.9420270277779212,-0.33270282168630116,150.55309932520296,342.0251166680581,119.99688164136874,0.04320481901857812,-0.02597070584520278,0.9382388810757775,0.3422961701350849
2023-10-24 10:38:29.503261,1698136709.503261,152.86147978565367,329.5360565226672,41.27837631189523,0.02892060904768115,-0.03266928947653606,0.9420255961251782,-0.3326921882798155,150.54157590249486,342.01390024877406,119.99747318792278,0.04317241172462722,-0.026488456529076783,0.9382943028004174,0.3421086170631563
2023-10-24 10:38:29.603284,1698136709.603284,152.8602702736821,329.5278386031962,41.297640365952724,0.028938463065225066,-0.03249211517595939,0.9420425414683194,-0.3326600034129809,150.57413142084587,342.10857133300004,120.00743725370593,0.043354998220272584,-0.02589458649956125,0.9382958502093043,0.3421267484417665
2023-10-24 10:38:29.703308,1698136709.703308,152.86176515274823,329.5327627146212,41.31477652757515,0.02897658350722811,-0.03255005620684443,0.9420409706576508,-0.3326554689939291,150.54875137355853,342.0902923226995,120.02381976888292,0.043143066481674666,-0.025917866405981954,0.9382474817598725,0.34228438904918995
2023-10-24 10:38:29.803332,1698136709.803332,152.85233720345164,329.5635255579768,41.290659834233516,0.02886844897865101,-0.03278828407275486,0.9419509954618265,-0.3328961748497652,150.57365623572517,342.360911067452,120.01730527094706,0.047475924155220166,-0.023380788149611066,0.9373627728672843,0.34431149764953656
2023-10-24 10:38:29.903355,1698136709.903355,152.84215254787256,329.56449386154645,41.29775450403577,0.02883936640169107,-0.03278947446564166,0.9419729135848018,-0.3328365535550081,150.54072447028236,342.3347059165179,120.04196346837821,0.047740322468407724,-0.024280101844198175,0.9375328488427036,0.3437491754258215
2023-10-24 10:38:30.003378,1698136710.003378,152.83761162531934,329.56902458569715,41.291008473108676,0.029012646149946985,-0.032926660056045345,0.9419731679761024,-0.3328072298403347,150.5742982804682,342.48053859146,120.0479667973281,0.04590164744050201,-0.025079685659610978,0.937774221839858,0.34328349360566646
