aschuessler/rrl_ml_kinematic_modeling_origami_joint/ml_kinematics/experiments/trajectory_tracking/231024_trajectory_tracking_circle_20_degrees_1_vicon_raw.csv
datetime,timestamp,Spherical_Joint_Base_Trans_0,Spherical_Joint_Base_Trans_1,Spherical_Joint_Base_Trans_2,Spherical_Joint_Base_Ori_0,Spherical_Joint_Base_Ori_1,Spherical_Joint_Base_Ori_2,Spherical_Joint_Base_Ori_3,Spherical_Joint_Top_Trans_0,Spherical_Joint_Top_Trans_1,Spherical_Joint_Top_Trans_2,Spherical_Joint_Top_Ori_0,Spherical_Joint_Top_Ori_1,Spherical_Joint_Top_Ori_2,Spherical_Joint_Top_Ori_3
2023-10-24 10:43:30.757254,1698137010.757254,152.85956955695255,329.48905190261274,41.345816770082266,0.03020154808003703,-0.030703393595524136,0.9419796858143717,-0.33289553861285853,150.28528566217616,342.8211908342728,119.72539427083812,0.04227417873031618,-0.023769113174171495,0.9375064651882443,0.3445715467095826
2023-10-24 10:43:30.857278,1698137010.857278,152.85539977927127,329.4889918663608,41.331548366304304,0.03011829125146047,-0.03053404076542366,0.9419683458041483,-0.33295074168655064,150.26453602300708,342.8383284614232,119.71777919544715,0.04251748693303803,-0.023672912484193762,0.9375784119950851,0.3443524036219137
2023-10-24 10:43:30.957301,1698137010.957301,152.86104425175037,329.5009531347543,41.374388471634724,0.030112448185561167,-0.030421485962624218,0.9419706685852359,-0.33295500173624293,150.27842822249698,342.8702934470073,119.72001562855775,0.043885992099428395,-0.02242571619359287,0.9375108847021728,0.3444480338390724
2023-10-24 10:43:31.057325,1698137011.057325,152.85897566265203,329.49309013537584,41.35712354985411,0.029970107784222447,-0.03018693616435098,0.9419746586698531,-0.3329779030930213,150.17573043091696,342.6032092024782,119.78619269275896,0.043079966018677245,-0.024830229859600834,0.9379621825141402,0.34315378532993046
2023-10-24 10:43:31.157348,1698137011.157348,152.85007860111173,329.5706555138226,41.08272318708358,0.028518596171332275,-0.0322658818813781,0.9419806120036263,-0.3328935703015412,150.1999380062447,342.6094935273892,119.7461023785227,0.041844493556192984,-0.02475948811033902,0.9376426736967531,0.3441834141418555
2023-10-24 10:43:31.257371,1698137011.257371,152.86087628912543,329.48716685230323,41.35763975547342,0.029992709213764304,-0.030199803016304826,0.9419551864656045,-0.3330297824254507,150.20350412857763,342.60997084145316,119.7557288376245,0.041809113656153425,-0.024897530457096778,0.937719511374313,0.3439683546205154
2023-10-24 10:43:31.357395,1698137011.357395,152.85564350941362,329.4887559131297,41.3606997178739,0.029927690142755717,-0.03012902800527935,0.9419547859372365,-0.3330431748048762,150.19994934248376,342.63401044080825,119.76259383512546,0.041919367430802185,-0.025301983910981672,0.9378484368807781,0.34357369760307754
2023-10-24 10:43:31.457419,1698137011.457419,152.84876874939545,329.4857136306127,41.34046623328864,0.029895258829553958,-0.030114481398774595,0.9419514604459468,-0.33305680847769026,150.16635311447556,342.6164743406928,119.76554015433068,0.04297469215391823,-0.024872121774456333,0.9378454365481167,0.3434828824535294
2023-10-24 10:43:31.557442,1698137011.557442,152.8609629202546,329.4929181205037,41.372648802775686,0.029903343382718498,-0.03004389497295835,0.9419628922395842,-0.33303012487315126,150.19564060575883,342.63608761573516,119.76561235044585,0.04169140396334638,-0.024973376824595946,0.9379210996418743,0.34342709289180884
2023-10-24 10:43:31.657466,1698137011.657466,152.85595182845918,329.49346833680784,41.36390417861826,0.029911561938174586,-0.030096895187989033,0.9419547268555001,-0.3330476961593374,150.16482089948073,342.63386373586326,119.79267756300364,0.04327636716074825,-0.0249570730068056,0.9379900216958375,0.34304375777930085
2023-10-24 10:43:31.757489,1698137011.757489,152.85841667115432,329.575722805474,41.08501861754521,0.028478751366546293,-0.032140197104276826,0.9419786987283579,-0.3329145529902985,150.16473137443097,342.63393434449216,119.77944573748658,0.04301279198079548,-0.024952975975411174,0.9379887261318295,0.34308074613066725
2023-10-24 10:43:31.857512,1698137011.857512,152.85345329153674,329.5011470332606,41.36882163041146,0.029922908713941983,-0.030210403319463366,0.9419579539546153,-0.3330272722270766,150.18256141342687,342.65294093211264,119.7722268128144,0.04164927240917036,-0.024734757773016022,0.9378669297421975,0.34359736896786763
2023-10-24 10:43:31.957536,1698137011.957536,152.8595491402537,329.57546545359247,41.0891084681743,0.028397927282191603,-0.03215932007968068,0.9419704392414796,-0.33294297928219185,150.16534661864415,342.6414494354963,119.78792998937527,0.04291690401332156,-0.02476486299812298,0.9379696109836699,0.34315863646677836
2023-10-24 10:43:32.057560,1698137012.05756,152.86077483400513,329.5685544264787,41.09647462900526,0.02831222753204806,-0.03201346190933496,0.9419766068178124,-0.33294688500833547,150.14387479446015,342.561255978861,119.80599537821848,0.04343028573066132,-0.025159877685574664,0.938133195523463,0.3426177145057391
2023-10-24 10:43:32.157583,1698137012.157583,152.85795024841718,329.4956305714569,41.3759944194566,0.029861337127073357,-0.029912085521123604,0.9419707591340721,-0.33302350761040905,150.15195474320757,342.5646481116342,119.81829512138539,0.04335848694693722,-0.025417301626005428,0.9381032691246278,0.3426897413775485
2023-10-24 10:43:32.257607,1698137012.257607,152.84671180434455,329.49890355737995,41.38478985296438,0.02992191772545178,-0.03006501293960844,0.9419716613056197,-0.3330017464424226,150.14351394792808,342.5653077517131,119.81924236837858,0.04335079841528897,-0.02509914776279779,0.9381320107915223,0.34263547887892976
2023-10-24 10:43:32.357630,1698137012.35763,152.8540529997401,329.49511587964605,41.35275689945047,0.029809866904626267,-0.029944549841254983,0.9419577158890412,-0.33306209217957156,150.15198870473478,342.57052358948073,119.79584459375795,0.042945713650552456,-0.025332227091182366,0.938084483702567,0.3427994244250331
2023-10-24 10:43:32.457653,1698137012.457653,152.85690527028987,329.57076279483294,41.10789748711877,0.02831189628193136,-0.03195783116681266,0.9419792946445905,-0.3329446530835336,150.14791329859614,342.5789100694177,119.8158436511328,0.04330621284120253,-0.02503514304556504,0.9380082039827854,0.34298458099895673
2023-10-24 10:43:32.557677,1698137012.557677,152.8599215157698,329.56970956225405,41.10038037165663,0.028287610739136073,-0.031952019982927696,0.9419770428761668,-0.33295364571056113,150.14998791621707,342.5737809082451,119.81348067373992,0.04305172102132666,-0.025253127351943083,0.9381372699275137,0.34264747430704917
2023-10-24 10:43:32.657701,1698137012.657701,152.85926989823335,329.56942731947254,41.10694591340969,0.028321726901536528,-0.03194923607666488,0.9419803724366823,-0.3329415925406163,150.16634649698221,342.53437814084515,119.84091371469795,0.04458613083895511,-0.024779070395098957,0.9382911714844157,0.34206395910935905
2023-10-24 10:43:32.757724,1698137012.757724,152.84293062370318,329.4972535198019,41.3853414406391,0.029837077576308157,-0.029875126865603917,0.9419811060154281,-0.3329997319915143,150.1435885400647,342.5896204293484,119.81941102043447,0.043161331430808636,-0.024766128901216794,0.9381010788325366,0.34276829523980096
2023-10-24 10:43:32.857748,1698137012.857748,152.85031878233707,329.57889252223663,41.09371777624134,0.028348616577408756,-0.03205911076370333,0.9419807665198339,-0.332927627063141,150.14352468543044,342.5893282667598,119.80029578412352,0.04311679278422963,-0.025163667587741835,0.9380688639531928,0.34283310589133875
2023-10-24 10:43:32.957771,1698137012.957771,152.83690715671003,329.5036637344862,41.377098665997536,0.029867833056707718,-0.029971778238500415,0.9419794070290649,-0.3329930957105419,150.13553284995731,342.5933209184724,119.81833969236571,0.04337168142888491,-0.025019922075869158,0.9381244986952139,0.3426591975960991
2023-10-24 10:43:33.057795,1698137013.057795,152.86111391381394,329.4946846214478,41.363469075395365,0.029732294267301913,-0.029819839688796406,0.941973769842836,-0.33303481014244285,150.14643410010783,342.42919847288846,119.84641318577695,0.0445445680992124,-0.025234930301981463,0.9386457229173215,0.3410618515673188
2023-10-24 10:43:33.157818,1698137013.157818,152.8610706438871,329.49312979423814,41.37978495295297,0.029822499404661154,-0.02989505671466703,0.941961354298602,-0.33305511724222114,150.1468631602692,342.4299029756908,119.85253929963379,0.04453585217951042,-0.024882018296625296,0.9386666010128397,0.3410314577559285
2023-10-24 10:43:33.257842,1698137013.257842,152.85846658955484,329.4967290474178,41.38157156047696,0.029844599338226953,-0.029914410459114308,0.9419726401686549,-0.33301947857583075,150.14794819834913,342.43788476743356,119.86055400354573,0.044564779633796195,-0.025074386335322576,0.9386318520034336,0.3411092229340957
2023-10-24 10:43:33.357865,1698137013.357865,152.8538460049718,329.49366791491724,41.36784973777234,0.02982085989356195,-0.029846750340155857,0.9419685078113089,-0.33303936419149777,150.13830338638044,342.42763471183787,119.84888300715747,0.044409108756807904,-0.02495662681076714,0.9386954019395187,0.3409632534676717
2023-10-24 10:43:33.457888,1698137013.457888,152.84953000688165,329.49753651971054,41.371253483365685,0.029818903275624892,-0.029873054209041582,0.9419658748301725,-0.33304462808322033,150.14471165470547,342.44108932695775,119.85023484078498,0.04434784108851886,-0.025092884940223475,0.9386739136390633,0.3410203805781828
2023-10-24 10:43:33.557912,1698137013.557912,152.85773383888088,329.49623450976065,41.358752453505595,0.029791543604862407,-0.02973485606504548,0.9419741023962478,-0.33303617322929646,150.1474063872611,342.44193141459476,119.83234372062508,0.04452138008022031,-0.024981385730428296,0.9386316256629996,0.34112233639557343
2023-10-24 10:43:33.657935,1698137013.657935,152.84679030412101,329.5011507649862,41.395584964916004,0.029886910653564656,-0.02988122763029742,0.9419644304196658,-0.33304188419934044,150.13940943616035,342.4452671695248,119.86859185736874,0.04472342381465159,-0.025038613729494622,0.938618827052707,0.3411269275313819
2023-10-24 10:43:33.757959,1698137013.757959,152.85059222921296,329.49535961035986,41.360074968535145,0.02985158379956606,-0.029991631382666698,0.9419587981859789,-0.33305105841550786,150.13847777343454,342.44192782268556,119.84225796340455,0.04464459703869054,-0.02518749506691899,0.9386401087986631,0.34106772964022997
2023-10-24 10:43:33.857983,1698137013.857983,152.84770831894727,329.49372467709003,41.373874701692586,0.029809367290870404,-0.029860418983773257,0.9419605883128185,-0.33306156647863244,150.13662644547003,342.4367285339949,119.8585342143288,0.04454055324089996,-0.024951821432307578,0.9386210493578694,0.34115109764814916
2023-10-24 10:43:33.958006,1698137013.958006,152.8589394174281,329.57099035550897,41.10507964559714,0.028294074599528322,-0.031817685305899124,0.9419722511460501,-0.3329795163597514,150.14490064811113,342.4444948589904,119.85252638394572,0.044443695198603014,-0.02501840994385992,0.9386912335769043,0.3409656949413596
2023-10-24 10:43:34.058030,1698137014.05803,152.85227992203505,329.5712193827733,41.08226986773201,0.028223672763120364,-0.03197712306180794,0.9419782661261153,-0.3329532009794888,150.14060744995174,342.44196410836577,119.84013798746368,0.04452161138298656,-0.02474632146851118,0.9386714263605396,0.3410299092864287
2023-10-24 10:43:34.158053,1698137014.158053,152.8502718647671,329.4960754657926,41.37270098378916,0.029797771447711906,-0.029858865192582264,0.9419721063631705,-0.3330301665313413,150.1435521241165,342.4456952332667,119.84663077339384,0.04453058613061005,-0.025163477351982027,0.9386282854931284,0.341116941793648
2023-10-24 10:43:34.258077,1698137014.258077,152.8507185092246,329.4967922201022,41.368812628935515,0.02978090924348707,-0.0298398483012828,0.9419707240101669,-0.33303728921210873,150.1420485984881,342.4442275923824,119.85022258693158,0.0444239437321782,-0.025092518757722865,0.9386159018315193,0.3411701445828423
2023-10-24 10:43:34.358100,1698137014.3581,152.85273854531675,329.5724768406858,41.097799469184686,0.02826239165942817,-0.03185469607657462,0.9419738629049053,-0.33297410884266826,150.13883688590286,342.44958528036705,119.8476195260239,0.04456131251646288,-0.02503362415492862,0.9386459328368949,0.3410739213971591
2023-10-24 10:43:34.458124,1698137014.458124,152.85106939720728,329.49930654562314,41.37466371751593,0.02983552661980145,-0.02986963358257732,0.941970345021254,-0.333030802541599,150.14100668237413,342.44972434329105,119.84954557591563,0.04453992048611413,-0.025011751174447847,0.9386104861015631,0.34117585372717374
2023-10-24 10:43:34.558147,1698137014.558147,152.86112244935086,329.5732380272142,41.11134422164733,0.02820410791955143,-0.03183318309824069,0.9419765510925373,-0.3329735033634129,150.14649514572224,342.45323169694444,119.8649513977939,0.04472774057805766,-0.025124227783989133,0.9386427103608875,0.3410543427188801
2023-10-24 10:43:34.658170,1698137014.65817,152.8528136116053,329.5006469059344,41.359535308702306,0.029759520326387876,-0.029814183442645137,0.9419724085902137,-0.33303673501633885,150.13957764868246,342.4524437207118,119.84842176066348,0.044563177047742056,-0.024891694130184692,0.9386169598162989,0.34116378699966016
2023-10-24 10:43:34.758194,1698137014.758194,152.84925161827877,329.50327014398636,41.38404307203048,0.029826185301299765,-0.02980749768787246,0.9419779875848312,-0.33301558921106345,150.13793061886102,342.4473113749224,119.85802225548727,0.04456891022585863,-0.024873072622612735,0.9386377217814709,0.3411072701489662
2023-10-24 10:43:34.858218,1698137014.858218,152.85252886416592,329.5054201192938,41.3702603390476,0.029830614258648587,-0.029903088000884977,0.9419634911162221,-0.3330476260013002,150.1420931614089,342.457462493014,119.85113811861606,0.04463156687845575,-0.02503519143870683,0.9386280926189381,0.3411137144327907
2023-10-24 10:43:34.958241,1698137014.958241,152.8493654375413,329.4971847669604,41.373299503872744,0.029826592842680456,-0.029792545135483732,0.9419665278322107,-0.33304930424409585,150.1318752776717,342.4496375501363,119.84492245187131,0.04457781176919245,-0.02504968203604019,0.9386344899852238,0.34110207612669646
2023-10-24 10:43:35.058264,1698137015.058264,152.8467860700288,329.5029924083063,41.38368666248768,0.0298583317059561,-0.029853738807087925,0.9419769206721372,-0.3330115842249535,150.1382388805832,342.45143890685245,119.85612958491285,0.044604937064442275,-0.02531874104447629,0.938631840848106,0.34108595439785505
2023-10-24 10:43:35.158288,1698137015.158288,152.85201337155868,329.4990474596061,41.369880733550495,0.029818903514149644,-0.02988860872623459,0.9419643630602439,-0.333047508301943,150.15918283246225,342.42896178556254,119.8814760727619,0.0446520185684661,-0.02604777954834817,0.938563717078558,0.3412123377048999
2023-10-24 10:43:35.258311,1698137015.258311,152.85121018287865,329.5000292398552,41.37137418764778,0.029815151932092072,-0.02985036433090925,0.9419659891955533,-0.3330466749022142,150.13242949784353,342.45504278147257,119.8525842424169,0.044353204634228885,-0.024826531832365745,0.9386669342389082,0.3410583866765043
2023-10-24 10:43:35.358335,1698137015.358335,152.85091067133075,329.50059862526746,41.36829045222087,0.029812182633956415,-0.029879480114357784,0.9419682520852769,-0.3330379295187015,150.1389397462024,342.45954256123537,119.84681022027374,0.04468000223186559,-0.024834442796662998,0.9385534583090636,0.3413273410490826
2023-10-24 10:43:35.458359,1698137015.458359,152.84828053064825,329.49353810406177,41.370538289938075,0.029796037489077352,-0.02977451778444579,0.9419700333864126,-0.33304373653118613,150.13752550014283,342.4559249403882,119.84442504236455,0.044291316409775815,-0.024849076469329073,0.9386400249786123,0.34113883712861043
2023-10-24 10:43:35.558382,1698137015.558382,152.85068765104532,329.5748129851392,41.103050857437076,0.02830987110848775,-0.031898627545948514,0.94198086953302,-0.3329460469690571,150.13750277970874,342.4589047037801,119.85069140629659,0.04446795004048716,-0.025279488612306812,0.9386314739638942,0.3411077615051649
2023-10-24 10:43:35.658406,1698137015.658406,152.85152050211403,329.5008147118627,41.37202746286913,0.029797276070721024,-0.029894263255224054,0.9419628353038748,-0.3330532574070966,150.15687059893102,342.4450871659951,119.88043966806111,0.04470068098831364,-0.02618442222499225,0.9385260907433692,0.3412989923013154
2023-10-24 10:43:35.758429,1698137015.758429,152.84812112890347,329.4990222740087,41.381865115165326,0.0298016650302309,-0.02979837572123866,0.9419778528984508,-0.33301898176324196,150.14537664059299,342.47039745538984,119.85571474442054,0.04424477355406827,-0.024906614128079107,0.9386400289318518,0.3411406699187838
2023-10-24 10:43:35.858453,1698137015.858453,152.85015765288037,329.50471906981886,41.388222367456045,0.02981193864796087,-0.02985654721957277,0.9419666455818487,-0.3330445518447277,150.17331781558303,342.557413981634,119.85389605150645,0.04465667747045459,-0.024524040072635363,0.9385556214553566,0.34134688815099085
2023-10-24 10:43:35.958476,1698137015.958476,152.8558904893178,329.5822032466065,41.08923544319682,0.028343282127793287,-0.032043600808623285,0.9419902411065871,-0.33290276608252417,150.17781096588675,342.66699738802765,119.80096878081899,0.042979069348585815,-0.024565670837404345,0.9385518949040097,0.34156941898584914
2023-10-24 10:43:36.058500,1698137016.0585,152.85545286896868,329.58519125761535,41.115535258350086,0.02844136106819984,-0.03194009254393986,0.9419952617024208,-0.33289014163693814,150.17783688129012,342.66704754685213,119.81344435112845,0.043057496925944766,-0.02478919899867114,0.9384981361990734,0.3416910825911938
2023-10-24 10:43:36.158523,1698137016.158523,152.87112785709155,329.63521524259045,41.180286580346824,0.028763306778487496,-0.03136954657300909,0.9420400938748467,-0.3327898515027774,150.1771858090169,342.66997115268816,119.80963021771564,0.042910307925740486,-0.024550155617699194,0.9385226779369741,0.34165944788762354
2023-10-24 10:43:36.258547,1698137016.258547,152.85844250358699,329.52084924726995,41.3781943764338,0.02992822075986595,-0.0301685733779839,0.9419644006303379,-0.33301235221477005,150.17823295909017,342.66688996806465,119.80970975510806,0.042922909890299454,-0.02452451405586885,0.9384724204682814,0.34179772971346367
2023-10-24 10:43:36.358570,1698137016.35857,152.89373543049166,329.58606453721205,41.02896827761783,0.02785903413479872,-0.032534957405812075,0.9418907364836565,-0.33317741713680626,150.17465155215606,342.6692353755546,119.8170861905552,0.042925016157252645,-0.024505837766846204,0.9384894250608715,0.34175211184740256
2023-10-24 10:43:36.458594,1698137016.458594,152.90247019666714,329.580814195876,41.024738975302014,0.02784594119170488,-0.0323819499358933,0.9418868073839279,-0.3332045242093946,150.17487871341058,342.67015235514594,119.81422410152159,0.04302746283908214,-0.024579396391487974,0.9384996554266295,0.3417058493481774
2023-10-24 10:43:36.558617,1698137016.558617,152.86256088367432,329.5123545131638,41.35498015772387,0.02988671337607014,-0.030108100405613247,0.9419582003233462,-0.33303909004371374,150.17276591751084,342.6665469856104,119.80424049089153,0.04309808682294929,-0.024473562927552345,0.9385369623842318,0.34160206361849144
2023-10-24 10:43:36.658641,1698137016.658641,152.87438297503763,329.5072242354191,41.36048095771129,0.029770476274253888,-0.03000641980320119,0.9419491583665537,-0.3330842484500571,150.18538707958498,342.6692382060525,119.81819390036954,0.04296750404028884,-0.024577820361095275,0.9385026995846216,0.3417051466033591
2023-10-24 10:43:36.758664,1698137016.758664,152.8700094440128,329.5170143447941,41.36825158626041,0.02983049209674083,-0.03015606844712639,0.9419528544244677,-0.3330549103656576,150.18284932840123,342.67521348549826,119.81690681126433,0.04288295533525064,-0.02471954071529474,0.93851147588254,0.34168143948028024
2023-10-24 10:43:36.858688,1698137016.858688,152.86008811118438,329.5356582877741,41.45987168673334,0.030352456409052864,-0.029303448424277775,0.9420519828206393,-0.33280339235663464,150.19683627967282,342.66701223716547,119.81552604518646,0.04286907398919065,-0.02447514639526008,0.9385293493651777,0.34165167946962605
2023-10-24 10:43:36.958711,1698137016.958711,152.8565224010397,329.5381228434676,41.4602744112119,0.030300137197565892,-0.029281550869668056,0.9420562178221337,-0.3327980993442308,150.19336822539344,342.6737765294321,119.81956818262292,0.04295191003763628,-0.024699887286019236,0.9385339345213239,0.3416125037876981
2023-10-24 10:43:37.058735,1698137017.058735,152.8401821746688,329.52980893378634,41.44175414109679,0.0303401519187998,-0.029310692498268644,0.9420624355073767,-0.33277428700656236,150.18073870918445,342.6678645494839,119.79950733009062,0.04278442095219146,-0.02470003930299011,0.9385229644538355,0.34166364538095223
2023-10-24 10:43:37.158758,1698137017.158758,152.84444768606815,329.6032061571026,41.19838996937391,0.028831697978733008,-0.03124947291656271,0.9420853566569695,-0.33266707743119234,150.1870719952894,342.6717168955446,119.80620816323099,0.043000769258795916,-0.024558101090125885,0.9385479130643227,0.34157817318529515
2023-10-24 10:43:37.258782,1698137017.258782,152.85304216944925,329.58864947116786,41.175723690469844,0.02869505179821272,-0.03130561429224465,0.9420573522577286,-0.33275290768562965,150.1865475297926,342.66974828956637,119.80756551995768,0.04282596760375625,-0.024527690947150876,0.9384900890802936,0.3417611469632931
2023-10-24 10:43:37.358805,1698137017.358805,152.8513026893918,329.58645432266826,41.1331499717947,0.028514659293155022,-0.031537063509815305,0.9420404605732736,-0.3327943786686724,150.18159626438333,342.66952615310424,119.79660807983532,0.04290809356054,-0.02423241551405008,0.9385225477731566,0.34168276641753176
2023-10-24 10:43:37.458829,1698137017.458829,152.88259922112385,329.47273084641944,41.36704528202996,0.0300845400053683,-0.029751221065751333,0.9420848732063261,-0.33269487067519204,150.8131235412632,342.0291453649262,119.81558913636677,0.044157212774846646,-0.024451613373481434,0.9389286658372951,0.3403898054178293
2023-10-24 10:43:37.558852,1698137017.558852,152.87201653603867,329.53915329730097,41.1017878527761,0.02867202326804443,-0.031954952867402006,0.9421092711794861,-0.33254611293265257,150.76183020578904,341.98596288413086,119.8166753449392,0.043890966534798924,-0.024731872193173302,0.9388582994846321,0.34059801972895676
2023-10-24 10:43:37.658876,1698137017.658876,152.886667962079,329.53089215612164,41.08329659398317,0.02857055784940061,-0.032146576866445516,0.942068753263556,-0.33265114601394813,150.7849730621263,341.98837432225514,119.81398371856585,0.04393165343306818,-0.024847903492223287,0.9389333412910918,0.3403773966211976
2023-10-24 10:43:37.758899,1698137017.758899,152.89753609068043,329.54554700200976,41.07087783469175,0.028486099505526562,-0.032082683276498714,0.9420190717714969,-0.33280521628650667,150.70982131846068,342.1071496476459,119.81984327076051,0.04565567415446289,-0.025532489157961656,0.9376879846323513,0.34351840546180284
2023-10-24 10:43:37.858923,1698137017.858923,152.8932906155825,329.4762474784728,41.34893882704629,0.030071576872777884,-0.030155944513036718,0.9419974296731779,-0.33290713684755635,150.72140280857732,342.109924090569,119.82231405111735,0.045638055495244384,-0.0250310915240023,0.9377634108988832,0.3433517111170739
2023-10-24 10:43:37.958946,1698137017.958946,152.8786928073917,329.4711517650835,41.34828361209246,0.03001444547090621,-0.030029527307546933,0.9419889513567462,-0.3329477077178592,150.69289353690144,342.1077747788617,119.82263996010204,0.04561029914389499,-0.02535945566550358,0.9377254965482519,0.34343484352011855
2023-10-24 10:43:38.058970,1698137018.05897,152.87575833238046,329.4505748717663,41.348810466720494,0.03004599760387962,-0.02997368008050721,0.942062089284023,-0.33274289844298777,150.7698405844979,342.02472647279086,119.77891549568518,0.042077357137369174,-0.025027914034324826,0.9385270569425984,0.3417163486315652
2023-10-24 10:43:38.158993,1698137018.158993,152.86743143515739,329.54164244238825,41.083766065982104,0.028540643937011438,-0.03204640533511139,0.9420079817807867,-0.33283542751643425,150.68085856584557,342.05393339490945,119.88059520477677,0.04729232176523984,-0.02580831940546643,0.9382363251847845,0.34177472852051227
2023-10-24 10:43:38.259017,1698137018.259017,152.8734438379616,329.46787526591385,41.343875617158055,0.030075823086653387,-0.02998289445454277,0.9420079245248039,-0.3328926869702301,150.5809782849716,342.0618014003262,119.83944122779523,0.04581530392102816,-0.02633822433319907,0.9379370612218492,0.3427554887264669
2023-10-24 10:43:38.359040,1698137018.35904,152.89284454346267,329.45520722424055,41.346827072768384,0.030123674477614538,-0.030119730457922555,0.9420625548609399,-0.33272136811750946,150.72429902965806,342.01229323872366,119.76703273289914,0.04186910489679827,-0.02547121061840746,0.9386317804220426,0.3414214056946634
2023-10-24 10:43:38.459064,1698137018.459064,152.89948268596737,329.44582970901524,41.349668890466404,0.030029318256982337,-0.02984429989543973,0.9420703184406675,-0.3327327349718863,150.68678255444618,342.00227056795245,119.79058251582217,0.04229262532168444,-0.027140320382162707,0.9388053257701577,0.3407628165726733
2023-10-24 10:43:38.559087,1698137018.559087,152.89597600653215,329.53872404063634,41.07709927489574,0.02852052895865427,-0.03232395333313915,0.9420621389744885,-0.33265698215977246,150.76379088784228,342.1496133436678,119.80501022308334,0.04379157949993471,-0.023831779347431883,0.9388703867408323,0.3406416603399475
2023-10-24 10:43:38.659111,1698137018.659111,152.86179637405613,329.47661173079746,41.34095003347458,0.030005870374092233,-0.030056609391233804,0.941997972948233,-0.3329205114384155,150.65920533682254,342.2246362143021,119.84283352092693,0.046667086009429044,-0.024450763903552115,0.9380661144428871,0.34242708444564607
2023-10-24 10:43:38.759134,1698137018.759134,152.88322601202756,329.38610496773765,41.33977607759418,0.030260069371539983,-0.028755805746942434,0.9421019087686547,-0.33271823714959037,150.67254681210565,342.14428416138605,119.76600549217082,0.041609418884540526,-0.025891440946721835,0.9396122328323376,0.3387139522630006
2023-10-24 10:43:38.859158,1698137018.859158,152.8938705978672,329.5462848098148,41.096293541165565,0.028574588892602226,-0.0321772024793594,0.9420772769644014,-0.33262369840039924,150.73718516002054,342.1613824427944,119.8357776791748,0.04439184464619159,-0.025533179750041112,0.9390289756580777,0.3400029466567925
2023-10-24 10:43:38.959181,1698137018.959181,152.89399604529297,329.5370000989776,41.07604023878771,0.02848443611425362,-0.032075809911335226,0.9420698008869233,-0.33266239579287843,150.736997917692,342.1666738656502,119.8291663447072,0.04418166233162744,-0.025576370137785708,0.9390068277501782,0.3400882347902325
2023-10-24 10:43:39.059205,1698137019.059205,152.88089374032182,329.54384236663844,41.07425747939882,0.02860943242458657,-0.03222289544890793,0.9420817758593323,-0.3326035372315794,150.74230151395975,342.1665115188581,119.79372468338076,0.043855493527111246,-0.024068438640987073,0.9388743788529894,0.3406057936710587
2023-10-24 10:43:39.159229,1698137019.159229,152.88264260810953,329.54090708652916,41.07882682004826,0.028548468074621733,-0.032074591808472226,0.9420815627868958,-0.3326237132074508,150.7509088801994,342.1982203557283,119.79209949230452,0.04378961250211452,-0.023641080482305326,0.9387871197010285,0.34088460369161705
2023-10-24 10:43:39.259252,1698137019.259252,152.8785607140568,329.4655176077935,41.366112086584785,0.03011844509693491,-0.030090465585249835,0.9420694623208641,-0.3327049312954108,150.74056687239047,342.19880328809904,119.83539394432408,0.0441928596446204,-0.025117096905875262,0.9389437384647553,0.3402951345483521
2023-10-24 10:43:39.359275,1698137019.359275,152.88975233856033,329.53810736856116,41.07740889257567,0.028532546174143227,-0.03212664700929231,0.9420830654589086,-0.3326157995891151,150.74124785793245,342.1965431558402,119.81446776936706,0.04428107286239866,-0.024973398082727902,0.9389204237674572,0.3403585665246217
2023-10-24 10:43:39.459299,1698137019.459299,152.888056542567,329.53742296083595,41.06856570425499,0.028530089268614757,-0.03216243740584135,0.9420792240678987,-0.33262343153492113,150.7472095983312,342.20977042705755,119.81540200155763,0.044461062238985355,-0.02503429107927055,0.9388772300933047,0.3404497687281681
2023-10-24 10:43:39.559322,1698137019.559322,152.87296715429295,329.5591207251618,41.085812222899,0.028398332601396816,-0.03206289942470326,0.9420129814475098,-0.3328318614110064,150.68830309471653,342.15042676117895,119.80659075526424,0.04601296776095578,-0.024992236952447296,0.9385955716922644,0.3410227964368562
2023-10-24 10:43:39.659346,1698137019.659346,152.83078013776563,329.48629303448854,41.391747815856036,0.02969191053906868,-0.029530839973843294,0.9419098064114275,-0.3332450097525338,150.2165260415729,341.16413506770755,119.84961849270015,0.05131433066783378,-0.02980637416071582,0.9411672289759999,0.3326900458822617
2023-10-24 10:43:39.759369,1698137019.759369,152.83415899840656,329.5659024947795,41.166078486459455,0.02813931828866705,-0.031138460470265947,0.9419622180895584,-0.33308520642260603,150.82723951204787,341.1035653627794,119.72961678444037,0.04712049560013293,-0.029883596587753063,0.9433601062585064,0.3270448584969925
2023-10-24 10:43:39.859393,1698137019.859393,152.86976357687232,329.5555675526928,41.40550924511416,0.029801462773621036,-0.030801550981195035,0.9419742598485507,-0.332937878674807,150.85902082459918,342.3763905103261,119.82407581329521,0.04512222996841342,-0.024114218157358015,0.9411871390643651,0.3339899071905804
2023-10-24 10:43:39.959417,1698137019.959417,152.85326882744357,329.51302595267214,41.38527404558179,0.02990681417525009,-0.03003154993506944,0.9419660986780399,-0.3330218572641406,150.1474147192603,343.17215716571445,119.73088569735893,0.0442097959830473,-0.020334907984133524,0.9383071929219847,0.34236179279715134
2023-10-24 10:43:40.059440,1698137020.05944,152.8359890274798,329.43649735901033,41.37222417112927,0.02996569613501501,-0.029888084521365745,0.9418614376328751,-0.3333253542095493,146.00630276645728,340.23442233488146,119.48990093694577,0.022034303808716297,-0.04701921489658479,0.9354067384473082,0.3497397840588675
2023-10-24 10:43:40.159463,1698137020.159463,152.83506099960496,329.42540010934454,41.374456351498964,0.03008417403205979,-0.03009223373123968,0.9418204538037341,-0.3334121064670591,144.48019381663175,339.69858348116617,119.4304201866329,0.016986386517427968,-0.053336430140051266,0.9340930086563383,0.35261443401021736
2023-10-24 10:43:40.259487,1698137020.259487,152.83217472589376,329.3765985318077,41.30074073175931,0.030702942698314563,-0.030846039112838477,0.9418103081856195,-0.3333154580514108,143.09324559814874,337.69051632139383,119.33581238239017,0.009833801523885417,-0.0669473453784988,0.9328487471972461,0.353856700016955
2023-10-24 10:43:40.359511,1698137020.359511,152.78469025552445,329.46212292458716,41.24303827274445,0.030825728419707595,-0.03214085431722547,0.941567591769853,-0.33386705449905174,142.3162333885145,335.1247787540963,119.18668207113859,0.008665727423949962,-0.08202931613681677,0.9342448139113105,0.3469621364675988
2023-10-24 10:43:40.459534,1698137020.459534,152.84376569265385,329.3717644332723,41.16514124489527,0.030600733642825527,-0.03186194716479777,0.9418068578880191,-0.333239034115881,135.65953054658593,328.2957688733312,117.47012651585112,-0.013557623436755442,-0.1332331384377388,0.9276487546948243,0.34861570472644954
2023-10-24 10:43:40.559557,1698137020.559557,152.86778776199964,329.45673720905137,41.154022068096474,0.03022813247541509,-0.03367701653771101,0.9417777073330049,-0.33317693277710037,133.91279759790467,326.0960999892145,116.75371409973606,-0.018910362878872627,-0.146567374108699,0.9275903635377517,0.3431275571774609
2023-10-24 10:43:40.659581,1698137020.659581,152.85952615185425,329.4329320590535,41.13783110067763,0.030426964847902117,-0.03279091398179993,0.9417680689356868,-0.3332744516213782,131.56704552174088,324.4426719241433,116.216514381298,-0.02545381968599293,-0.1632250192104557,0.9249852456016772,0.34221629357227334
2023-10-24 10:43:40.759605,1698137020.759605,152.86281409452664,329.43241129108566,41.14117423917261,0.03047630653577873,-0.03281415238670053,0.9417476273167904,-0.3333254154520403,131.5397602476237,324.4958034543538,116.18782919759894,-0.027509771809678788,-0.16520457315489426,0.924814856267704,0.34156718678795034
2023-10-24 10:43:40.859628,1698137020.859628,152.8609998851568,329.4298247498518,41.13799290708803,0.030505172803431128,-0.03283169765243471,0.9417690146141655,-0.33326061449585626,131.25102352679644,324.58767740466,116.25748456672615,-0.026240248264010925,-0.16182567141350496,0.926364807245912,0.3390754272117869
2023-10-24 10:43:40.959652,1698137020.959652,152.86288265679184,329.43644533460605,41.153686716983735,0.03048407666748953,-0.03293906892900852,0.9417576104582522,-0.3332841759696723,131.2321024565844,324.5808105709096,116.26152500437172,-0.026117659648762524,-0.16197514101821062,0.9263225735477701,0.33912890068886536
2023-10-24 10:43:41.059675,1698137021.059675,152.85700816103352,329.37872490166944,41.13938147028459,0.0306853155354812,-0.032038663098289184,0.9417909401287271,-0.3332592992983251,129.1194074984375,327.5559343286469,116.00930315851174,-0.04507295528182666,-0.15022372653587338,0.9259642331652237,0.3434989076934257
2023-10-24 10:43:41.159699,1698137021.159699,152.86826683106597,329.4066863889803,41.15297367502967,0.03060461153499031,-0.03251553060555243,0.9418111172121448,-0.333163499678226,125.73947157861328,328.20881747381947,115.16793555725697,-0.06953311523561596,-0.15535237863866883,0.9254006900253191,0.33862124451605474
2023-10-24 10:43:41.259722,1698137021.259722,152.8877827912273,329.4416374553039,41.192787575743395,0.03038502617087724,-0.033466901399141026,0.9418478941890033,-0.3329853764162557,125.94700447313213,332.5223342661949,115.60762359056497,-0.07660825200003005,-0.1295187232799543,0.930043230970664,0.33522479707068015
2023-10-24 10:43:41.359746,1698137021.359746,152.8470138994224,329.4166478502502,41.01526557474368,0.02982594902986885,-0.033138550261128566,0.941824213659508,-0.33313570780645496,125.74661486905308,337.1842160174669,115.8414110331137,-0.08376405817319893,-0.10231739219988517,0.9347574334570645,0.3297624514836907
2023-10-24 10:43:41.459769,1698137021.459769,152.84988689099137,329.4082471392378,41.0012555956627,0.02970821346965308,-0.03311437795611426,0.9418098218140296,-0.3331893148941708,123.7204795843247,338.37218217879877,115.09791016143663,-0.09714451178385544,-0.09507849841514229,0.9353411758524607,0.3265882847322214
2023-10-24 10:43:41.559793,1698137021.559793,152.84472782048982,329.3726474645932,41.17431873866049,0.030446745247135927,-0.032172884606450444,0.9418225052114263,-0.3331790357709033,118.07385871824457,335.9829223299318,112.67373961324402,-0.128704357426437,-0.12286643234979837,0.9309937386101379,0.31873137098471915
2023-10-24 10:43:41.659816,1698137021.659816,152.84062561611964,329.37865277966966,41.14672890435819,0.030425721674518028,-0.03215063814107461,0.941814380635733,-0.3332060689054707,118.20577825010861,335.32590291662643,112.66509790506852,-0.1275039865964211,-0.12331149693398116,0.9362825001821152,0.30317006445005057
2023-10-24 10:43:41.759840,1698137021.75984,152.84700468287005,329.40785308770603,40.98283064253752,0.029749322998389706,-0.0331931656060112,0.9418224024919811,-0.3331422424467096,121.22266418868648,340.43486598188025,114.21756060649801,-0.12102326553305162,-0.08723282856776354,0.9436826785760072,0.2953079832571345
2023-10-24 10:43:41.859863,1698137021.859863,152.83458643880894,329.351504562679,41.28498133536829,0.03128663099668246,-0.03127715890002802,0.9418321133456322,-0.333159355748747,126.70431280999937,348.4150739005468,115.71411384621523,-0.09999105678278361,-0.029149124701652793,0.9533870766456394,0.2832052244886583
2023-10-24 10:43:41.959887,1698137021.959887,152.88922683122584,329.4492859974408,41.00968688512877,0.029597848944532015,-0.03302243420694923,0.94197367092655,-0.3327447812634542,133.5819563585584,355.57954085337434,116.53313392958728,-0.07579111050254536,0.022714953621890074,0.9541083672136015,0.2888199474824094
2023-10-24 10:43:42.059910,1698137022.05991,152.7940609774494,329.3328072662849,41.00433198698476,0.030026631688046448,-0.032262986014839706,0.9418778614778601,-0.33305194066507054,143.8295955433062,364.92020331870566,115.85749108361634,-0.03140308787904116,0.09300989076541198,0.952668044657337,0.28772661152599954
2023-10-24 10:43:42.159934,1698137022.159934,152.9222858630305,329.4419711322161,41.06962753832659,0.02920793447076045,-0.032522484405143076,0.9417221127619709,-0.33353957322512523,147.47500340206037,370.0843053156127,114.45991934413759,-0.02907556911167376,0.12883201921106885,0.9444427062731937,0.30097324910064194
2023-10-24 10:43:42.259957,1698137022.259957,152.9041436308414,329.2431473031804,41.501070821275775,0.02928738781417476,-0.029410644382804607,0.9421632330635642,-0.33257436036956084,151.06613006821777,373.2775691054673,113.21226357699149,-0.008003771271188457,0.15495436142528288,0.9387590271457842,0.3076630859772134
2023-10-24 10:43:42.359981,1698137022.359981,152.84286464774152,329.4067921320808,41.02574583183059,0.029751362099744067,-0.03288067637693328,0.9418663028643179,-0.3330489229871588,155.70397328329125,375.16389425892413,112.70306621937308,0.015074963552074187,0.1740544727873791,0.9351222875881026,0.3082597820550147
2023-10-24 10:43:42.460004,1698137022.460004,152.8394540000945,329.4043480247008,41.028706696045305,0.02966707653258535,-0.032818575530385787,0.9418817935756056,-0.3330187571308356,158.01738211500137,376.12991808923243,112.10437749169343,0.022649764661064924,0.1825256165914241,0.9332585711306074,0.30854469183568173
2023-10-24 10:43:42.560028,1698137022.560028,152.84143267897727,329.40479074487,41.036827356049734,0.02966357346587293,-0.032854870712813,0.9418820091242791,-0.3330148807000831,161.07817494129847,373.4867388594091,112.86952034000782,0.04071606612410287,0.17166057045648683,0.9287942055668793,0.3259082297446949
2023-10-24 10:43:42.660051,1698137022.660051,152.84342388411477,329.4024660856228,41.00707536075165,0.029338745858130674,-0.03274550137168243,0.9419120884076055,-0.3329693497050626,164.4660665256073,374.0168438674996,112.0798506651715,0.0610122321965141,0.1829417954637746,0.9259626122775323,0.32465835528915254
2023-10-24 10:43:42.760075,1698137022.760075,152.81330674558052,329.3293665999865,41.285066965734636,0.030909107022506453,-0.0310589149414448,0.9419030055196959,-0.3330145628928188,167.65313813731495,370.8683184935015,112.74746107331953,0.07909946893190507,0.16980400325153877,0.9216988787236969,0.33967786423893126
2023-10-24 10:43:42.860098,1698137022.860098,152.82289365759834,329.33780813805936,41.25429832909942,0.030497036027944402,-0.03092177173340138,0.9419401597117034,-0.3329602233731057,171.08537371266007,370.2076221952215,112.18862915361191,0.09808725931096075,0.17301886874253872,0.9174976846049351,0.34444355033081947
2023-10-24 10:43:42.960122,1698137022.960122,152.8458884305387,329.3032195211411,41.24778806624332,0.030235906065812408,-0.030502586100012156,0.9419216309605135,-0.33307510167269655,172.94920364597598,366.7336707895635,112.96177680507515,0.11235101505480495,0.15717069026341876,0.9153955668934451,0.35316508837950517
2023-10-24 10:43:43.060145,1698137023.060145,152.87952997839633,329.28230765235014,41.23271448011738,0.02993713921759625,-0.03012218157728436,0.941893059767595,-0.33321747528322876,174.34099491593213,365.4233139631061,113.06422642648164,0.12763826055967542,0.149690329834741,0.9182177766832753,0.34376939098484305
2023-10-24 10:43:43.160169,1698137023.160169,152.83080613205487,329.3928771391338,41.045185174501604,0.029578163874308054,-0.032902231044400036,0.9418978132227862,-0.33297309930422114,177.2263971423511,362.7045491854225,113.13519060556636,0.14868702091671243,0.1432143205009038,0.9155287939630293,0.345237390267883
2023-10-24 10:43:43.260192,1698137023.260192,152.75772322396142,329.3223592078832,40.776908286196985,0.029287248312779224,-0.03412458254270257,0.9421169493187279,-0.3322550582894494,180.09095107784805,362.6580977945157,112.06166324567037,0.1605015322840213,0.1497317473979432,0.9095284567830754,0.35295558963903284
2023-10-24 10:43:43.360216,1698137023.360216,152.8370252880862,329.15390485729296,41.16006388552801,0.028209860336517394,-0.02953476757468732,0.9426417175772026,-0.3312981943313379,182.54918785041124,361.2008113099089,111.39984556853172,0.17415291163081617,0.14838089297943483,0.9011157897388373,0.36829907337989076
2023-10-24 10:43:43.460239,1698137023.460239,152.84198653767504,329.3956377989593,41.03343058060532,0.029258854940618244,-0.032752155184757915,0.9419319882790678,-0.3329194274820254,181.21108103473236,358.8103126472997,112.35072781528282,0.17020082922569493,0.1305457738596584,0.8999716595333822,0.37952666664543966
2023-10-24 10:43:43.560263,1698137023.560263,152.84539666738482,329.3846252717163,41.02734189723939,0.029301396638188048,-0.03270083397799648,0.9419265231539439,-0.3329361929729449,181.92050668919634,356.48031672798874,112.53102119528317,0.17733147773577262,0.12005423404374059,0.8990576915543674,0.38188453117290544
2023-10-24 10:43:43.660286,1698137023.660286,152.8396675316465,329.41294789593985,41.00747103003863,0.029578176405589008,-0.03297823697969325,0.9418469172221653,-0.33310951935562405,185.51433527115313,351.8927856740089,112.04803004796005,0.20472656522666197,0.10306348548630605,0.8909028162812185,0.3921187618465876
2023-10-24 10:43:43.760310,1698137023.76031,152.8354294577656,329.42228087140734,41.00737564969422,0.02949412660082113,-0.03313666118389246,0.9418446489974339,-0.33310766328101676,185.3992774812274,347.3179512541966,112.7328504692824,0.21534982643145237,0.0788013163498232,0.8921925148634748,0.3891109369049743
2023-10-24 10:43:43.860333,1698137023.860333,152.83377436532936,329.41015245464916,41.012076834298924,0.029535263051049015,-0.033168359377860085,0.941803397845935,-0.33321747850096023,185.0898317049722,343.98098561144064,113.24453216257427,0.22002991842039626,0.06056594425688614,0.8929934532909054,0.3879191845936075
2023-10-24 10:43:43.960357,1698137023.960357,152.83159911533903,329.40728772787,41.12011059662564,0.03004582915794504,-0.031834032366269936,0.9419235037119164,-0.33296239380534015,184.65020032136175,340.37795587638874,113.65917730238266,0.22587045864416727,0.040052646330660926,0.893795130870244,0.38536811682653255
2023-10-24 10:43:44.060380,1698137024.06038,152.86577253155676,329.42728869271536,40.99038703182867,0.02933802140998629,-0.03276794683382988,0.9418814977947607,-0.33305372880654066,183.10156217020176,336.9835571680697,114.39336527245494,0.22389471674800004,0.01839900402926626,0.8955699560285914,0.3840404748486948
2023-10-24 10:43:44.160404,1698137024.160404,152.86782160668284,329.43337357446006,40.994992877157294,0.02935079639185402,-0.03277892006645598,0.9418870050019851,-0.3330359484482589,181.59258895832593,332.1904980894358,114.75637336386882,0.22802468790424557,-0.013534763343924719,0.8972336665374467,0.37788000677353295
2023-10-24 10:43:44.260427,1698137024.260427,152.8730399722695,329.4360653645243,40.99020322041236,0.02944259441980979,-0.03274667113366308,0.9418618488468621,-0.33310215677816485,172.7020039067849,323.7482054817642,116.25406316106196,0.1968100346247538,-0.07905232858153269,0.9096337485112658,0.3571876022291144
2023-10-24 10:43:44.360451,1698137024.360451,152.87132222627156,329.4354421292663,41.00419984306861,0.02950316638254666,-0.03269984566573265,0.9418809746625217,-0.33304731320882786,164.45265522294596,315.47792140207724,115.81461498487994,0.16944121405523613,-0.14272636852773962,0.9148778702778367,0.33751643098116163
2023-10-24 10:43:44.460474,1698137024.460474,152.82767385288247,329.39042822758114,41.24565646505699,0.030852377152186996,-0.030936767384301758,0.9419571903918023,-0.33287790361790454,165.13415988282387,319.0643529392182,116.77241721351254,0.16671451524465314,-0.12000891740019612,0.9089968986182593,0.3626689515985058
2023-10-24 10:43:44.690515,1698137024.690515,152.82222553941205,329.44276263419215,41.01466449103863,0.030136285332393414,-0.03363245281264467,0.9417955185248336,-0.33313940582091106,157.2223416587154,323.91664902290114,118.63729395238767,0.1164229033514347,-0.10982145274066014,0.9121887454228018,0.3772222803827054
2023-10-24 10:43:44.790538,1698137024.790538,152.9602414136333,329.33181228184117,41.18914998165773,0.030344991898732458,-0.030544142570972932,0.941735849857592,-0.33358630954262625,151.44334300131132,323.56513325886937,118.70291603882737,0.08657164333355619,-0.13941777205946077,0.915202965247294,0.36806462449828564
2023-10-24 10:43:44.890562,1698137024.890562,152.88246443317286,329.35798841104406,41.200117081177815,0.030941041100350265,-0.03165368940508265,0.9416996468657151,-0.33353031498749963,145.51534696283503,323.1155767102964,118.29218291282191,0.053933416949608126,-0.14324968510654792,0.9195842702338635,0.36185008524452134
2023-10-24 10:43:44.990585,1698137024.990585,152.86542307603926,329.38424307523746,41.175240498836715,0.03082803230020932,-0.031823628201576463,0.9417576949460622,-0.3333606652298151,139.266959108132,322.56769509280724,117.49750716095558,0.023383074850609413,-0.1557393081389169,0.9199978940792359,0.35889047716638195
2023-10-24 10:43:45.090609,1698137025.090609,152.8540286299393,329.4076562525375,41.14993580979775,0.03070653310741912,-0.03224926716455172,0.9417337944785944,-0.33339849119157855,133.9230140711538,322.7675969884793,116.4877589605184,-0.010017908300468668,-0.16768382603845194,0.9201863815965129,0.35360825658163925
2023-10-24 10:43:45.190632,1698137025.190632,152.8545238973012,329.4303910722595,41.151961359526936,0.030541962731307368,-0.03270040902868233,0.9417566032141687,-0.3333052235780103,131.57749544311156,323.899498764798,116.19378705340003,-0.02337037913078659,-0.16692429484910026,0.9236135074413355,0.3442792384683225
2023-10-24 10:43:45.290656,1698137025.290656,152.83221307309913,329.4352756996428,41.15952229802257,0.030426873547672668,-0.03266781209659502,0.9416730444018033,-0.3335549383024853,134.2274413776927,325.5119267507415,116.82239860519651,-0.016877108938780274,-0.15155688671507422,0.9277106386781305,0.34073251116751074
2023-10-24 10:43:45.390679,1698137025.390679,152.83662636740394,329.4374135681638,41.161411770666426,0.030392576557846798,-0.032775021549343926,0.9416818023394343,-0.3335228214011299,133.93075371190776,325.45471349134004,116.77624997029152,-0.012174970012387898,-0.1530093366014983,0.9281322338206502,0.33913193533056823
2023-10-24 10:43:45.490703,1698137025.490703,152.84706716849783,329.4177774747109,40.99743460616741,0.029833380885641945,-0.03308320981949774,0.9418190315110334,-0.33315519281048345,137.87271772117862,330.6723175312174,118.33766480161945,-0.004275628063913028,-0.11505932725339613,0.9330047553042914,0.3409474985921356
2023-10-24 10:43:45.590726,1698137025.590726,152.83922786029382,329.3624560223274,41.19459360844888,0.03094344110595716,-0.03164554530541327,0.9418089018311335,-0.33322223117085026,139.83511177951306,331.7249251487246,118.79876382029975,0.006400339791033593,-0.10279177507104688,0.9366431717604365,0.33480211382673797
2023-10-24 10:43:45.690750,1698137025.69075,152.79159968704366,329.4391278924541,41.22882648737858,0.030731576618588427,-0.03224685946130024,0.9415898326424754,-0.33380278207009334,142.41092751533887,334.532719845964,119.15760102357754,0.011109777316695308,-0.0826483804763544,0.9377970279164746,0.33702010694265155
2023-10-24 10:43:45.790773,1698137025.790773,152.79242734508537,329.4462239254062,41.24233350468297,0.030833073300804193,-0.03206741423614273,0.9415873852245561,-0.3338176126584971,144.88463432596706,337.1134057701965,119.36556721540737,0.02179634149414849,-0.06295390022220007,0.9390620195029017,0.33723026179661814
2023-10-24 10:43:45.890797,1698137025.890797,152.85222315602647,329.35825248912784,41.22647500576211,0.03083911462655065,-0.03121307542196101,0.9418734649832143,-0.3330901813207156,146.7550429870403,339.5492774597313,119.42973760061409,0.027101010991588216,-0.04642948523969477,0.9359749149814365,0.34793792065410684
2023-10-24 10:43:45.990820,1698137025.99082,152.8739030361211,329.4487112914904,41.251607721298925,0.030645034980614928,-0.03128216855278939,0.9419833647963346,-0.33279069729883903,150.41516393742123,342.81061247065105,119.6513502730065,0.042773320547769916,-0.023103216516581336,0.9377794421841277,0.3438115795791816
2023-10-24 10:43:46.090844,1698137026.090844,152.8602959073695,329.34131400916567,41.25623108311551,0.03073434703899451,-0.03063363933659735,0.9418675650810933,-0.33317033166429233,150.86691958207498,342.64550146102414,119.6761780473395,0.04532354459451328,-0.02351332949013359,0.9394038254180664,0.33898872021290144
2023-10-24 10:43:46.190867,1698137026.190867,152.87595069959778,329.41899324065014,40.9852393529006,0.02921444766952156,-0.03271838534414136,0.9418769065762774,-0.33308244649957075,150.94463200255325,342.71521761620363,119.63777273233498,0.04452750916011667,-0.02064521834186845,0.9389780119525898,0.3404575876040573
2023-10-24 10:43:46.290891,1698137026.290891,152.85513512513174,329.3796758396314,41.265139975663885,0.030679424609892418,-0.031038971630206292,0.9417940899378742,-0.33334553739901285,150.8050054766515,342.75936996172896,119.69311659426064,0.04706102746958435,-0.021781898929724194,0.938660662515209,0.340920766775847
2023-10-24 10:43:46.390914,1698137026.390914,152.85459629294633,329.3852924731823,41.26629861737393,0.03072157049604303,-0.03102303491133481,0.9418007140417569,-0.33332442370997023,150.7410385550542,342.8011068989061,119.66891717441483,0.04566604938291445,-0.02175893988323707,0.9384275038422374,0.3417528061352861
2023-10-24 10:43:46.490938,1698137026.490938,152.87919923580714,329.4442110212435,41.24993546357139,0.030629844763302747,-0.031104443240590824,0.9420057983490072,-0.332745251051489,150.7350999589126,342.6871387659199,119.6729322115997,0.04687870749206132,-0.021707434934508395,0.938698055472042,0.34084767082297185
2023-10-24 10:43:46.590961,1698137026.590961,152.87869173839047,329.44901024547937,41.264499750577144,0.030597232790248046,-0.031230193595206797,0.9419963520455318,-0.3327632147436009,150.67482044663748,342.5352741307166,119.70499617276526,0.04645052353655707,-0.023457496061590522,0.9383924180783347,0.3416310355263353
2023-10-24 10:43:46.690985,1698137026.690985,152.88368100084878,329.441525250728,41.253815189276125,0.03058072605788335,-0.03109521796452007,0.9419923674111612,-0.332788651177632,150.67994802795135,342.5365215352137,119.71271062417885,0.0475698818591835,-0.023044416441992874,0.9384631410362441,0.3413107002822179
2023-10-24 10:43:46.791008,1698137026.791008,152.87560246578548,329.4507946054433,41.26437341773601,0.03060585978569333,-0.031142204670185383,0.9419983977837766,-0.3327648764636327,150.6737143277731,342.54318440922617,119.69876985644075,0.046712149277951975,-0.023110756170791065,0.9384576014874552,0.3414398896869865
2023-10-24 10:43:46.891032,1698137026.891032,152.87647957532798,329.4443878894248,41.266960513644,0.03059992182923073,-0.031075153025575456,0.9419965524012119,-0.33277691463308123,150.65091954663959,342.4462830408783,119.69863996681784,0.049039105617842665,-0.022027093784915925,0.9382682045978801,0.3417056474515211
2023-10-24 10:43:46.991055,1698137026.991055,152.87121030461853,329.44834981518727,41.26338537829157,0.030606603723568167,-0.03112282436109952,0.9420019420766135,-0.33275658781785983,150.6484034376454,342.4271663801694,119.69380596870084,0.04936043567524361,-0.02265239765670129,0.938207524417651,0.3417851041172737
2023-10-24 10:43:47.091079,1698137027.091079,152.86895578210567,329.4527488545107,41.27342772550553,0.030659271704759405,-0.031114037679989357,0.9420079631107302,-0.3327355153177296,150.64559847347894,342.4358145113966,119.7012898431938,0.04960147682619418,-0.022070513698707522,0.9381108490185233,0.3420535351015701
2023-10-24 10:43:47.191102,1698137027.191102,152.87314696126063,329.45737680635705,41.27319398049653,0.030718674332161966,-0.03126292675174997,0.9419924610474203,-0.3327599672256471,150.63237817338373,342.4504852376336,119.72916333342415,0.04752203304454358,-0.02348742950905065,0.9382985718229077,0.3417393555700933
2023-10-24 10:43:47.291126,1698137027.291126,152.89178658086576,329.5054374049899,41.0134197629492,0.029233832141163825,-0.03306214847895721,0.9420993954980023,-0.33241691653493866,150.81171844724224,342.38248483973297,119.68259422126809,0.044991042411735835,-0.02404946940179349,0.9392974591343881,0.33929001221356364
2023-10-24 10:43:47.391150,1698137027.39115,152.89009401168948,329.41759295253917,41.27189856554055,0.030625528811273943,-0.030856268353914147,0.9420796217981499,-0.3325596997246602,150.8632999034062,342.42158417602656,119.68007317865218,0.04543092848830418,-0.023766251503840423,0.9393121776476601,0.33921059675216175
2023-10-24 10:43:47.491173,1698137027.491173,152.85579554506594,329.355166937346,41.2804748774179,0.030678198668616295,-0.030484318143182157,0.9418868367641045,-0.3331347193018218,150.93081166852846,342.4311923907208,119.69024366687096,0.045882244535219066,-0.02344557799914367,0.939277196493905,0.3392690269612699
2023-10-24 10:43:47.591196,1698137027.591196,152.88925120106742,329.41880390064085,41.28200513352933,0.030628443456167272,-0.030766695367273857,0.942088169962936,-0.33254351433085577,150.93333515761853,342.4464218392797,119.6851361684641,0.04564306027470304,-0.023140915588018354,0.9393670647746541,0.33907333527005445
2023-10-24 10:43:47.691220,1698137027.69122,152.89081129088797,329.4275542917309,41.27115066300325,0.03066530825207405,-0.030899666369747655,0.9420795649907627,-0.332552165403954,150.92046887320674,342.4291658796931,119.67892172844229,0.04556693473298218,-0.023277814233951578,0.9394576696079328,0.3388230878177611
2023-10-24 10:43:47.791243,1698137027.791243,152.87759293644513,329.43393551893837,41.01301967063896,0.02914445085841112,-0.03251873700311283,0.94188320855342,-0.3330903093351694,150.91599654599898,342.44216587931817,119.68325172406281,0.0458331161711122,-0.023102195575800025,0.9393692567381815,0.339044264833929
2023-10-24 10:43:47.891267,1698137027.891267,152.8365851579387,329.3809013143969,41.276433905486456,0.030653462924385692,-0.03057224213184709,0.9417787520592961,-0.33343437943830867,150.0930784378932,342.30407008459395,119.70355231732333,0.0437070573884768,-0.022388335945469764,0.939221399164322,0.3397817224334566
2023-10-24 10:43:47.991290,1698137027.99129,152.83601042774518,329.38275930076395,41.27890154422656,0.030649703965304247,-0.030617131476436157,0.9417775050919115,-0.3334341281420492,150.0546926323179,342.203140486877,119.71725539773225,0.044775680267809925,-0.02517236298375976,0.9393256902747535,0.3391588686563076
2023-10-24 10:43:48.091314,1698137028.091314,152.88132160798244,329.3481549672278,41.263712320042416,0.030897597306929838,-0.029891071289549126,0.9420971009784789,-0.3325731718972049,150.03367943725124,341.94295504246054,119.59399835926922,0.0384717351486313,-0.02721136430049677,0.9398868337523,0.3382191700460453
2023-10-24 10:43:48.191338,1698137028.191338,152.88125299499126,329.3465959621622,41.261258897728084,0.030921228348720336,-0.029859258817963055,0.9421024050304441,-0.33255880793643305,150.05799160071962,341.9216261669252,119.6305030420866,0.04056432145460182,-0.026378108379762285,0.9401883204150541,0.3372012060748791
2023-10-24 10:43:48.291361,1698137028.291361,152.89093481440887,329.4128372631271,41.005502763199814,0.029443426146457095,-0.031752488158525334,0.9420905193257302,-0.33255122545117266,150.03943069470677,341.90467808544673,119.6375304482999,0.04059241997178767,-0.026684830992218612,0.9402319758635753,0.337051934869729
2023-10-24 10:43:48.391385,1698137028.391385,152.8749489429252,329.28690796589746,41.266792219368526,0.0307623068221686,-0.029388815212550427,0.9419605892894286,-0.333016855796961,150.05632447418634,341.9216726719682,119.6372666750286,0.04037681833636185,-0.02669252412761244,0.9402019647688038,0.33716092172968437
2023-10-24 10:43:48.491408,1698137028.491408,152.88302185084152,329.34855810844437,41.26493599402819,0.03091538978780162,-0.029870998483769083,0.9420862093915268,-0.3326041734527024,150.04868301666818,341.92233785507113,119.64340404663962,0.04032238973798328,-0.02655033805629716,0.9402234063701042,0.33711886709099004
2023-10-24 10:43:48.591431,1698137028.591431,152.8740156678448,329.2833520027814,41.26475577496,0.030784317278623536,-0.029344893468939846,0.9419587769012333,-0.3330238214538388,150.04660849360718,341.92563329792335,119.63667298641653,0.04062187700729452,-0.026614761684133247,0.9402157925019827,0.33709906718762894
2023-10-24 10:43:48.691455,1698137028.691455,152.88840143610702,329.3464966587343,41.268294928617486,0.030835602747394043,-0.02982812699105105,0.9420929194656591,-0.33259642141201984,150.0365894819534,341.9681622857938,119.60544700342797,0.038728227886771,-0.027175515891057954,0.9399101413830669,0.33812799621751005
2023-10-24 10:43:48.791479,1698137028.791479,152.8692997059071,329.286274157941,41.256915585927764,0.03073920995128429,-0.029381954529463367,0.9419603743747762,-0.33302020183065606,150.04154751523822,341.9287073917843,119.63702424431708,0.04029306954729728,-0.026849874240256394,0.9402299988919345,0.33708026044758543
2023-10-24 10:43:48.891502,1698137028.891502,152.87685178121527,329.2871965359909,41.263589643230716,0.03079306502005396,-0.02938693600797204,0.9419444033381303,-0.33305995880427886,150.04676208837267,341.93723053100115,119.63895972389615,0.04050105070089854,-0.026671684710516792,0.9402410390590686,0.337038684123869
2023-10-24 10:43:48.991526,1698137028.991526,152.872102665951,329.28838887188164,41.260487538932864,0.030762341595479296,-0.02940754929885255,0.9419563138653017,-0.3330272919042701,150.0492221011179,341.94065256262456,119.64208165759113,0.04034650371779702,-0.026686873916778715,0.9402042714013293,0.337158565717965
2023-10-24 10:43:49.091549,1698137029.091549,152.8705629845489,329.28765065738554,41.25208615676338,0.03071705569700672,-0.029386895594211888,0.9419663081725969,-0.33300502567428364,150.05041203976114,341.9386184144655,119.6294025727236,0.04024390960955239,-0.026611247447310284,0.9402373873280228,0.33708444745969807
2023-10-24 10:43:49.191573,1698137029.191573,152.88142760478436,329.3504912432074,41.28277899281316,0.03085916898974743,-0.029831658483449965,0.9420952998510089,-0.33258717630123186,150.05090595458844,341.9417856173564,119.6493215682238,0.04018955920237459,-0.026855988049114748,0.9402141846012803,0.3371362370193606
2023-10-24 10:43:49.291596,1698137029.291596,152.87055152255965,329.2878975447458,41.27180518175596,0.030762174838987782,-0.029368367351958982,0.9419567147167388,-0.3330296311115639,150.05343650595916,341.94925368729616,119.65047136548627,0.04050505900797166,-0.02658786370470753,0.9401920451903001,0.33718147021931866
2023-10-24 10:43:49.391620,1698137029.39162,152.88298804705,329.35184148835583,41.26950227379883,0.030804460381788846,-0.029821579531720908,0.9420947267315893,-0.3325947751834839,150.05471517948135,341.95378227021354,119.64885532211272,0.04048522932691119,-0.026540988844363976,0.9402157902951117,0.33712132800706845
2023-10-24 10:43:49.491643,1698137029.491643,152.8714569954415,329.2928240269826,41.25898158511141,0.030700339718000232,-0.029353122517728224,0.9419570318869449,-0.33303578399084344,150.1038559314754,341.9611779776167,119.65093905271756,0.04039434579964263,-0.02658019582537183,0.9401991480991733,0.33717555061257454
2023-10-24 10:43:49.591667,1698137029.591667,152.8361590904301,329.3858220139834,41.26962869428684,0.030561890862346036,-0.030601932275115453,0.941776809908627,-0.33344554710818547,150.10335444556998,342.2053267723552,119.69793552452522,0.04448145934388447,-0.024297203277809532,0.9387344479914423,0.3408939451526196
2023-10-24 10:43:49.691690,1698137029.69169,152.86407068754932,329.4533696893824,41.269991889917,0.03040386358761031,-0.030655550615531886,0.9419778122601585,-0.33288683288013987,150.13021848263716,342.6098077096331,119.63461031616768,0.042537862523829614,-0.024220914444058973,0.9378236596246647,0.34364321760162597
2023-10-24 10:43:49.791714,1698137029.791714,152.87300811013355,329.5244918958889,41.008804187005566,0.028895264536064207,-0.03264290060674431,0.9419925331228559,-0.332790583202341,150.148205401973,342.62652803465494,119.63592588695815,0.04244796356283346,-0.02446072400290705,0.9378862865094925,0.3434663840145879
2023-10-24 10:43:49.891737,1698137029.891737,152.86116326434754,329.45815316940525,41.28053304770182,0.03039672930069686,-0.030825463451448192,0.9419805695619261,-0.33286399057064264,150.1699199095663,342.6203465219233,119.65982801460123,0.043026385903562635,-0.024306122147520908,0.9379638009978105,0.34319360506857843
2023-10-24 10:43:49.991761,1698137029.991761,152.8675934125509,329.458332390218,41.27696338208932,0.03042593462669334,-0.030760570899971414,0.9419801836189368,-0.3328684176205882,150.18709159448062,342.64316893100124,119.64262006337574,0.042571681914744995,-0.0240873570202218,0.9381097770505263,0.34286658824233934
2023-10-24 10:43:50.091784,1698137030.091784,152.87062511915457,329.4630752992172,41.28999820244515,0.030520670469051454,-0.03094708300940407,0.941988167986866,-0.33281985833191596,150.3841184492336,342.6984743562262,119.63208275594222,0.04482014184627427,-0.022733564113162394,0.9377429148811094,0.343675087165004
2023-10-24 10:43:50.191808,1698137030.191808,152.8686161853824,329.46945080545726,41.28257883574959,0.030528631475285607,-0.03109916893939628,0.941990201479912,-0.3327991957132108,150.37127061230518,342.66920646812304,119.62339343966653,0.04552032933023743,-0.022151669743805395,0.9375188466827802,0.3442319207450375
2023-10-24 10:43:50.291831,1698137030.291831,152.8600638343853,329.46899774854114,41.2808536230367,0.030442952696967604,-0.03095131784469708,0.9419954977546704,-0.33280583643424533,150.40294903578163,342.7046265606775,119.59747177484553,0.04437099686433618,-0.020960205390124564,0.9376110662091679,0.34420542260309656
2023-10-24 10:43:50.391855,1698137030.391855,152.86155134707067,329.45973529378864,41.28560976389747,0.030482559926735552,-0.03081198170832944,0.9419906506866993,-0.33282885893859554,150.3886854715402,342.69534129039204,119.58781725831905,0.044245397135233504,-0.021077536755094727,0.9375443131147811,0.34439620094132345
2023-10-24 10:43:50.491878,1698137030.491878,152.8663447669751,329.45631251340933,41.27870646212476,0.03038423376563824,-0.030793503181429042,0.9419790049011396,-0.33287251737827367,150.37007167491487,342.6758010746345,119.62271616419314,0.04570020902572963,-0.022280551491814758,0.9375526174239827,0.3441077701558982
2023-10-24 10:43:50.591902,1698137030.591902,152.8729215359628,329.4718691361606,41.284579541460445,0.03042834301958698,-0.03106235243223282,0.9419739419419858,-0.3328578358770216,150.3771778925005,342.6821136597606,119.63259911293589,0.045791189419790566,-0.02229605871722968,0.9375628764006156,0.34406671668820643
2023-10-24 10:43:50.691925,1698137030.691925,152.869178449893,329.46300397381617,41.26419178800393,0.030393801948061,-0.031060520395041362,0.9419747863660333,-0.3328587729452196,150.3979122430292,342.67840965972624,119.57790315098086,0.04491447676559054,-0.01999778058037597,0.9373429552996944,0.3449216761799227
2023-10-24 10:43:50.791949,1698137030.791949,152.86666632174484,329.45869382980703,41.26639196571342,0.03038984879512497,-0.0309048815055881,0.9419783266577503,-0.33286360193989367,150.36921376420892,342.67608969124575,119.61607220572675,0.045422157463608705,-0.022302314397569172,0.9375379857981727,0.34418303207649337
2023-10-24 10:43:50.891973,1698137030.891973,152.86361316098203,329.4650485428933,41.266643398533766,0.03046025381461488,-0.030960619964098057,0.9419862371667639,-0.33282959895025754,150.36189078086736,342.6942409232691,119.61930039970747,0.044980193861610805,-0.022591723744229544,0.9377778357536407,0.3435682275002364
2023-10-24 10:43:50.992706,1698137030.992706,152.86472670097868,329.46218804275975,41.27598656120906,0.03037008620844016,-0.030812750442953354,0.9419755155842191,-0.3328819014510654,150.36371033843065,342.67692391950305,119.623394902761,0.04534616373730924,-0.022463712112726446,0.9375337270429505,0.344194157023881
2023-10-24 10:43:51.092729,1698137031.092729,152.87274975501265,329.45976515900674,41.272788439400536,0.030272863179054414,-0.030762606732768042,0.9419788291466454,-0.33288601836283604,150.35613544465383,342.70146781731614,119.63414141161634,0.042266491972302145,-0.022553873816143048,0.9377224516692909,0.3440660838670025
2023-10-24 10:43:51.192752,1698137031.192752,152.86620130547075,329.45984718610714,41.28458285057224,0.03037280188917831,-0.03082043742965283,0.9419698715815258,-0.33289691283448297,150.35469614010466,342.67695394913375,119.62786166416086,0.04518237389799693,-0.022511543240560747,0.9376216919864142,0.3439728858884139
2023-10-24 10:43:51.293403,1698137031.293403,152.8721442119737,329.4629554159119,41.26871476864332,0.030352609194963173,-0.030924592631411573,0.9419754124448214,-0.33287341593321595,150.36456093050077,342.67706968371994,119.62219722283697,0.04552706326881531,-0.022315805419919184,0.9375567907473151,0.3441170665081475
2023-10-24 10:43:51.393426,1698137031.393426,152.87031906982355,329.46940796958717,41.29725231857373,0.030409660373086983,-0.03091172980349195,0.9419786061146784,-0.3328603658274697,150.33548207202287,342.6922379872571,119.67120125431141,0.042751390290668406,-0.023988715783372888,0.937920526962441,0.34336852687131436
2023-10-24 10:43:51.493450,1698137031.49345,152.87122276846256,329.46699255447237,41.285206541709535,0.030400553518698623,-0.03101575319622821,0.941972295431267,-0.33286937984647547,150.3591064605352,342.69550560840224,119.63642885039162,0.04502078586900224,-0.02232852193634562,0.937782403120137,0.3435676503195496
2023-10-24 10:43:51.593473,1698137031.593473,152.865699670445,329.47178532905804,41.28574156828993,0.030398654187307226,-0.03096785191751568,0.9419823568026444,-0.33284553991866994,150.35460316748495,342.6790007788513,119.6345988889558,0.045473157671487636,-0.021972443789014532,0.9375825739822552,0.3440760389944811
2023-10-24 10:43:51.693497,1698137031.693497,152.8634965352005,329.4710565648988,41.27876394360653,0.030405644341694682,-0.03103048379919523,0.941970666598419,-0.33287215133664233,150.38413429084764,342.67711011337315,119.58369318327512,0.04521678346685416,-0.02024587305904844,0.937383944278054,0.3447562735131973
2023-10-24 10:43:51.793520,1698137031.79352,152.86902549009963,329.4600866704787,41.263744440522935,0.030332479239387783,-0.030805630091013014,0.9419656244597542,-0.3329139771683267,150.37635126511668,342.6782215576224,119.57883243465135,0.045004993881787164,-0.020256058842894296,0.9373304691852248,0.3449287377747176
2023-10-24 10:43:51.893544,1698137031.893544,152.8665746217799,329.46348206133774,41.274353002497136,0.03036358207747747,-0.03084660583442382,0.9419807521552094,-0.33286454055820686,150.3727652614674,342.68402767531416,119.60854016106838,0.044505375535178665,-0.02119843691143244,0.9376767584194151,0.3439944687651863
2023-10-24 10:43:51.993567,1698137031.993567,152.876382122946,329.45707375552627,41.26608282809362,0.030313091711637128,-0.030744391132571568,0.9419738195107936,-0.33289821603759956,150.34479628518642,342.561540462259,119.6745709955444,0.04384391441405045,-0.02261792678014514,0.9382486422868568,0.3424260880889354
2023-10-24 10:43:52.093591,1698137032.093591,152.87020125144068,329.4576632598601,41.28457853830825,0.030251741023627408,-0.03076642191877474,0.9419724482045768,-0.33290564169270453,150.31782301715438,342.5576013197797,119.71565870953756,0.04423971763571349,-0.023985101044436186,0.9384146670993423,0.34182667374596626
2023-10-24 10:43:52.194617,1698137032.194617,152.87521688746398,329.46177187062347,41.27061133987344,0.03036148955575737,-0.03077456215187864,0.9419635471926479,-0.33292008355844216,150.353563059644,342.5726437231909,119.6749397823821,0.04384879238893564,-0.022466151549299655,0.9381922862553896,0.3425898268359423
2023-10-24 10:43:52.293638,1698137032.293638,152.86671144956654,329.463568704689,41.27325549000395,0.03027077231296097,-0.030868974570725488,0.9419769240758704,-0.33288175267066045,150.3133138584793,342.5410452673638,119.70714746321082,0.04427635755926618,-0.023460222839291882,0.9384218828756167,0.34183854645987083
2023-10-24 10:43:52.393661,1698137032.393661,152.86777807404482,329.4642405606728,41.26924100191816,0.030331472340859474,-0.03086639513069702,0.9419768782285819,-0.3328765962335094,150.357760145514,342.4717691848568,119.72898891197839,0.04536852207322705,-0.02387266720187571,0.9382071362103962,0.3422559897641631
2023-10-24 10:43:52.493685,1698137032.493685,152.87114133333043,329.4562890587233,41.28928495949353,0.03027482328760378,-0.030628237884711224,0.9419787345124986,-0.33289849781159087,150.32615246470039,342.4554815309241,119.74144392647892,0.044757967182228305,-0.025121513524840444,0.9384892182919176,0.34147272377418597
2023-10-24 10:43:52.593708,1698137032.593708,152.86797903253094,329.46756361238505,41.2862534726883,0.030299776268203314,-0.030775108234906066,0.9419925678938169,-0.3328435342680392,150.35131299510888,342.46564195422775,119.72596045812145,0.0445027722230374,-0.024176961607015015,0.9383018818424516,0.34208852117957933
2023-10-24 10:43:52.693732,1698137032.693732,152.8675028384544,329.45922495023956,41.27390533086516,0.030282915419063108,-0.03081720728472681,0.9419782801287006,-0.3328816073841683,150.31660280838517,342.4872950874385,119.70739944276055,0.044591445796137295,-0.02402895784425906,0.9384832295487748,0.3415895782989151
2023-10-24 10:43:52.793755,1698137032.793755,152.86744557219734,329.46756340940743,41.27397999948843,0.030288503188526657,-0.030841224590120692,0.9419752825934389,-0.3328873569593646,150.3152829830483,342.47965185307555,119.71341271034265,0.04491006006811693,-0.02420781515676397,0.9382654277014504,0.3421330959878458
2023-10-24 10:43:52.893779,1698137032.893779,152.86952270406974,329.4569618441178,41.26344967160035,0.030263581155338875,-0.03060648185267006,0.9419779996826199,-0.3329036002181213,150.31940066497964,342.45131552249927,119.73924525582926,0.04576722814402282,-0.024565744637955092,0.9382479696023144,0.34204185789977565
2023-10-24 10:43:52.993802,1698137032.993802,152.86566691924617,329.45840755221957,41.29153980762552,0.03025630299712517,-0.030604124545498174,0.9419803152905247,-0.3328979262400315,150.30789689626903,342.4879352844217,119.72469592905199,0.04486698137427816,-0.02400138425598445,0.9383040223925585,0.3420474369120486
2023-10-24 10:43:53.093826,1698137033.093826,152.87079166641738,329.46919727674816,41.275483057893,0.030277883149631517,-0.030790590629926784,0.9419762406546759,-0.33289029929200675,150.30178058025825,342.5001226390333,119.736980921077,0.04540822634065473,-0.024047883693718634,0.9384592976057657,0.3415463936389052
2023-10-24 10:43:53.193849,1698137033.193849,152.868414146747,329.4651709381874,41.28955461715405,0.030219480326684034,-0.030654879675628948,0.9419787120330302,-0.33290113763315904,150.30279908489632,342.4967422512895,119.73067171163797,0.044635229646435744,-0.024215822288220647,0.9385051447490101,0.3415104442106491
2023-10-24 10:43:53.293873,1698137033.293873,152.87588203560338,329.4633731318509,41.285170419468685,0.030184879856293093,-0.030605569723704377,0.9419719350631374,-0.3329279887353378,150.2982308320538,342.49947537889193,119.723690923295,0.04445596811304339,-0.024178907456151037,0.938537490504288,0.3414475453876813
2023-10-24 10:43:53.393896,1698137033.393896,152.8711689585645,329.46541290713026,41.29469206915813,0.030303303802907303,-0.030626625617409645,0.9419862981792259,-0.3328746515199353,150.29841967301866,342.4918836372309,119.72862573161783,0.04455669566621746,-0.023685838248763285,0.9383299956204095,0.3420387423330343
2023-10-24 10:43:53.493920,1698137033.49392,152.87097036744737,329.467748398606,41.28651816993842,0.030170971601644253,-0.03064640635936468,0.9419823443468222,-0.33289603961106934,150.2971361513566,342.50845984389525,119.73618512459814,0.04461476270823902,-0.023909939224778316,0.9384868953359283,0.34158481382737915
2023-10-24 10:43:53.593943,1698137033.593943,152.8708597717044,329.4653786266027,41.29924842804664,0.030214219669896337,-0.03052999951640494,0.9419816523065363,-0.3329047713342591,150.30801440474863,342.5138968320567,119.72598299093676,0.04486361389483662,-0.022636024363860033,0.9383475636871598,0.34202151434034866
2023-10-24 10:43:53.693967,1698137033.693967,152.8603687109878,329.46447243097566,41.2970638095173,0.030157845063282486,-0.030545423547925818,0.9419874783242401,-0.33289198272376,150.28359294557424,342.5154408404366,119.74130496510462,0.04466748949564962,-0.02388858820040734,0.938491802111815,0.34156593522315054
2023-10-24 10:43:53.793990,1698137033.79399,152.8726890603599,329.4588913278151,41.27794474233035,0.03007987930504084,-0.030523002025309824,0.9419727680781054,-0.3329427149039742,150.28108495300913,342.50134221488054,119.7320342307803,0.04523597775445904,-0.02362424513747977,0.9383353345853775,0.341939177671746
2023-10-24 10:43:53.894014,1698137033.894014,152.8613385889228,329.4655505124875,41.28658529114575,0.03018306472132493,-0.030663653969903965,0.9419806637186867,-0.3328981107025766,150.29131617819027,342.46100453809186,119.763120002661,0.0446725358409083,-0.025188980309608106,0.9384213119950234,0.3416655104133922
2023-10-24 10:43:53.994037,1698137033.994037,152.85682883371527,329.46391591054675,41.28456309217163,0.030190031688426752,-0.030396941505298234,0.9419880642630738,-0.33290099837591736,150.25687521064512,342.4022585339599,119.7378016981546,0.044501726563755416,-0.024343884871625057,0.9387089081066062,0.340958292821138
2023-10-24 10:43:54.094061,1698137034.094061,152.8619715965246,329.4729523536694,41.29379699740777,0.03016655572123029,-0.03052003708702566,0.9419735646242253,-0.3329328908372604,150.26965719417885,342.380630939375,119.77629174253171,0.04497311725311474,-0.025523397324848842,0.9385251502592072,0.3413158614018226
2023-10-24 10:43:54.194084,1698137034.194084,152.83991102608638,329.4858880763397,41.0312717319289,0.02872171776715766,-0.03235820211261181,0.9417971466939182,-0.33338587877073855,150.18607170627106,342.25990224151224,119.78374038320227,0.044581118005998684,-0.023992230316457804,0.93840359776733,0.3418122064805595
2023-10-24 10:43:54.294108,1698137034.294108,152.84236485412177,329.47525459595016,41.03544463067154,0.028714356450152648,-0.03218348199798845,0.941783345822745,-0.33344240694766863,150.16106582252635,342.1715420253615,119.77725827003954,0.045147847846812035,-0.02596564863929405,0.9383910889817234,0.3416278985171397
2023-10-24 10:43:54.394131,1698137034.394131,152.83377114585153,329.41501392299693,41.32637626212288,0.030212452547440625,-0.030172516247410543,0.9417762308659843,-0.33351815235490384,150.16396108905042,342.19991934337844,119.80090164600902,0.04500221568534056,-0.02586420250704293,0.9384418952698642,0.3415152307209592
2023-10-24 10:43:54.494155,1698137034.494155,152.8328801702214,329.4190366993924,41.32381675216544,0.03012459231865124,-0.03010129414143888,0.9417706667280136,-0.33354824586455023,150.14711686359408,342.2225811973679,119.79479249328105,0.04489687693890964,-0.02563455573470287,0.9384105260641027,0.34163258709542177
2023-10-24 10:43:54.594178,1698137034.594178,152.83785304768622,329.49331671166823,41.06237534753595,0.02859767909958447,-0.03202455636540979,0.9417856427824437,-0.333461247506476,150.1349560409237,342.23736615865465,119.8007424862243,0.044944710108678336,-0.025347844648173076,0.9384308735971222,0.34159179627836683
2023-10-24 10:43:54.694202,1698137034.694202,152.84584390261546,329.48725163213385,41.05802858363487,0.028568232480272713,-0.03200543617314922,0.9417560686134783,-0.33354911988791885,150.13211223171223,342.2443884598404,119.8021031218523,0.04500123621420654,-0.02553407107078174,0.9384624199457661,0.34148380093831987
2023-10-24 10:43:54.794225,1698137034.794225,152.82796528846436,329.4225604347086,41.35304998134034,0.03014472921872314,-0.029977946058168503,0.9417672643298486,-0.33356714149798466,150.12712772565376,342.25947619920686,119.81558801419726,0.04489734936263589,-0.025340666194472245,0.9383785985712434,0.3417421314390414
2023-10-24 10:43:54.894249,1698137034.894249,152.82972525372725,329.4245557103174,41.3325646880078,0.03013021366802899,-0.030021468193671325,0.9417658811855233,-0.3335684438112667,150.11970767350073,342.25287146993185,119.81716682410182,0.0449678250381419,-0.025561005680035845,0.9384123052019105,0.3416238796477797
2023-10-24 10:43:54.994272,1698137034.994272,152.82589493123652,329.42033009268357,41.327381468569314,0.030055598004907234,-0.030023343252436326,0.9417669252707713,-0.33357205871378254,150.12493697263392,342.2708904286245,119.80627068688685,0.04456291277961316,-0.025440419565323526,0.9384298155697177,0.3416378391026418
2023-10-24 10:43:55.094296,1698137035.094296,152.8368654223365,329.49925889537633,41.079507082870705,0.02856059918742348,-0.03189161938976052,0.9417691711290523,-0.3335236799653839,150.11622352199916,342.2654026643567,119.81961610257221,0.044681657943019926,-0.025502746196306617,0.9384391283812105,0.34159209842006555
2023-10-24 10:43:55.194319,1698137035.194319,152.83279403141037,329.4201850190655,41.32257417878153,0.03002035879835017,-0.02999550458121434,0.9417528629198318,-0.3336174350132752,150.13575064341435,342.2667564438397,119.78499589945822,0.04425676008567335,-0.024246971856159098,0.938358158411081,0.3419610944038669
2023-10-24 10:43:55.294343,1698137035.294343,152.82758228200984,329.4264188199151,41.350815698860394,0.03006682450390034,-0.029964820925471102,0.941759025719519,-0.33359861067902963,150.1118597949133,342.2722859574131,119.82624422859449,0.044682475841407165,-0.025311643901003537,0.9385024533922613,0.34143219240782985
2023-10-24 10:43:55.394366,1698137035.394366,152.8322306010124,329.4292343574341,41.347183995499634,0.030047443429576895,-0.02987520724522064,0.9417580362250136,-0.33361118737387596,150.1188577681066,342.2896064915502,119.82356532232679,0.04470448395624836,-0.02566057382531582,0.9384842926375235,0.3414531835227316
2023-10-24 10:43:55.494390,1698137035.49439,152.82363515699134,329.431616000916,41.35526936795761,0.030004776886796133,-0.029952311316544633,0.9417602249538255,-0.33360193510483477,150.11077584548434,342.2888742338514,119.83085848187079,0.04444380578975143,-0.02541853355131071,0.9384592687136887,0.34157407285154495
2023-10-24 10:43:55.594414,1698137035.594414,152.82845229438868,329.42902973981194,41.337926873778834,0.029990082501195368,-0.029866489348263494,0.9417512734866155,-0.3336362190349236,150.12509761536347,342.2917994915107,119.79568646573044,0.04405745692706058,-0.024322422875914643,0.938369211894323,0.34195114037445873
2023-10-24 10:43:55.694437,1698137035.694437,152.8265555185797,329.42438953145313,41.346199438957726,0.029993784337080394,-0.02996017102173118,0.941752902011704,-0.3336228898112706,150.1095821379688,342.28985972669255,119.8207214704799,0.044477222176955385,-0.02572189798263947,0.9384999716468825,0.34143515327276025
2023-10-24 10:43:55.794460,1698137035.79446,152.82890333366348,329.42727035202944,41.35681787663234,0.030018057621513602,-0.029820929782821692,0.9417651980216155,-0.33359847145756955,150.10950517400224,342.2999822403431,119.82590628392087,0.04450634163894577,-0.02578298451552096,0.9384953886851123,0.3414393484649504
2023-10-24 10:43:55.894484,1698137035.894484,152.8298621962779,329.501133383613,41.08108202679106,0.028507601169362667,-0.03181540801062704,0.9417811801602127,-0.33350158198233926,150.102512347594,342.2955857321269,119.82085495843265,0.04468544241544768,-0.02564757677553655,0.9384857978560469,0.3414525153871002
2023-10-24 10:43:55.994508,1698137035.994508,152.82575222533825,329.4334948390102,41.363178224065976,0.030025644225714118,-0.02981749632756385,0.9417824486719768,-0.3335493921070789,150.10605384972374,342.3018868884426,119.83231748012379,0.044509707954676445,-0.025777885522501154,0.9385444304439413,0.3413044661272927
2023-10-24 10:43:56.094531,1698137036.094531,152.85379213350677,329.48816249235676,41.3483324571683,0.029808203889829223,-0.02981708049687317,0.9419775637672279,-0.3330175401546645,150.10198727122423,342.30479285912503,119.82273503666873,0.044359401032232605,-0.025706917042243423,0.9384479272386765,0.3415946220561394
